;FLAVOR:Marlin
;TIME:194
;Filament used: 0.0441471m
;Layer height: 0.2
;MINX:105.23
;MINY:107.999
;MINZ:0.2
;MAXX:114.849
;MAXY:112
;MAXZ:5.6
;Generated with Cura_SteamEngine 5.2.2
M82 ;absolute extrusion mode
; Ender 3 Custom Start G-code
G92 E0 ; Reset Extruder
G28 ; Home all axes
M104 S175 ; Start heating up the nozzle most of the way
M190 S65 ; Start heating the bed, wait until target temperature reached
M109 S195 ; Finish heating the nozzle
G1 Z2.0 F3000 ; Move Z Axis up little to prevent scratching of Heat Bed
G1 X0.1 Y20 Z0.3 F5000.0 ; Move to start position
G1 X0.1 Y200.0 Z0.3 F1500.0 E15 ; Draw the first line
G1 X0.4 Y200.0 Z0.3 F5000.0 ; Move to side a little
G1 X0.4 Y20 Z0.3 F1500.0 E30 ; Draw the second line
G92 E0 ; Reset Extruder
G1 Z2.0 F3000 ; Move Z Axis up little to prevent scratching of Heat Bed
G1 X5 Y20 Z0.3 F5000.0 ; Move over to prevent blob squish
G92 E0
G92 E0
G1 F1500 E-6.5
;LAYER_COUNT:28
;LAYER:0
M107
G1 F300 Z0.4
G0 F6000 X113.4 Y109.4 Z0.4
;TYPE:SKIRT
G1 F300 Z0.2
G1 F1500 E0
G1 F600 X113.45 Y109.4 E0.00166
G1 X113.45 Y110.6 E0.04158
G1 X113.4 Y110.6 E0.04324
G1 X113.4 Y109.4 E0.08315
G0 F6000 X113 Y109
G1 F600 X113.85 Y109 E0.11142
G1 X113.85 Y111 E0.17794
G1 X113 Y111 E0.20621
G1 X113 Y109 E0.27273
G0 F6000 X112.6 Y108.6
G1 F600 X114.25 Y108.6 E0.32761
G1 X114.25 Y111.4 E0.42074
G1 X112.6 Y111.4 E0.47562
G1 X112.6 Y108.6 E0.56875
G0 F6000 X112.2 Y108.2
G1 F600 X114.65 Y108.2 E0.65024
G1 X114.65 Y111.8 E0.76997
G1 X112.2 Y111.8 E0.85146
G1 X112.2 Y108.2 E0.9712
G1 F1500 E-5.5288
G1 F300 Z0.4
G0 F6000 X109.2 Y108.2 Z0.4
G1 F300 Z0.2
G1 F1500 E0.9712
G1 F600 X109.2 Y111.8 E1.09093
G1 X109 Y111.8 E1.09758
G1 X109 Y108.2 E1.21732
G1 X109.2 Y108.2 E1.22397
G1 F1500 E-5.27603
G1 F300 Z0.4
G0 F6000 X106 Y108.2 Z0.4
G1 F300 Z0.2
G1 F1500 E1.22397
G1 F600 X106 Y111.8 E1.34371
G1 X105.35 Y111.8 E1.36533
G1 X105.35 Y108.2 E1.48507
G1 X106 Y108.2 E1.50668
G1 F1500 E-4.99332
G1 F300 Z0.4
;MESH:auto-switch.stl
G0 F6000 X107.25 Y111.75 Z0.4
;TYPE:WALL-OUTER
G1 F300 Z0.2
G1 F1500 E1.50668
G1 F480 X107.75 Y111.75 E1.52747
G1 X107.75 Y108.25 E1.67298
G1 X107.25 Y108.25 E1.69377
G1 X107.25 Y111.75 E1.83929
G1 F1500 E-4.66071
G1 F300 Z0.4
G0 F6000 X110.45 Y111.75 Z0.4
M104 S195
G1 F300 Z0.2
G1 F1500 E1.83929
G1 F480 X110.95 Y111.75 E1.86007
G1 X110.95 Y108.25 E2.00559
G1 X110.45 Y108.25 E2.02637
G1 X110.45 Y111.75 E2.17189
G1 F1500 E-4.32811
G1 F300 Z0.4
;MESH:NONMESH
G0 F6000 X105.23 Y108.08 Z0.4
;TIME_ELAPSED:13.929745
;LAYER:1
M106 S85
;TYPE:SUPPORT
G1 F300 Z0.4
G1 F1500 E2.17189
G1 F600 X105.23 Y111.92 E2.29961
G1 X106.12 Y111.92 E2.32921
G1 X106.12 Y108.08 E2.45693
G1 X105.23 Y108.08 E2.48653
G0 F7500 X105.84 Y108.36
G0 X105.51 Y108.36
G1 F600 X105.84 Y108.36 E2.4975
G1 X105.84 Y111.64 E2.6066
G1 X105.51 Y111.64 E2.61757
G1 X105.51 Y108.36 E2.72667
G1 F1500 E-3.77333
G1 F300 Z0.6
G0 F7500 X108.89 Y108.09 Z0.6
G1 F300 Z0.4
G1 F1500 E2.72667
G1 F571.4 X108.89 Y111.91 E2.86007
G1 X109.31 Y111.91 E2.87474
G1 X109.31 Y108.09 E3.00815
G1 X108.89 Y108.09 E3.02281
G1 F1500 E-3.47719
G1 F300 Z0.6
G0 F7500 X112.08 Y108.08 Z0.6
G1 F300 Z0.4
G1 F1500 E3.02281
G1 F600 X112.08 Y111.92 E3.15053
G1 X114.77 Y111.92 E3.24
G1 X114.77 Y108.08 E3.36772
G1 X112.08 Y108.08 E3.45719
G1 F1500 E-3.04281
G1 F300 Z0.6
G0 F7500 X114 Y111.64 Z0.6
G1 F300 Z0.6
G0 F7500 X112.36 Y108.36
G1 F300 Z0.4
G1 F1500 E3.45719
G1 F600 X114 Y108.36 E3.51174
G1 X114.49 Y108.36 E3.52804
G1 X114.49 Y111.64 E3.63713
G1 X114 Y111.64 E3.65343
G1 X112.36 Y111.64 E3.70797
G1 X112.36 Y108.36 E3.81707
G1 F1500 E-2.68293
G1 F300 Z0.6
G0 F7500 X114 Y108.36 Z0.6
G1 F300 Z0.4
G1 F1500 E3.81707
G1 F600 X114 Y111.64 E3.92616
G1 F1500 E-2.57384
G1 F300 Z0.6
;MESH:auto-switch.stl
G0 F7500 X110.45 Y111.75 Z0.6
;TYPE:WALL-OUTER
G1 F300 Z0.4
G1 F1500 E3.92616
G1 F480 X110.95 Y111.75 E3.94695
G1 X110.95 Y108.25 E4.09246
G1 X110.45 Y108.25 E4.11325
G1 X110.45 Y111.75 E4.25876
G1 F1500 E-2.24124
G1 F300 Z0.6
G0 F7500 X107.25 Y111.75 Z0.6
G1 F300 Z0.4
G1 F1500 E4.25876
G1 F480 X107.75 Y111.75 E4.27955
G1 X107.75 Y108.25 E4.42506
G1 X107.25 Y108.25 E4.44585
G1 X107.25 Y111.75 E4.59136
G1 F1500 E-1.90864
G1 F300 Z0.6
;MESH:NONMESH
G0 F7500 X105.23 Y108.08 Z0.6
;TIME_ELAPSED:25.752650
;LAYER:2
M106 S170
;TYPE:SUPPORT
G1 F300 Z0.6
G1 F1500 E4.59136
G1 F600 X105.23 Y111.92 E4.71908
G1 X106.12 Y111.92 E4.74868
G1 X106.12 Y108.08 E4.8764
G1 X105.23 Y108.08 E4.906
G0 F9000 X105.84 Y108.36
G0 X105.51 Y108.36
G1 F600 X105.84 Y108.36 E4.91698
G1 X105.84 Y111.64 E5.02607
G1 X105.51 Y111.64 E5.03705
G1 X105.51 Y108.36 E5.14614
G1 F1500 E-1.35386
G1 F300 Z0.8
G0 F9000 X108.89 Y108.09 Z0.8
G1 F300 Z0.6
G1 F1500 E5.14614
G1 F571.4 X108.89 Y111.91 E5.27955
G1 X109.31 Y111.91 E5.29422
G1 X109.31 Y108.09 E5.42762
G1 X108.89 Y108.09 E5.44229
G1 F1500 E-1.05771
G1 F300 Z0.8
G0 F9000 X112.08 Y108.08 Z0.8
G1 F300 Z0.6
G1 F1500 E5.44229
G1 F600 X112.08 Y111.92 E5.57001
G1 X114.77 Y111.92 E5.65948
G1 X114.77 Y108.08 E5.7872
G1 X112.08 Y108.08 E5.87667
G1 F1500 E-0.62333
G1 F300 Z0.8
G0 F9000 X114 Y111.64 Z0.8
G1 F300 Z0.8
G0 F9000 X112.36 Y108.36
G1 F300 Z0.6
G1 F1500 E5.87667
G1 F600 X114 Y108.36 E5.93121
G1 X114.49 Y108.36 E5.94751
G1 X114.49 Y111.64 E6.0566
G1 X114 Y111.64 E6.0729
G1 X112.36 Y111.64 E6.12745
G1 X112.36 Y108.36 E6.23654
G1 F1500 E-0.26346
G1 F300 Z0.8
G0 F9000 X114 Y108.36 Z0.8
G1 F300 Z0.6
G1 F1500 E6.23654
G1 F600 X114 Y111.64 E6.34563
G1 F1500 E-0.15437
G1 F300 Z0.8
;MESH:auto-switch.stl
G0 F9000 X110.45 Y111.75 Z0.8
;TYPE:WALL-OUTER
G1 F300 Z0.6
G1 F1500 E6.34563
G1 F480 X110.95 Y111.75 E6.36642
G1 X110.95 Y108.25 E6.51194
G1 X110.45 Y108.25 E6.53272
G1 X110.45 Y111.75 E6.67824
G1 F1500 E0.17824
G1 F300 Z0.8
G0 F9000 X107.25 Y111.75 Z0.8
G1 F300 Z0.6
G1 F1500 E6.67824
G1 F480 X107.75 Y111.75 E6.69902
G1 X107.75 Y108.25 E6.84454
G1 X107.25 Y108.25 E6.86532
G1 X107.25 Y111.75 E7.01084
G1 F1500 E0.51084
G1 F300 Z0.8
;MESH:NONMESH
G0 F9000 X105.23 Y108.08 Z0.8
;TIME_ELAPSED:37.576543
;LAYER:3
M106 S255
;TYPE:SUPPORT
G1 F300 Z0.8
G1 F1500 E7.01084
G1 F600 X105.23 Y111.92 E7.13856
G1 X106.12 Y111.92 E7.16816
G1 X106.12 Y108.08 E7.29588
G1 X105.23 Y108.08 E7.32548
G0 F9000 X105.84 Y108.36
G0 X105.51 Y108.36
G1 F600 X105.84 Y108.36 E7.33645
G1 X105.84 Y111.64 E7.44555
G1 X105.51 Y111.64 E7.45652
G1 X105.51 Y108.36 E7.56562
G1 F1500 E1.06562
G1 F300 Z1
G0 F9000 X108.89 Y108.09 Z1
G1 F300 Z0.8
G1 F1500 E7.56562
G1 F571.4 X108.89 Y111.91 E7.69902
G1 X109.31 Y111.91 E7.71369
G1 X109.31 Y108.09 E7.8471
G1 X108.89 Y108.09 E7.86176
G1 F1500 E1.36176
G1 F300 Z1
G0 F9000 X112.08 Y108.08 Z1
G1 F300 Z0.8
G1 F1500 E7.86176
G1 F600 X112.08 Y111.92 E7.98948
G1 X114.77 Y111.92 E8.07895
G1 X114.77 Y108.08 E8.20667
G1 X112.08 Y108.08 E8.29614
G1 F1500 E1.79614
G1 F300 Z1
G0 F9000 X114 Y111.64 Z1
G1 F300 Z1
G0 F9000 X112.36 Y108.36
G1 F300 Z0.8
G1 F1500 E8.29614
G1 F600 X114 Y108.36 E8.35069
G1 X114.49 Y108.36 E8.36699
G1 X114.49 Y111.64 E8.47608
G1 X114 Y111.64 E8.49238
G1 X112.36 Y111.64 E8.54692
G1 X112.36 Y108.36 E8.65602
G1 F1500 E2.15602
G1 F300 Z1
G0 F9000 X114 Y108.36 Z1
G1 F300 Z0.8
G1 F1500 E8.65602
G1 F600 X114 Y111.64 E8.76511
G1 F1500 E2.26511
G1 F300 Z1
;MESH:auto-switch.stl
G0 F9000 X110.45 Y111.75 Z1
;TYPE:WALL-OUTER
G1 F300 Z0.8
G1 F1500 E8.76511
G1 F480 X110.95 Y111.75 E8.7859
G1 X110.95 Y108.25 E8.93141
G1 X110.45 Y108.25 E8.9522
G1 X110.45 Y111.75 E9.09771
G1 F1500 E2.59771
G1 F300 Z1
G0 F9000 X107.25 Y111.75 Z1
G1 F300 Z0.8
G1 F1500 E9.09771
G1 F480 X107.75 Y111.75 E9.1185
G1 X107.75 Y108.25 E9.26401
G1 X107.25 Y108.25 E9.2848
G1 X107.25 Y111.75 E9.43031
G1 F1500 E2.93031
G1 F300 Z1
;MESH:NONMESH
G0 F9000 X105.23 Y108.08 Z1
;TIME_ELAPSED:49.400436
;LAYER:4
;TYPE:SUPPORT
G1 F300 Z1
G1 F1500 E9.43031
G1 F600 X105.23 Y111.92 E9.55803
G1 X106.12 Y111.92 E9.58763
G1 X106.12 Y108.08 E9.71535
G1 X105.23 Y108.08 E9.74495
G0 F9000 X105.84 Y108.36
G0 X105.51 Y108.36
G1 F600 X105.84 Y108.36 E9.75593
G1 X105.84 Y111.64 E9.86502
G1 X105.51 Y111.64 E9.876
G1 X105.51 Y108.36 E9.98509
G1 F1500 E3.48509
G1 F300 Z1.2
G0 F9000 X108.89 Y108.09 Z1.2
G1 F300 Z1
G1 F1500 E9.98509
G1 F571.4 X108.89 Y111.91 E10.1185
G1 X109.31 Y111.91 E10.13317
G1 X109.31 Y108.09 E10.26657
G1 X108.89 Y108.09 E10.28124
G1 F1500 E3.78124
G1 F300 Z1.2
G0 F9000 X112.08 Y108.08 Z1.2
G1 F300 Z1
G1 F1500 E10.28124
G1 F600 X112.08 Y111.92 E10.40896
G1 X114.77 Y111.92 E10.49843
G1 X114.77 Y108.08 E10.62615
G1 X112.08 Y108.08 E10.71562
G1 F1500 E4.21562
G1 F300 Z1.2
G0 F9000 X114 Y111.64 Z1.2
G1 F300 Z1.2
G0 F9000 X112.36 Y108.36
G1 F300 Z1
G1 F1500 E10.71562
G1 F600 X114 Y108.36 E10.77016
G1 X114.49 Y108.36 E10.78646
G1 X114.49 Y111.64 E10.89555
G1 X114 Y111.64 E10.91185
G1 X112.36 Y111.64 E10.9664
G1 X112.36 Y108.36 E11.07549
G1 F1500 E4.57549
G1 F300 Z1.2
G0 F9000 X114 Y108.36 Z1.2
G1 F300 Z1
G1 F1500 E11.07549
G1 F600 X114 Y111.64 E11.18459
G1 F1500 E4.68459
G1 F300 Z1.2
;MESH:auto-switch.stl
G0 F9000 X110.45 Y111.75 Z1.2
;TYPE:WALL-OUTER
G1 F300 Z1
G1 F1500 E11.18459
G1 F480 X110.95 Y111.75 E11.20537
G1 X110.95 Y108.25 E11.35089
G1 X110.45 Y108.25 E11.37167
G1 X110.45 Y111.75 E11.51719
G1 F1500 E5.01719
G1 F300 Z1.2
G0 F9000 X107.25 Y111.75 Z1.2
G1 F300 Z1
G1 F1500 E11.51719
G1 F480 X107.75 Y111.75 E11.53797
G1 X107.75 Y108.25 E11.68349
G1 X107.25 Y108.25 E11.70427
G1 X107.25 Y111.75 E11.84979
G1 F1500 E5.34979
G1 F300 Z1.2
;MESH:NONMESH
G0 F9000 X105.23 Y108.08 Z1.2
;TIME_ELAPSED:61.224329
;LAYER:5
;TYPE:SUPPORT
G1 F300 Z1.2
G1 F1500 E11.84979
G1 F600 X105.23 Y111.92 E11.97751
G1 X106.12 Y111.92 E12.00711
G1 X106.12 Y108.08 E12.13483
G1 X105.23 Y108.08 E12.16443
G0 F9000 X105.84 Y108.36
G0 X105.51 Y108.36
G1 F600 X105.84 Y108.36 E12.1754
G1 X105.84 Y111.64 E12.2845
G1 X105.51 Y111.64 E12.29547
G1 X105.51 Y108.36 E12.40457
G1 F1500 E5.90457
G1 F300 Z1.4
G0 F9000 X108.89 Y108.09 Z1.4
G1 F300 Z1.2
G1 F1500 E12.40457
G1 F571.4 X108.89 Y111.91 E12.53797
G1 X109.31 Y111.91 E12.55264
G1 X109.31 Y108.09 E12.68605
G1 X108.89 Y108.09 E12.70072
G1 F1500 E6.20072
G1 F300 Z1.4
G0 F9000 X111.999 Y108.605 Z1.4
;TYPE:SUPPORT-INTERFACE
G1 F300 Z1.2
G1 F1500 E12.70072
G1 F600 X114.849 Y111.455 E12.83477
G1 F1500 E6.33477
G1 F300 Z1.4
G0 F9000 X114.848 Y109.162 Z1.4
G1 F300 Z1.2
G1 F1500 E12.83477
G1 F600 X112.011 Y112 E12.96824
G1 F1500 E6.46824
G1 F300 Z1.4
G0 F9000 X111.999 Y108.617 Z1.4
G1 F300 Z1.2
G1 F1500 E12.96824
G1 F600 X112.617 Y107.999 E12.99731
G1 F1500 E6.49731
G1 F300 Z1.4
G0 F9000 X114.788 Y107.999 Z1.4
G1 F300 Z1.2
G1 F1500 E12.99731
G1 F600 X114.849 Y108.061 E13.0002
G1 F1500 E6.5002
G1 F300 Z1.4
;MESH:auto-switch.stl
G0 F9000 X110.45 Y111.75 Z1.4
;TYPE:WALL-OUTER
G1 F300 Z1.2
G1 F1500 E13.0002
G1 F480 X110.95 Y111.75 E13.02099
G1 X110.95 Y108.25 E13.1665
G1 X110.45 Y108.25 E13.18729
G1 X110.45 Y111.75 E13.3328
G1 F1500 E6.8328
G1 F300 Z1.4
G0 F9000 X107.25 Y111.75 Z1.4
G1 F300 Z1.2
G1 F1500 E13.3328
G1 F480 X107.75 Y111.75 E13.35359
G1 X107.75 Y108.25 E13.4991
G1 X107.25 Y108.25 E13.51989
G1 X107.25 Y111.75 E13.6654
G1 F1500 E7.1654
G1 F300 Z1.4
;MESH:NONMESH
G0 F9000 X105.23 Y108.08 Z1.4
;TIME_ELAPSED:71.675618
;LAYER:6
;TYPE:SUPPORT
G1 F300 Z1.4
G1 F1500 E13.6654
G1 F600 X105.23 Y111.92 E13.79312
G1 X106.12 Y111.92 E13.82272
G1 X106.12 Y108.08 E13.95044
G1 X105.23 Y108.08 E13.98004
G0 F9000 X105.84 Y108.36
G0 X105.51 Y108.36
G1 F600 X105.84 Y108.36 E13.99102
G1 X105.84 Y111.64 E14.10011
G1 X105.51 Y111.64 E14.11109
G1 X105.51 Y108.36 E14.22018
G1 F1500 E7.72018
G1 F300 Z1.6
G0 F9000 X108.89 Y108.09 Z1.6
G1 F300 Z1.4
G1 F1500 E14.22018
G1 F571.4 X108.89 Y111.91 E14.35359
G1 X109.31 Y111.91 E14.36826
G1 X109.31 Y108.09 E14.50166
G1 X108.89 Y108.09 E14.51633
G1 F1500 E8.01633
G1 F300 Z1.6
G0 F9000 X111.999 Y108.605 Z1.6
;TYPE:SUPPORT-INTERFACE
G1 F300 Z1.4
G1 F1500 E14.51633
G1 F600 X114.849 Y111.455 E14.65038
G1 F1500 E8.15038
G1 F300 Z1.6
G0 F9000 X114.848 Y109.162 Z1.6
G1 F300 Z1.4
G1 F1500 E14.65038
G1 F600 X112.011 Y112 E14.78385
G1 F1500 E8.28385
G1 F300 Z1.6
G0 F9000 X111.999 Y108.617 Z1.6
G1 F300 Z1.4
G1 F1500 E14.78385
G1 F600 X112.617 Y107.999 E14.81292
G1 F1500 E8.31292
G1 F300 Z1.6
G0 F9000 X114.788 Y107.999 Z1.6
G1 F300 Z1.4
G1 F1500 E14.81292
G1 F600 X114.849 Y108.061 E14.81581
G1 F1500 E8.31581
G1 F300 Z1.6
;MESH:auto-switch.stl
G0 F9000 X110.45 Y111.75 Z1.6
;TYPE:WALL-OUTER
G1 F300 Z1.4
G1 F1500 E14.81581
G1 F480 X110.95 Y111.75 E14.8366
G1 X110.95 Y108.25 E14.98211
G1 X110.45 Y108.25 E15.0029
G1 X110.45 Y111.75 E15.14842
G1 F1500 E8.64842
G1 F300 Z1.6
G0 F9000 X107.25 Y111.75 Z1.6
G1 F300 Z1.4
G1 F1500 E15.14842
G1 F480 X107.75 Y111.75 E15.1692
G1 X107.75 Y108.25 E15.31472
G1 X107.25 Y108.25 E15.3355
G1 X107.25 Y111.75 E15.48102
G1 F1500 E8.98102
G1 F300 Z1.6
;MESH:NONMESH
G0 F9000 X105.23 Y108.08 Z1.6
;TIME_ELAPSED:82.126908
;LAYER:7
;TYPE:SUPPORT
G1 F300 Z1.6
G1 F1500 E15.48102
G1 F600 X105.23 Y111.92 E15.60874
G1 X106.12 Y111.92 E15.63834
G1 X106.12 Y108.08 E15.76606
G1 X105.23 Y108.08 E15.79566
G0 F9000 X105.84 Y108.36
G0 X105.51 Y108.36
G1 F600 X105.84 Y108.36 E15.80663
G1 X105.84 Y111.64 E15.91573
G1 X105.51 Y111.64 E15.9267
G1 X105.51 Y108.36 E16.0358
G1 F1500 E9.5358
G1 F300 Z1.8
G0 F9000 X111.999 Y108.605 Z1.8
;TYPE:SUPPORT-INTERFACE
G1 F300 Z1.6
G1 F1500 E16.0358
G1 F600 X114.849 Y111.455 E16.16985
G1 F1500 E9.66985
G1 F300 Z1.8
G0 F9000 X114.848 Y109.162 Z1.8
G1 F300 Z1.6
G1 F1500 E16.16985
G1 F600 X112.011 Y112 E16.30332
G1 F1500 E9.80332
G1 F300 Z1.8
G0 F9000 X111.999 Y108.617 Z1.8
G1 F300 Z1.6
G1 F1500 E16.30332
G1 F600 X112.617 Y107.999 E16.33239
G1 F1500 E9.83239
G1 F300 Z1.8
G0 F9000 X114.788 Y107.999 Z1.8
G1 F300 Z1.6
G1 F1500 E16.33239
G1 F600 X114.849 Y108.061 E16.33528
G1 F1500 E9.83528
G1 F300 Z1.8
;MESH:auto-switch.stl
G0 F9000 X110.45 Y111.75 Z1.8
;TYPE:WALL-OUTER
G1 F300 Z1.6
G1 F1500 E16.33528
G1 F480 X110.95 Y111.75 E16.35607
G1 X110.95 Y108.25 E16.50158
G1 X110.45 Y108.25 E16.52237
G1 X110.45 Y111.75 E16.66788
G1 F1500 E10.16788
G1 F300 Z1.8
G0 F9000 X107.25 Y111.75 Z1.8
G1 F300 Z1.6
G1 F1500 E16.66788
G1 F480 X107.75 Y111.75 E16.68867
G1 X107.75 Y108.25 E16.83418
G1 X107.25 Y108.25 E16.85497
G1 X107.25 Y111.75 E17.00048
G1 F1500 E10.50048
G1 F300 Z1.8
;MESH:NONMESH
G0 F9000 X105.23 Y108.08 Z1.8
;TIME_ELAPSED:91.151202
;LAYER:8
;TYPE:SUPPORT
G1 F300 Z1.8
G1 F1500 E17.00048
G1 F600 X105.23 Y111.92 E17.1282
G1 X106.12 Y111.92 E17.1578
G1 X106.12 Y108.08 E17.28552
G1 X105.23 Y108.08 E17.31512
G0 F9000 X105.84 Y108.36
G0 X105.51 Y108.36
G1 F600 X105.84 Y108.36 E17.3261
G1 X105.84 Y111.64 E17.43519
G1 X105.51 Y111.64 E17.44617
G1 X105.51 Y108.36 E17.55526
G1 F1500 E11.05526
G1 F300 Z2
G0 F9000 X111.999 Y108.605 Z2
;TYPE:SUPPORT-INTERFACE
G1 F300 Z1.8
G1 F1500 E17.55526
G1 F600 X114.849 Y111.455 E17.68932
G1 F1500 E11.18932
G1 F300 Z2
G0 F9000 X114.848 Y109.162 Z2
G1 F300 Z1.8
G1 F1500 E17.68932
G1 F600 X112.011 Y112 E17.82278
G1 F1500 E11.32278
G1 F300 Z2
G0 F9000 X111.999 Y108.617 Z2
G1 F300 Z1.8
G1 F1500 E17.82278
G1 F600 X112.617 Y107.999 E17.85185
G1 F1500 E11.35185
G1 F300 Z2
G0 F9000 X114.788 Y107.999 Z2
G1 F300 Z1.8
G1 F1500 E17.85185
G1 F600 X114.849 Y108.061 E17.85475
G1 F1500 E11.35475
G1 F300 Z2
;MESH:auto-switch.stl
G0 F9000 X107.6 Y111.4 Z2
;TYPE:WALL-INNER
G1 F300 Z1.8
G1 F1500 E17.85475
G1 F600 X110.6 Y111.4 E17.95453
G1 X110.6 Y108.6 E18.04765
G1 X107.6 Y108.6 E18.14743
G1 X107.6 Y111.4 E18.24056
G0 F9000 X107.2 Y111.8
;TYPE:WALL-OUTER
G1 F600 X111 Y111.8 E18.36695
G1 X111 Y108.2 E18.48669
G1 X107.2 Y108.2 E18.61308
G1 X107.2 Y111.8 E18.73281
G0 F9000 X107.96 Y111.04
;TYPE:SKIN
G1 F600 X110.24 Y111.04 E18.80865
G1 X110.24 Y108.96 E18.87783
G1 X107.96 Y108.96 E18.95366
G1 X107.96 Y110 E18.98825
G1 X107.96 Y111.04 E19.02284
G0 F9000 X108.576 Y110.838
G1 F600 X108.159 Y110.422 E19.04243
G0 F9000 X108.159 Y109.856
G1 F600 X109.141 Y110.838 E19.08862
G0 F9000 X109.707 Y110.838
G1 F600 X108.159 Y109.291 E19.16141
G0 F9000 X108.593 Y109.159
G1 F600 X110.039 Y110.605 E19.22943
G0 F9000 X110.039 Y110.039
G1 F600 X109.159 Y109.159 E19.27082
G0 F9000 X109.725 Y109.159
G1 F600 X110.039 Y109.474 E19.28561
G1 F1500 E12.78561
G1 F300 Z2
;MESH:NONMESH
