;FLAVOR:Marlin
;TIME:7594
;Filament used: 5.5262m
;Layer height: 0.2
;MINX:59.8
;MINY:75.002
;MINZ:0.2
;MAXX:160.2
;MAXY:145.018
;MAXZ:12
;Generated with Cura_SteamEngine 5.2.2
M82 ;absolute extrusion mode
; Ender 3 Custom Start G-code
G92 E0 ; Reset Extruder
G28 ; Home all axes
M104 S175 ; Start heating up the nozzle most of the way
M190 S65 ; Start heating the bed, wait until target temperature reached
M109 S195 ; Finish heating the nozzle
G1 Z2.0 F3000 ; Move Z Axis up little to prevent scratching of Heat Bed
G1 X0.1 Y20 Z0.3 F5000.0 ; Move to start position
G1 X0.1 Y200.0 Z0.3 F1500.0 E15 ; Draw the first line
G1 X0.4 Y200.0 Z0.3 F5000.0 ; Move to side a little
G1 X0.4 Y20 Z0.3 F1500.0 E30 ; Draw the second line
G92 E0 ; Reset Extruder
G1 Z2.0 F3000 ; Move Z Axis up little to prevent scratching of Heat Bed
G1 X5 Y20 Z0.3 F5000.0 ; Move over to prevent blob squish
G92 E0
G92 E0
G1 F1500 E-6.5
;LAYER_COUNT:60
;LAYER:0
M107
G1 F300 Z0.4
G0 F6000 X156.528 Y78.566 Z0.4
;TYPE:SKIRT
G1 F300 Z0.2
G1 F1500 E0
G1 F1200 X156.581 Y78.51 E0.00256
G1 X156.672 Y78.566 E0.00612
G1 X156.6 Y78.656 E0.00995
G1 X156.528 Y78.566 E0.01379
G0 F6000 X156.15 Y78.411
G1 F1200 X156.26 Y78.243 E0.02046
G1 X156.43 Y78.131 E0.02724
G1 X156.6 Y78.099 E0.03299
G1 X156.77 Y78.131 E0.03874
G1 X156.94 Y78.243 E0.04551
G1 X157.05 Y78.411 E0.05219
G1 X157.083 Y78.581 E0.05795
G1 X157.05 Y78.752 E0.06374
G1 X156.941 Y78.919 E0.07038
G1 X156.77 Y79.031 E0.07718
G1 X156.6 Y79.063 E0.08293
G1 X156.43 Y79.031 E0.08868
G1 X156.259 Y78.919 E0.09548
G1 X156.15 Y78.752 E0.10211
G1 X156.117 Y78.581 E0.10791
G1 X156.15 Y78.411 E0.11367
G0 F6000 X155.771 Y78.26
G1 F1200 X155.972 Y77.953 E0.12587
G1 X156.276 Y77.753 E0.13797
G1 X156.6 Y77.691 E0.14895
G1 X156.924 Y77.753 E0.15992
G1 X157.228 Y77.953 E0.17202
G1 X157.429 Y78.26 E0.18423
G1 X157.49 Y78.581 E0.19509
G1 X157.429 Y78.903 E0.20599
G1 X157.228 Y79.209 E0.21817
G1 X156.924 Y79.409 E0.23027
G1 X156.6 Y79.471 E0.24125
G1 X156.276 Y79.409 E0.25222
G1 X155.972 Y79.209 E0.26432
G1 X155.771 Y78.903 E0.2765
G1 X155.71 Y78.581 E0.2874
G1 X155.771 Y78.26 E0.29827
G1 F1500 E-6.20173
G1 F300 Z0.4
G0 F6000 X156.6 Y140.528 Z0.4
G1 F300 Z0.2
G1 F1500 E0.29827
G1 F1200 X156.924 Y140.59 E0.30924
G1 X157.228 Y140.79 E0.32134
G1 X157.429 Y141.097 E0.33354
G1 X157.49 Y141.418 E0.34441
G1 X157.429 Y141.74 E0.35531
G1 X157.228 Y142.046 E0.36749
G1 X156.924 Y142.246 E0.37959
G1 X156.6 Y142.308 E0.39056
G1 X156.276 Y142.246 E0.40154
G1 X155.972 Y142.046 E0.41364
G1 X155.771 Y141.74 E0.42582
G1 X155.71 Y141.418 E0.43672
G1 X155.771 Y141.097 E0.44758
G1 X155.972 Y140.79 E0.45979
G1 X156.276 Y140.59 E0.47189
G1 X156.6 Y140.528 E0.48286
G0 F6000 X156.6 Y140.936
G1 F1200 X156.77 Y140.968 E0.48862
G1 X156.94 Y141.08 E0.49539
G1 X157.05 Y141.248 E0.50207
G1 X157.083 Y141.418 E0.50783
G1 X157.05 Y141.589 E0.51362
G1 X156.941 Y141.756 E0.52025
G1 X156.77 Y141.868 E0.52705
G1 X156.6 Y141.9 E0.5328
G1 X156.43 Y141.868 E0.53856
G1 X156.259 Y141.756 E0.54536
G1 X156.15 Y141.589 E0.55199
G1 X156.117 Y141.418 E0.55778
G1 X156.15 Y141.248 E0.56354
G1 X156.26 Y141.08 E0.57022
G1 X156.43 Y140.968 E0.57699
G1 X156.6 Y140.936 E0.58275
G0 F6000 X156.581 Y141.347
G1 F1200 X156.672 Y141.403 E0.5863
G1 X156.6 Y141.493 E0.59013
G1 X156.528 Y141.403 E0.59397
G1 X156.581 Y141.347 E0.59653
G1 F1500 E-5.90347
G1 F300 Z0.4
G0 F6000 X64.29 Y141.418 Z0.4
G1 F300 Z0.2
G1 F1500 E0.59653
G1 F1200 X64.229 Y141.74 E0.60743
G1 X64.028 Y142.046 E0.61961
G1 X63.724 Y142.246 E0.63171
G1 X63.4 Y142.308 E0.64268
G1 X63.076 Y142.246 E0.65365
G1 X62.772 Y142.046 E0.66576
G1 X62.571 Y141.74 E0.67793
G1 X62.51 Y141.418 E0.68883
G1 X62.571 Y141.097 E0.6997
G1 X62.772 Y140.79 E0.71191
G1 X63.076 Y140.59 E0.72401
G1 X63.4 Y140.528 E0.73498
G1 X63.724 Y140.59 E0.74595
G1 X64.028 Y140.79 E0.75806
G1 X64.229 Y141.097 E0.77026
G1 X64.29 Y141.418 E0.78113
G0 F6000 X63.883 Y141.418
G1 F1200 X63.85 Y141.589 E0.78692
G1 X63.741 Y141.756 E0.79355
G1 X63.57 Y141.868 E0.80035
G1 X63.4 Y141.9 E0.80611
G1 X63.23 Y141.868 E0.81186
G1 X63.059 Y141.756 E0.81866
G1 X62.95 Y141.589 E0.82529
G1 X62.917 Y141.418 E0.83108
G1 X62.95 Y141.248 E0.83684
G1 X63.06 Y141.08 E0.84352
G1 X63.23 Y140.968 E0.85029
G1 X63.4 Y140.936 E0.85605
G1 X63.57 Y140.968 E0.8618
G1 X63.74 Y141.08 E0.86857
G1 X63.85 Y141.248 E0.87525
G1 X63.883 Y141.418 E0.88101
G0 F6000 X63.472 Y141.403
G1 F1200 X63.4 Y141.493 E0.88484
G1 X63.328 Y141.403 E0.88868
G1 X63.381 Y141.347 E0.89124
G1 X63.472 Y141.403 E0.8948
G1 F1500 E-5.6052
G1 F300 Z0.4
G0 F6000 X63.4 Y79.471 Z0.4
G1 F300 Z0.2
G1 F1500 E0.8948
G1 F1200 X63.076 Y79.409 E0.90577
G1 X62.772 Y79.209 E0.91787
G1 X62.571 Y78.903 E0.93005
G1 X62.51 Y78.581 E0.94095
G1 X62.571 Y78.26 E0.95182
G1 X62.772 Y77.953 E0.96402
G1 X63.076 Y77.753 E0.97612
G1 X63.4 Y77.691 E0.98709
G1 X63.724 Y77.753 E0.99807
G1 X64.028 Y77.953 E1.01017
G1 X64.229 Y78.26 E1.02237
G1 X64.29 Y78.581 E1.03324
G1 X64.229 Y78.903 E1.04414
G1 X64.028 Y79.209 E1.05632
G1 X63.724 Y79.409 E1.06842
G1 X63.4 Y79.471 E1.07939
G0 F6000 X63.4 Y79.063
G1 F1200 X63.23 Y79.031 E1.08515
G1 X63.059 Y78.919 E1.09195
G1 X62.95 Y78.752 E1.09858
G1 X62.917 Y78.581 E1.10437
G1 X62.95 Y78.411 E1.11013
G1 X63.06 Y78.243 E1.11681
G1 X63.23 Y78.131 E1.12358
G1 X63.4 Y78.099 E1.12933
G1 X63.57 Y78.131 E1.13509
G1 X63.74 Y78.243 E1.14186
G1 X63.85 Y78.411 E1.14854
G1 X63.883 Y78.581 E1.1543
G1 X63.85 Y78.752 E1.16009
G1 X63.741 Y78.919 E1.16672
G1 X63.57 Y79.031 E1.17352
G1 X63.4 Y79.063 E1.17928
G0 F6000 X63.4 Y78.656
G1 F1200 X63.328 Y78.566 E1.18311
G1 X63.381 Y78.51 E1.18567
G1 X63.472 Y78.566 E1.18923
G1 X63.4 Y78.656 E1.19306
G0 F6000 X62.103 Y78.581
;TYPE:SUPPORT-INTERFACE
G1 F1200 X62.194 Y79.057 E1.20918
G1 X62.484 Y79.499 E1.22676
G1 X62.922 Y79.786 E1.24418
G1 X63.4 Y79.878 E1.26037
G1 X63.878 Y79.786 E1.27656
G1 X64.316 Y79.499 E1.29398
G1 X64.606 Y79.057 E1.31156
G1 X64.697 Y78.581 E1.32768
G1 X64.606 Y78.105 E1.3438
G1 X64.316 Y77.665 E1.36132
G1 X63.878 Y77.376 E1.37878
G1 X63.4 Y77.284 E1.39497
G1 X62.922 Y77.376 E1.41116
G1 X62.484 Y77.665 E1.42861
G1 X62.194 Y78.105 E1.44614
G1 X62.103 Y78.581 E1.46226
G1 F1500 E-5.03774
G1 F300 Z0.4
G0 F6000 X61.4 Y76.581 Z0.4
G1 F300 Z0.2
G1 F1500 E1.46226
G1 F1200 X158.6 Y76.581 E4.69514
G1 X158.6 Y143.418 E6.91815
G1 X61.4 Y143.418 E10.15103
G1 X61.4 Y76.581 E12.37404
G1 F1500 E5.87404
G1 F300 Z0.4
G0 F6000 X62.922 Y140.213 Z0.4
G1 F300 Z0.2
G1 F1500 E12.37404
G1 F1200 X62.484 Y140.502 E12.39149
G1 X62.194 Y140.942 E12.40902
G1 X62.103 Y141.418 E12.42514
G1 X62.194 Y141.894 E12.44126
G1 X62.484 Y142.336 E12.45884
G1 X62.922 Y142.623 E12.47626
G1 X63.4 Y142.715 E12.49245
G1 X63.878 Y142.623 E12.50864
G1 X64.316 Y142.336 E12.52606
G1 X64.606 Y141.894 E12.54364
G1 X64.697 Y141.418 E12.55976
G1 X64.606 Y140.942 E12.57588
G1 X64.316 Y140.502 E12.5934
G1 X63.878 Y140.213 E12.61086
G1 X63.4 Y140.121 E12.62705
G1 X62.922 Y140.213 E12.64324
G1 F1500 E6.14324
G1 F300 Z0.4
G0 F6000 X155.303 Y141.418 Z0.4
G1 F300 Z0.2
G1 F1500 E12.64324
G1 F1200 X155.394 Y141.894 E12.65935
G1 X155.684 Y142.336 E12.67694
G1 X156.122 Y142.623 E12.69435
G1 X156.6 Y142.715 E12.71054
G1 X157.078 Y142.623 E12.72673
G1 X157.516 Y142.336 E12.74415
G1 X157.806 Y141.894 E12.76173
G1 X157.897 Y141.418 E12.77785
G1 X157.806 Y140.942 E12.79397
G1 X157.516 Y140.502 E12.8115
G1 X157.078 Y140.213 E12.82895
G1 X156.6 Y140.121 E12.84514
G1 X156.122 Y140.213 E12.86133
G1 X155.684 Y140.502 E12.87879
G1 X155.394 Y140.942 E12.89631
G1 X155.303 Y141.418 E12.91243
G1 F1500 E6.41243
G1 F300 Z0.4
G0 F6000 X156.122 Y79.786 Z0.4
G1 F300 Z0.2
G1 F1500 E12.91243
G1 F1200 X156.6 Y79.878 E12.92862
G1 X157.078 Y79.786 E12.94481
G1 X157.516 Y79.499 E12.96223
G1 X157.806 Y79.057 E12.97981
G1 X157.897 Y78.581 E12.99593
G1 X157.806 Y78.105 E13.01205
G1 X157.516 Y77.665 E13.02957
G1 X157.078 Y77.376 E13.04703
G1 X156.6 Y77.284 E13.06322
G1 X156.122 Y77.376 E13.07941
G1 X155.684 Y77.665 E13.09686
G1 X155.394 Y78.105 E13.11439
G1 X155.303 Y78.581 E13.13051
G1 X155.394 Y79.057 E13.14663
G1 X155.684 Y79.499 E13.16421
G1 X156.122 Y79.786 E13.18163
G0 F6000 X155.18 Y79.012
G1 F1200 X90.975 Y143.218 E16.20166
G0 F6000 X92.305 Y143.217
G1 F1200 X61.6 Y112.512 E17.64592
G0 F6000 X61.6 Y111.499
G1 F1200 X96.319 Y76.78 E19.279
G0 F6000 X97.145 Y76.781
G1 F1200 X158.399 Y138.035 E22.1602
G0 F6000 X158.399 Y136.888
G1 F1200 X152.069 Y143.218 E22.45794
G0 F6000 X153.399 Y143.217
G1 F1200 X86.963 Y76.781 E25.58289
G0 F6000 X86.136 Y76.78
G1 F1200 X61.6 Y101.317 E26.73701
G0 F6000 X61.6 Y102.329
G1 F1200 X102.488 Y143.217 E28.66026
G0 F6000 X101.157 Y143.218
G1 F1200 X158.399 Y85.976 E31.35275
G0 F6000 X158.399 Y87.123
G1 F1200 X148.057 Y76.781 E31.8392
G0 F6000 X147.23 Y76.78
G1 F1200 X80.793 Y143.218 E34.96422
G0 F6000 X82.123 Y143.217
G1 F1200 X61.6 Y122.694 E35.92956
G0 F6000 X61.6 Y121.681
G1 F1200 X106.501 Y76.78 E38.04156
G0 F6000 X107.328 Y76.781
G1 F1200 X158.399 Y127.852 E40.44379
G0 F6000 X158.399 Y126.705
G1 F1200 X141.887 Y143.218 E41.22048
G0 F6000 X143.217 Y143.217
G1 F1200 X76.781 Y76.781 E44.34543
G0 F6000 X75.954 Y76.78
G1 F1200 X61.6 Y91.134 E45.0206
G0 F6000 X61.6 Y92.147
G1 F1200 X112.67 Y143.217 E47.42277
G0 F6000 X111.34 Y143.218
G1 F1200 X158.399 Y96.158 E49.63631
G0 F6000 X158.399 Y97.305
G1 F1200 X137.875 Y76.781 E50.60169
G0 F6000 X137.048 Y76.78
G1 F1200 X70.61 Y143.218 E53.72673
G0 F6000 X71.941 Y143.217
G1 F1200 X61.6 Y132.876 E54.21314
G0 F6000 X61.6 Y131.864
G1 F1200 X116.683 Y76.78 E56.8041
G0 F6000 X117.51 Y76.781
G1 F1200 X158.399 Y117.67 E58.72739
G0 F6000 X158.399 Y116.523
G1 F1200 X131.705 Y143.218 E59.98302
G0 F6000 X133.035 Y143.217
G1 F1200 X66.598 Y76.781 E63.10799
G0 F6000 X65.772 Y76.78
G1 F1200 X64.688 Y77.864 E63.15898
G0 F6000 X64.876 Y78.452
G1 F1200 X129.64 Y143.217 E66.2053
G0 F6000 X128.31 Y143.218
G1 F1200 X158.399 Y113.129 E67.6206
G0 F6000 X158.399 Y114.276
G1 F1200 X120.904 Y76.781 E69.38425
G0 F6000 X120.078 Y76.78
G1 F1200 X61.6 Y135.258 E72.13487
G0 F6000 X61.6 Y136.27
G1 F1200 X68.546 Y143.217 E72.46162
G0 F6000 X67.216 Y143.218
G1 F1200 X133.654 Y76.78 E75.58665
G0 F6000 X134.481 Y76.781
G1 F1200 X158.399 Y100.699 E76.71168
G0 F6000 X158.399 Y99.552
G1 F1200 X114.734 Y143.218 E78.76558
G0 F6000 X116.064 Y143.217
G1 F1200 X61.6 Y88.753 E81.3274
G0 F6000 X61.6 Y87.74
G1 F1200 X72.56 Y76.78 E81.84292
G0 F6000 X73.387 Y76.781
G1 F1200 X139.823 Y143.217 E84.96787
G0 F6000 X138.493 Y143.218
G1 F1200 X158.399 Y123.311 E85.90421
G0 F6000 X158.399 Y124.458
G1 F1200 X110.722 Y76.781 E88.14679
G0 F6000 X109.895 Y76.78
G1 F1200 X61.6 Y125.075 E90.41843
G0 F6000 X61.6 Y126.088
G1 F1200 X78.729 Y143.217 E91.22413
G0 F6000 X77.399 Y143.218
G1 F1200 X143.836 Y76.78 E94.34915
G0 F6000 X144.663 Y76.781
G1 F1200 X158.399 Y90.517 E94.99525
G0 F6000 X158.399 Y89.37
G1 F1200 X104.552 Y143.218 E97.52807
G0 F6000 X105.882 Y143.217
G1 F1200 X61.6 Y98.935 E99.61096
G0 F6000 X61.6 Y97.922
G1 F1200 X82.742 Y76.78 E100.60541
G0 F6000 X83.569 Y76.781
G1 F1200 X150.005 Y143.217 E103.73036
G0 F6000 X148.675 Y143.218
G1 F1200 X158.399 Y133.493 E104.18777
G0 F6000 X158.399 Y134.64
G1 F1200 X100.539 Y76.781 E106.9093
G0 F6000 X99.713 Y76.78
G1 F1200 X61.6 Y114.893 E108.70202
G0 F6000 X61.6 Y115.906
G1 F1200 X88.911 Y143.217 E109.98665
G0 F6000 X87.581 Y143.218
G1 F1200 X154.019 Y76.78 E113.11169
G0 F6000 X154.845 Y76.781
G1 F1200 X155.567 Y77.502 E113.14562
G1 F1500 E106.64562
G1 F300 Z0.4
G0 F6000 X157.03 Y77.163 Z0.4
G1 F300 Z0.2
G1 F1500 E113.14562
G1 F1200 X157.413 Y76.78 E113.16364
G0 F6000 X158.239 Y76.781
G1 F1200 X158.399 Y76.94 E113.17114
G1 F1500 E106.67114
G1 F300 Z0.4
G0 F6000 X158.399 Y79.188 Z0.4
G1 F300 Z0.2
G1 F1500 E113.17114
G1 F1200 X94.369 Y143.218 E116.18292
G0 F6000 X95.699 Y143.217
G1 F1200 X61.6 Y109.117 E117.78685
G0 F6000 X61.6 Y108.105
G1 F1200 X92.925 Y76.78 E119.26028
G0 F6000 X93.751 Y76.781
G1 F1200 X156.956 Y139.985 E122.23323
G0 F6000 X157.923 Y140.758
G1 F1200 X158.399 Y140.282 E122.25562
G0 F6000 X158.031 Y141.06
G1 F1200 X158.399 Y141.429 E122.27295
G1 F1500 E115.77295
G1 F300 Z0.4
G0 F6000 X156.793 Y143.217 Z0.4
G1 F300 Z0.2
G1 F1500 E122.27295
G1 F1200 X156.47 Y142.894 E122.28815
G0 F6000 X155.939 Y142.742
G1 F1200 X155.463 Y143.218 E122.31053
G1 F1500 E115.81053
G1 F300 Z0.4
G0 F6000 X155.122 Y141.546 Z0.4
G1 F300 Z0.2
G1 F1500 E122.31053
G1 F1200 X90.357 Y76.781 E125.35688
G0 F6000 X89.531 Y76.78
G1 F1200 X61.6 Y104.711 E126.67067
G0 F6000 X61.6 Y105.723
G1 F1200 X99.093 Y143.217 E128.43425
G0 F6000 X97.763 Y143.218
G1 F1200 X158.399 Y82.582 E131.28638
G0 F6000 X158.399 Y83.729
G1 F1200 X151.451 Y76.781 E131.61319
G0 F6000 X150.625 Y76.78
G1 F1200 X84.187 Y143.218 E134.73823
G0 F6000 X85.517 Y143.217
G1 F1200 X61.6 Y119.3 E135.86322
G0 F6000 X61.6 Y118.287
G1 F1200 X103.107 Y76.78 E137.81558
G0 F6000 X103.934 Y76.781
G1 F1200 X158.399 Y131.246 E140.37744
G0 F6000 X158.399 Y130.099
G1 F1200 X145.281 Y143.218 E140.9945
G0 F6000 X146.611 Y143.217
G1 F1200 X80.175 Y76.781 E144.11944
G0 F6000 X79.348 Y76.78
G1 F1200 X61.6 Y94.528 E144.95426
G0 F6000 X61.6 Y95.541
G1 F1200 X109.276 Y143.217 E147.19679
G0 F6000 X107.946 Y143.218
G1 F1200 X158.399 Y92.764 E149.56997
G0 F6000 X158.399 Y93.911
G1 F1200 X141.269 Y76.781 E150.37571
G0 F6000 X140.442 Y76.78
G1 F1200 X74.005 Y143.218 E153.50073
G0 F6000 X75.335 Y143.217
G1 F1200 X61.6 Y129.482 E154.14678
G0 F6000 X61.6 Y128.469
G1 F1200 X113.289 Y76.78 E156.57807
G0 F6000 X114.116 Y76.781
G1 F1200 X158.399 Y121.064 E158.66101
G0 F6000 X158.399 Y119.917
G1 F1200 X135.099 Y143.218 E159.75699
G0 F6000 X136.429 Y143.217
G1 F1200 X69.992 Y76.781 E162.88196
G0 F6000 X69.166 Y76.78
G1 F1200 X61.6 Y84.346 E163.23784
G0 F6000 X61.6 Y85.359
G1 F1200 X119.458 Y143.217 E165.9593
G0 F6000 X118.128 Y143.218
G1 F1200 X158.399 Y102.946 E167.85355
G0 F6000 X158.399 Y104.093
G1 F1200 X131.086 Y76.781 E169.13825
G0 F6000 X130.26 Y76.78
G1 F1200 X63.822 Y143.218 E172.26329
G0 F6000 X64.432 Y142.497
G1 F1200 X65.152 Y143.217 E172.29715
G1 F1500 E165.79715
G1 F300 Z0.4
G0 F6000 X61.758 Y143.217 Z0.4
G1 F300 Z0.2
G1 F1500 E172.29715
G1 F1200 X61.6 Y143.059 E172.30459
G0 F6000 X61.6 Y142.046
G1 F1200 X61.951 Y141.695 E172.3211
G0 F6000 X62.321 Y140.386
G1 F1200 X61.6 Y139.664 E172.35503
G0 F6000 X61.6 Y138.652
G1 F1200 X123.472 Y76.78 E175.2653
G0 F6000 X124.298 Y76.781
G1 F1200 X158.399 Y110.882 E176.86931
G0 F6000 X158.399 Y109.735
G1 F1200 X124.916 Y143.218 E178.44425
G0 F6000 X126.246 Y143.217
G1 F1200 X63.041 Y80.011 E181.41724
G0 F6000 X62.684 Y79.868
G1 F1200 X61.6 Y80.952 E181.46823
G0 F6000 X61.6 Y81.964
G1 F1200 X122.852 Y143.217 E184.34936
G0 F6000 X121.522 Y143.218
G1 F1200 X158.399 Y106.341 E186.08394
G0 F6000 X158.399 Y107.488
G1 F1200 X127.692 Y76.781 E187.5283
G0 F6000 X126.866 Y76.78
G1 F1200 X63.677 Y139.969 E190.50052
G1 F1500 E184.00052
G1 F300 Z0.4
G0 F6000 X61.968 Y78.938 Z0.4
G1 F300 Z0.2
G1 F1500 E190.50052
G1 F1200 X61.6 Y78.57 E190.51783
G0 F6000 X61.6 Y77.558
G1 F1200 X62.378 Y76.78 E190.55442
G0 F6000 X63.204 Y76.781
G1 F1200 X63.527 Y77.103 E190.56959
G1 F1500 E184.06959
G1 F300 Z0.4
G0 F6000 X157.677 Y79.613 Z0.4
G1 F300 Z0.2
G1 F1500 E190.56959
G1 F1200 X158.399 Y80.335 E190.60355
G1 F1500 E184.10355
G1 F300 Z0.4
;MESH:inky-statuspanel-back.stl
G0 F6000 X60.686 Y144.915 Z0.4
;TYPE:WALL-OUTER
G1 F300 Z0.2
G1 F1500 E190.60355
G1 F1200 X61.221 Y145.018 E190.62167
G1 X158.779 Y145.018 E193.86647
G1 X159.314 Y144.915 E193.88459
G1 F1156.6 X159.684 Y144.642 E193.90045
G1 X159.256 Y144.618 E193.91525
G1 F1200 X60.744 Y144.618 E197.19177
G1 F1132.1 X60.4 Y144.642 E197.20393
G1 F1050.3 X60.306 Y144.632 E197.20752
G1 F1108.5 X60.686 Y144.915 E197.22458
G0 F6000 X60.306 Y144.632
G1 F1036.7 X60.208 Y144.545 E197.22962
G0 F6000 X60.176 Y144.502
G1 F1156.6 X60.2 Y144.073 E197.24445
G1 F1200 X60.2 Y75.581 E199.5225
G1 F1116.3 X60.23 Y75.425 E199.52818
G1 F1132.1 X60.366 Y75.389 E199.53314
G1 F1237.1 X109.983 Y75.389 E201.1339
G1 F1243.5 X159.6 Y75.388 E202.72641
G1 F1134.8 X159.77 Y75.425 E202.73253
G1 F1116.3 X159.8 Y75.581 E202.73821
