;FLAVOR:Marlin
;TIME:7817
;Filament used: 5.45711m
;Layer height: 0.2
;MINX:59.8
;MINY:75.09
;MINZ:0.2
;MAXX:160.2
;MAXY:144.884
;MAXZ:12
;Generated with Cura_SteamEngine 5.2.2
M82 ;absolute extrusion mode
; Ender 3 Custom Start G-code
G92 E0 ; Reset Extruder
G28 ; Home all axes
M104 S175 ; Start heating up the nozzle most of the way
M190 S65 ; Start heating the bed, wait until target temperature reached
M109 S195 ; Finish heating the nozzle
G1 Z2.0 F3000 ; Move Z Axis up little to prevent scratching of Heat Bed
G1 X0.1 Y20 Z0.3 F5000.0 ; Move to start position
G1 X0.1 Y200.0 Z0.3 F1500.0 E15 ; Draw the first line
G1 X0.4 Y200.0 Z0.3 F5000.0 ; Move to side a little
G1 X0.4 Y20 Z0.3 F1500.0 E30 ; Draw the second line
G92 E0 ; Reset Extruder
G1 Z2.0 F3000 ; Move Z Axis up little to prevent scratching of Heat Bed
G1 X5 Y20 Z0.3 F5000.0 ; Move over to prevent blob squish
G92 E0
G92 E0
G1 F1500 E-6.5
;LAYER_COUNT:60
;LAYER:0
M107
G1 F300 Z0.4
G0 F6000 X67.4 Y77.489 Z0.4
;TYPE:SUPPORT-INTERFACE
G1 F300 Z0.2
G1 F1500 E0
G1 F1200 X152.6 Y77.489 E2.83376
G1 X152.6 Y82.689 E3.00672
G1 X157.8 Y82.689 E3.17967
G1 X157.8 Y137.526 E5.00355
G1 X152.6 Y137.526 E5.17651
G1 X152.6 Y142.726 E5.34946
G1 X67.4 Y142.726 E8.18322
G1 X67.4 Y137.526 E8.35618
G1 X62.2 Y137.526 E8.52913
G1 X62.2 Y82.689 E10.35302
G1 X67.4 Y82.689 E10.52597
G1 X67.4 Y77.489 E10.69892
G0 F6000 X67.599 Y77.781
G1 F1200 X132.343 Y142.525 E13.74428
G1 X132.396 Y142.526
G1 X157.599 Y117.323 E14.92975
G0 F6000 X157.599 Y116.869
G1 F1200 X118.418 Y77.689 E16.77268
G0 F6000 X119.17 Y77.688
G1 F1200 X62.4 Y134.458 E19.44297
G0 F6000 X62.4 Y133.676
G1 F1200 X66.048 Y137.325 E19.61458
G0 F6000 X66.321 Y137.325
G1 F1200 X125.958 Y77.688 E22.41973
G0 F6000 X125.206 Y77.689
G1 F1200 X157.599 Y110.081 E23.94337
G0 F6000 X157.599 Y110.535
G1 F1200 X125.608 Y142.526 E25.44813
G1 X125.555 Y142.525
G1 X65.917 Y82.887 E28.25332
G0 F6000 X66.453 Y82.887
G1 F1200 X62.4 Y86.94 E28.44396
G0 F6000 X62.4 Y86.158
G1 F1200 X118.767 Y142.525 E31.09529
G1 X118.82 Y142.526
G1 X157.599 Y103.747 E32.91933
G0 F6000 X157.599 Y103.293
G1 F1200 X131.994 Y77.689 E34.12369
G0 F6000 X132.746 Y77.688
G1 F1200 X67.909 Y142.525 E37.17342
G1 X67.854 Y142.525
G1 X67.6 Y142.27 E37.18539
G1 F1500 E30.68539
G1 F300 Z0.4
G0 F6000 X67.6 Y139.44 Z0.4
G1 F300 Z0.2
G1 F1500 E37.18539
G1 F1200 X129.352 Y77.688 E40.09002
G0 F6000 X128.6 Y77.689
G1 F1200 X157.599 Y106.687 E41.45402
G0 F6000 X157.599 Y107.141
G1 F1200 X122.214 Y142.526 E43.11842
G1 X122.161 Y142.525
G1 X62.523 Y82.887 E45.92361
G0 F6000 X63.059 Y82.887
G1 F1200 X62.4 Y83.546 E45.95461
G1 F1500 E39.45461
G1 F300 Z0.4
G0 F6000 X67.6 Y81.74 Z0.4
G1 F300 Z0.2
G1 F1500 E45.95461
G1 F1200 X71.652 Y77.688 E46.1452
G0 F6000 X70.9 Y77.689
G1 F1200 X135.737 Y142.525 E49.19491
G1 X135.79 Y142.526
G1 X157.599 Y120.717 E50.22074
G0 F6000 X157.599 Y120.264
G1 F1200 X115.024 Y77.689 E52.22334
G0 F6000 X115.776 Y77.688
G1 F1200 X62.4 Y131.064 E54.73398
G0 F6000 X62.4 Y130.282
G1 F1200 X74.642 Y142.525 E55.30983
G1 X74.697 Y142.525
G1 X139.534 Y77.688 E58.35956
G0 F6000 X138.783 Y77.689
G1 F1200 X157.599 Y96.505 E59.24461
G0 F6000 X157.599 Y96.959
G1 F1200 X112.031 Y142.526 E61.38797
G1 X111.978 Y142.525
G1 X62.4 Y92.947 E63.71996
G0 F6000 X62.4 Y93.729
G1 F1200 X78.44 Y77.688 E64.47446
G0 F6000 X77.689 Y77.689
G1 F1200 X142.525 Y142.525 E67.52415
G1 X142.578 Y142.526
G1 X157.599 Y127.506 E68.23066
G0 F6000 X157.599 Y127.052
G1 F1200 X108.236 Y77.689 E70.55255
G0 F6000 X108.987 Y77.688
G1 F1200 X62.4 Y124.276 E72.74388
G0 F6000 X62.4 Y123.494
G1 F1200 X81.431 Y142.525 E73.63904
G1 X81.485 Y142.525
G1 X146.323 Y77.688 E76.6888
G0 F6000 X145.571 Y77.689
G1 F1200 X157.599 Y89.717 E77.25456
G0 F6000 X157.599 Y90.17
G1 F1200 X105.244 Y142.525 E79.71718
G1 X105.189 Y142.525
G1 X62.4 Y99.735 E81.72987
G0 F6000 X62.4 Y100.517
G1 F1200 X85.228 Y77.688 E82.80365
G0 F6000 X84.477 Y77.689
G1 F1200 X149.314 Y142.525 E85.85336
G1 X149.367 Y142.526
G1 X152.399 Y139.494 E85.99597
G0 F6000 X152.399 Y138.822
G1 F1200 X91.265 Y77.689 E88.87151
G0 F6000 X92.017 Y77.688
G1 F1200 X62.4 Y107.305 E90.2646
G0 F6000 X62.4 Y106.523
G1 F1200 X98.401 Y142.525 E91.958
G1 X98.456 Y142.525
G1 X157.599 Y83.382 E94.7399
G1 F1500 E88.2399
G1 F300 Z0.4
G0 F6000 X157.599 Y86.322 Z0.4
G1 F300 Z0.2
G1 F1500 E94.7399
G1 F1200 X154.165 Y82.889 E94.90141
G0 F6000 X154.698 Y82.889
G1 F1200 X95.062 Y142.525 E97.7065
G1 X95.007 Y142.525
G1 X62.4 Y109.917 E99.24026
G0 F6000 X62.4 Y110.699
G1 F1200 X95.411 Y77.688 E100.79299
G0 F6000 X94.659 Y77.689
G1 F1200 X154.297 Y137.326 E103.59816
G0 F6000 X154.567 Y137.326
G1 F1200 X157.599 Y134.294 E103.74077
G0 F6000 X157.599 Y133.84
G1 F1200 X101.447 Y77.689 E106.38197
G0 F6000 X102.199 Y77.688
G1 F1200 X62.4 Y117.487 E108.25399
G0 F6000 X62.4 Y116.705
G1 F1200 X88.219 Y142.525 E109.46846
G1 X88.273 Y142.525
G1 X152.399 Y78.4 E112.48473
G1 F1500 E105.98473
G1 F300 Z0.4
G0 F6000 X152.399 Y81.122 Z0.4
G1 F300 Z0.2
G1 F1500 E112.48473
G1 F1200 X148.965 Y77.689 E112.64623
G0 F6000 X149.717 Y77.688
G1 F1200 X84.879 Y142.525 E115.69599
G1 X84.825 Y142.525
G1 X62.4 Y120.099 E116.75081
G0 F6000 X62.4 Y120.882
G1 F1200 X105.593 Y77.688 E118.7825
G0 F6000 X104.842 Y77.689
G1 F1200 X157.599 Y130.446 E121.26403
G0 F6000 X157.599 Y130.9
G1 F1200 X145.973 Y142.526 E121.81088
G1 X145.919 Y142.525
G1 X81.083 Y77.689 E124.86057
G0 F6000 X81.834 Y77.688
G1 F1200 X62.4 Y97.123 E125.77471
G0 F6000 X62.4 Y96.341
G1 F1200 X108.584 Y142.525 E127.94706
G1 X108.638 Y142.525
G1 X157.599 Y93.565 E130.25001
G0 F6000 X157.599 Y93.111
G1 F1200 X142.177 Y77.689 E130.97542
G0 F6000 X142.928 Y77.688
G1 F1200 X78.091 Y142.525 E134.02515
G1 X78.037 Y142.525
G1 X62.4 Y126.888 E134.76067
G0 F6000 X62.4 Y127.67
G1 F1200 X112.381 Y77.688 E137.11165
G0 F6000 X111.63 Y77.689
G1 F1200 X157.599 Y123.658 E139.27389
G0 F6000 X157.599 Y124.112
G1 F1200 X139.184 Y142.526 E140.14005
G1 X139.131 Y142.525
G1 X74.295 Y77.689 E143.18973
G0 F6000 X75.046 Y77.688
G1 F1200 X62.4 Y90.335 E143.78459
G0 F6000 X62.4 Y89.552
G1 F1200 X115.372 Y142.525 E146.27625
G1 X115.425 Y142.526
G1 X157.599 Y100.353 E148.25996
G0 F6000 X157.599 Y99.899
G1 F1200 X135.389 Y77.689 E149.30465
G0 F6000 X136.14 Y77.688
G1 F1200 X71.303 Y142.525 E152.35439
G1 X71.248 Y142.525
G1 X67.6 Y138.876 E152.526
G1 F1500 E146.026
G1 F300 Z0.4
G0 F6000 X62.927 Y137.325 Z0.4
G1 F300 Z0.2
G1 F1500 E152.526
G1 F1200 X122.564 Y77.688 E155.33114
G0 F6000 X121.812 Y77.689
G1 F1200 X157.599 Y113.475 E157.01443
G0 F6000 X157.599 Y113.929
G1 F1200 X129.002 Y142.526 E158.35955
G1 X128.949 Y142.525
G1 X67.599 Y81.175 E161.24526
G1 F1500 E154.74526
G1 F300 Z0.4
G0 F6000 X67.6 Y78.346 Z0.4
G1 F300 Z0.2
G1 F1500 E161.24526
G1 F1200 X68.258 Y77.688 E161.27621
G1 F1500 E154.77621
G1 F300 Z0.4
G0 F6000 X87.871 Y77.689 Z0.4
G1 F300 Z0.2
G1 F1500 E161.27621
G1 F1200 X152.399 Y142.216 E164.31139
G1 F1500 E157.81139
G1 F300 Z0.4
G0 F6000 X157.599 Y137.234 Z0.4
G1 F300 Z0.2
G1 F1500 E164.31139
G1 F1200 X98.053 Y77.689 E167.11223
G0 F6000 X98.805 Y77.688
G1 F1200 X62.4 Y114.093 E168.8246
G0 F6000 X62.4 Y113.311
G1 F1200 X91.613 Y142.525 E170.19872
G1 X91.667 Y142.525
G1 X152.399 Y81.794 E173.05534
G1 F1500 E166.55534
G1 F300 Z0.4
G0 F6000 X157.599 Y86.776 Z0.4
G1 F300 Z0.2
G1 F1500 E173.05534
G1 F1200 X101.85 Y142.525 E175.6776
G1 X101.795 Y142.525
G1 X62.4 Y103.129 E177.53065
G0 F6000 X62.4 Y103.911
G1 F1200 X88.623 Y77.688 E178.7641
G1 F1500 E172.2641
G1 F300 Z0.4
G0 F6000 X62.4 Y137.07 Z0.4
G1 F300 Z0.2
G1 F1500 E178.7641
G1 F1200 X62.654 Y137.325 E178.77607
G1 F1500 E172.27607
G1 F300 Z0.4
;MESH:inky-statuspanel-back.stl
G0 F6000 X64.067 Y143.509 Z0.4
;TYPE:WALL-INNER
G1 F300 Z0.2
G1 F1500 E178.77607
G1 F1233.9 X63.398 Y143.61 E178.79795
G1 X62.733 Y143.509 E178.81971
G1 F1200 X62.517 Y143.421 E178.82747
G1 X61.906 Y143.021 E178.85176
G1 X61.504 Y142.409 E178.87611
G1 X61.416 Y142.191 E178.88393
G1 F1269.8 X61.332 Y141.634 E178.90163
G1 F1344.5 X61.332 Y141.418 E178.90805
G1 F1269.8 X61.416 Y140.861 E178.92575
G1 F1200 X61.503 Y140.643 E178.93356
G1 X61.905 Y140.03 E178.95794
G1 X62.517 Y139.629 E178.98227
G1 X62.735 Y139.542 E178.99008
G1 F1233.9 X63.401 Y139.442 E179.01186
G1 X64.065 Y139.542 E179.03358
G1 F1200 X64.283 Y139.629 E179.04139
G1 X64.892 Y140.028 E179.06561
G1 X65.296 Y140.644 E179.09011
G1 X65.384 Y140.861 E179.0979
G1 F1237.1 X65.485 Y141.529 E179.11969
G1 X65.384 Y142.191 E179.1413
G1 F1200 X65.296 Y142.409 E179.14912
G1 X64.894 Y143.021 E179.17347
G1 X64.283 Y143.421 E179.19776
G1 X64.067 Y143.509 E179.20552
G0 F6000 X64.031 Y143.108
;TYPE:WALL-OUTER
G1 F1200 X63.401 Y143.23 E179.22686
G1 X62.769 Y143.108 E179.24827
G1 X62.197 Y142.728 E179.27111
G1 X61.817 Y142.157 E179.29392
G1 X61.704 Y141.564 E179.314
G1 X61.704 Y141.488 E179.31653
G1 X61.817 Y140.895 E179.33661
G1 X62.197 Y140.323 E179.35945
G1 X62.769 Y139.943 E179.38229
G1 X63.399 Y139.823 E179.40362
G1 X64.031 Y139.943 E179.42501
G1 X64.603 Y140.323 E179.44785
G1 X64.984 Y140.896 E179.47074
G1 X65.1 Y141.526 E179.49205
G1 X64.984 Y142.156 E179.51335
G1 X64.603 Y142.728 E179.53621
G1 X64.031 Y143.108 E179.55905
G1 F1500 E173.05905
G1 F300 Z0.4
G0 F6000 X66 Y143.926 Z0.4
;TYPE:WALL-INNER
G1 F300 Z0.2
G1 F1500 E179.55905
G1 F1200 X65.8 Y143.726 E179.56846
G1 X65.8 Y142.23 E179.61822
G1 F1280 X65.825 Y141.526 E179.64018
G1 X65.8 Y140.822 E179.66215
G1 F1200 X65.8 Y139.126 E179.71856
G1 X64.104 Y139.126 E179.77497
G1 F1280 X63.4 Y139.101 E179.79693
G1 X62.696 Y139.126 E179.8189
G1 F1200 X61.2 Y139.126 E179.86865
G1 X61 Y138.958 E179.87734
G1 X61 Y140.822 E179.93934
G1 F1280 X60.975 Y141.526 E179.9613
G1 X61 Y142.23 E179.98327
G1 F1200 X61 Y143.926 E180.03968
G1 X62.694 Y143.925 E180.09602
G1 F1280 X63.4 Y143.951 E180.11805
G1 X64.106 Y143.925 E180.14008
G1 F1200 X66 Y143.926 E180.20307
G1 F1500 E173.70307
G1 F300 Z0.4
G0 F6000 X65.8 Y81.089 Z0.4
G1 F300 Z0.2
G1 F1500 E180.20307
G1 F1200 X65.8 Y79.393 E180.25948
G1 F1280 X65.825 Y78.689 E180.28145
G1 X65.8 Y77.985 E180.30341
G1 F1200 X65.8 Y76.489 E180.35317
G1 X65.968 Y76.289 E180.36186
G1 X64.104 Y76.289 E180.42386
G1 F1280 X63.4 Y76.264 E180.44582
G1 X62.696 Y76.289 E180.46779
G1 F1200 X61.001 Y76.29 E180.52416
G1 X61 Y77.985 E180.58054
G1 F1280 X60.975 Y78.689 E180.6025
G1 X61 Y79.393 E180.62447
G1 F1200 X61 Y81.289 E180.68753
G1 X61.2 Y81.089 E180.69694
G1 X62.694 Y81.088 E180.74663
G1 F1280 X63.4 Y81.114 E180.76866
G1 X64.106 Y81.088 E180.79069
G1 F1200 X65.8 Y81.089 E180.84703
G1 F1500 E174.34703
G1 F300 Z0.4
G0 F6000 X64.067 Y80.672 Z0.4
G1 F300 Z0.2
G1 F1500 E180.84703
G1 F1233.9 X63.398 Y80.773 E180.86891
G1 X62.733 Y80.672 E180.89067
G1 F1200 X62.517 Y80.584 E180.89843
G1 X61.906 Y80.184 E180.92272
G1 X61.504 Y79.572 E180.94707
G1 X61.416 Y79.354 E180.95489
G1 F1269.8 X61.332 Y78.797 E180.9726
G1 F1344.5 X61.332 Y78.581 E180.97901
G1 F1269.8 X61.416 Y78.024 E180.99671
G1 F1200 X61.503 Y77.806 E181.00452
G1 X61.905 Y77.193 E181.0289
G1 X62.517 Y76.792 E181.05324
G1 X62.735 Y76.705 E181.06104
G1 F1233.9 X63.401 Y76.605 E181.08283
G1 X64.065 Y76.705 E181.10455
G1 F1200 X64.283 Y76.792 E181.11235
G1 X64.892 Y77.191 E181.13657
G1 X65.296 Y77.807 E181.16107
G1 X65.384 Y78.024 E181.16886
G1 F1237.1 X65.485 Y78.692 E181.19065
G1 X65.384 Y79.354 E181.21226
G1 F1200 X65.296 Y79.572 E181.22008
G1 X64.894 Y80.184 E181.24443
G1 X64.283 Y80.584 E181.26872
G1 X64.067 Y80.672 E181.27648
G0 F6000 X64.031 Y80.271
;TYPE:WALL-OUTER
G1 F1200 X63.401 Y80.393 E181.29782
G1 X62.769 Y80.271 E181.31923
G1 X62.197 Y79.891 E181.34207
G1 X61.817 Y79.32 E181.36488
G1 X61.704 Y78.727 E181.38496
G1 X61.704 Y78.651 E181.38749
G1 X61.817 Y78.058 E181.40757
G1 X62.197 Y77.486 E181.43041
G1 X62.769 Y77.106 E181.45325
G1 X63.399 Y76.986 E181.47458
G1 X64.031 Y77.106 E181.49598
G1 X64.603 Y77.486 E181.51882
G1 X64.984 Y78.059 E181.5417
G1 X65.1 Y78.689 E181.56301
G1 X64.984 Y79.319 E181.58431
G1 X64.603 Y79.891 E181.60717
G1 X64.031 Y80.271 E181.63001
G1 F1500 E175.13001
G1 F300 Z0.4
G0 F6000 X154.2 Y81.089 Z0.4
;TYPE:WALL-INNER
G1 F300 Z0.2
G1 F1500 E181.63001
G1 F1200 X155.894 Y81.088 E181.68636
G1 F1280 X156.6 Y81.114 E181.70839
G1 X157.306 Y81.088 E181.73041
G1 F1200 X158.8 Y81.089 E181.7801
G1 X159 Y81.289 E181.78951
G1 X159 Y79.393 E181.85257
G1 F1280 X159.025 Y78.689 E181.87454
G1 X159 Y77.985 E181.8965
G1 F1200 X159 Y76.289 E181.95291
G1 X157.304 Y76.289 E182.00932
G1 F1280 X156.6 Y76.264 E182.03129
G1 X155.896 Y76.289 E182.05325
G1 F1200 X154 Y76.289 E182.11632
G1 X154.2 Y76.489 E182.12572
G1 X154.2 Y77.985 E182.17548
G1 F1280 X154.175 Y78.689 E182.19745
G1 X154.2 Y79.393 E182.21941
G1 F1200 X154.2 Y81.089 E182.27582
G1 F1500 E175.77582
G1 F300 Z0.4
G0 F6000 X155.933 Y80.672 Z0.4
G1 F300 Z0.2
G1 F1500 E182.27582
G1 F1200 X155.717 Y80.584 E182.28358
G1 X155.106 Y80.184 E182.30787
G1 X154.704 Y79.572 E182.33222
G1 X154.616 Y79.354 E182.34004
G1 F1269.8 X154.532 Y78.797 E182.35774
G1 F1344.5 X154.532 Y78.581 E182.36416
G1 F1269.8 X154.616 Y78.024 E182.38186
G1 F1200 X154.703 Y77.806 E182.38967
G1 X155.105 Y77.193 E182.41405
G1 X155.717 Y76.792 E182.43839
G1 X155.935 Y76.705 E182.44619
G1 F1233.9 X156.601 Y76.605 E182.46798
G1 X157.265 Y76.705 E182.4897
G1 F1200 X157.483 Y76.792 E182.4975
G1 X158.092 Y77.191 E182.52172
G1 X158.496 Y77.807 E182.54622
G1 X158.584 Y78.024 E182.55401
G1 F1237.1 X158.685 Y78.692 E182.5758
G1 X158.584 Y79.354 E182.59741
G1 F1200 X158.496 Y79.572 E182.60523
G1 X158.094 Y80.184 E182.62958
G1 X157.483 Y80.584 E182.65387
G1 X157.267 Y80.672 E182.66163
G1 F1233.9 X156.598 Y80.773 E182.68351
G1 X155.933 Y80.672 E182.70527
G0 F6000 X155.969 Y80.271
;TYPE:WALL-OUTER
G1 F1200 X155.397 Y79.891 E182.72811
G1 X155.017 Y79.32 E182.75092
G1 X154.904 Y78.727 E182.771
G1 X154.904 Y78.651 E182.77353
G1 X155.017 Y78.058 E182.79361
G1 X155.397 Y77.486 E182.81645
G1 X155.969 Y77.106 E182.83929
G1 X156.599 Y76.986 E182.86062
G1 X157.231 Y77.106 E182.88201
G1 X157.803 Y77.486 E182.90485
G1 X158.184 Y78.059 E182.92774
G1 X158.3 Y78.689 E182.94905
G1 X158.184 Y79.319 E182.97035
G1 X157.803 Y79.891 E182.99321
G1 X157.231 Y80.271 E183.01605
G1 X156.601 Y80.393 E183.0374
G1 X155.969 Y80.271 E183.0588
G1 F1500 E176.5588
G1 F300 Z0.4
G0 F6000 X155.106 Y143.021 Z0.4
;TYPE:WALL-INNER
G1 F300 Z0.2
G1 F1500 E183.0588
G1 F1200 X154.704 Y142.409 E183.08316
G1 X154.616 Y142.191 E183.09098
G1 F1269.8 X154.532 Y141.634 E183.10868
G1 F1344.5 X154.532 Y141.418 E183.11509
G1 F1269.8 X154.616 Y140.861 E183.1328
G1 F1200 X154.703 Y140.643 E183.14061
G1 X155.105 Y140.03 E183.16499
G1 X155.717 Y139.629 E183.18932
G1 X155.935 Y139.542 E183.19713
G1 F1233.9 X156.601 Y139.442 E183.21891
G1 X157.265 Y139.542 E183.24063
G1 F1200 X157.483 Y139.629 E183.24844
G1 X158.092 Y140.028 E183.27266
G1 X158.496 Y140.644 E183.29716
G1 X158.584 Y140.861 E183.30494
G1 F1237.1 X158.685 Y141.529 E183.32674
G1 X158.584 Y142.191 E183.34835
G1 F1200 X158.496 Y142.409 E183.35617
G1 X158.094 Y143.021 E183.38052
G1 X157.483 Y143.421 E183.40481
G1 X157.267 Y143.509 E183.41257
G1 F1233.9 X156.598 Y143.61 E183.43445
G1 X155.933 Y143.509 E183.45621
G1 F1200 X155.717 Y143.421 E183.46396
G1 X155.106 Y143.021 E183.48825
G0 F6000 X155.969 Y143.108
;TYPE:WALL-OUTER
G1 F1200 X155.397 Y142.728 E183.51109
G1 X155.017 Y142.157 E183.53391
G1 X154.904 Y141.564 E183.55398
G1 X154.904 Y141.488 E183.55651
G1 X155.017 Y140.895 E183.57659
G1 X155.397 Y140.323 E183.59943
G1 X155.969 Y139.943 E183.62227
G1 X156.599 Y139.823 E183.6436
G1 X157.231 Y139.943 E183.665
G1 X157.803 Y140.323 E183.68784
G1 X158.184 Y140.896 E183.71073
G1 X158.3 Y141.526 E183.73203
G1 X158.184 Y142.156 E183.75334
G1 X157.803 Y142.728 E183.7762
G1 X157.231 Y143.108 E183.79904
G1 X156.601 Y143.23 E183.82038
G1 X155.969 Y143.108 E183.84179
G1 F1500 E177.34179
G1 F300 Z0.4
G0 F6000 X154.032 Y143.926 Z0.4
;TYPE:WALL-INNER
G1 F300 Z0.2
G1 F1500 E183.84179
G1 F1200 X155.894 Y143.925 E183.90372
G1 F1280 X156.6 Y143.951 E183.92575
G1 X157.306 Y143.925 E183.94778
G1 F1200 X159 Y143.926 E184.00412
G1 X159 Y142.23 E184.06053
