;FLAVOR:Marlin
;TIME:6866
;Filament used: 4.77424m
;Layer height: 0.2
;MINX:59.8
;MINY:75.09
;MINZ:0.2
;MAXX:160.2
;MAXY:144.884
;MAXZ:11.2
;Generated with Cura_SteamEngine 5.2.2
M82 ;absolute extrusion mode
; Ender 3 Custom Start G-code
G92 E0 ; Reset Extruder
G28 ; Home all axes
M104 S175 ; Start heating up the nozzle most of the way
M190 S65 ; Start heating the bed, wait until target temperature reached
M109 S195 ; Finish heating the nozzle
G1 Z2.0 F3000 ; Move Z Axis up little to prevent scratching of Heat Bed
G1 X0.1 Y20 Z0.3 F5000.0 ; Move to start position
G1 X0.1 Y200.0 Z0.3 F1500.0 E15 ; Draw the first line
G1 X0.4 Y200.0 Z0.3 F5000.0 ; Move to side a little
G1 X0.4 Y20 Z0.3 F1500.0 E30 ; Draw the second line
G92 E0 ; Reset Extruder
G1 Z2.0 F3000 ; Move Z Axis up little to prevent scratching of Heat Bed
G1 X5 Y20 Z0.3 F5000.0 ; Move over to prevent blob squish
G92 E0
G92 E0
G1 F1500 E-6.5
;LAYER_COUNT:56
;LAYER:0
M107
G1 F300 Z0.4
;MESH:inky-statuspanel-back.stl
G0 F6000 X64.172 Y80.652 Z0.4
;TYPE:WALL-INNER
G1 F300 Z0.2
G1 F1500 E0
G1 F1200 X63.513 Y80.778 E0.02232
G1 X63.287 Y80.778 E0.02983
G1 X62.733 Y80.672 E0.04859
G1 X62.518 Y80.585 E0.05631
G1 X62.009 Y80.251 E0.07656
G1 X61.837 Y80.079 E0.08465
G1 X61.504 Y79.572 E0.10482
G1 X61.416 Y79.354 E0.11264
G1 F1269.8 X61.332 Y78.797 E0.13034
G1 F1344.5 X61.332 Y78.581 E0.13676
G1 F1269.8 X61.416 Y78.024 E0.15446
G1 F1200 X61.503 Y77.806 E0.16227
G1 X61.905 Y77.193 E0.18665
G1 X62.517 Y76.792 E0.21099
G1 X62.735 Y76.705 E0.21879
G1 F1233.9 X63.401 Y76.605 E0.24058
G1 X64.065 Y76.705 E0.2623
G1 F1200 X64.283 Y76.792 E0.2701
G1 X64.791 Y77.125 E0.29031
G1 X64.963 Y77.298 E0.29842
G1 X65.297 Y77.807 E0.31867
G1 X65.384 Y78.023 E0.32641
G1 X65.489 Y78.576 E0.34513
G1 X65.489 Y78.801 E0.35262
G1 X65.363 Y79.463 E0.37503
G1 X64.936 Y80.117 E0.40101
G1 X64.829 Y80.224 E0.40604
G1 X64.172 Y80.652 E0.43212
G0 F6000 X64.035 Y80.268
;TYPE:WALL-OUTER
G1 F1200 X63.4 Y80.392 E0.45364
G1 X62.77 Y80.272 E0.47497
G1 X62.194 Y79.894 E0.49789
G1 X61.816 Y79.319 E0.52077
G1 X61.704 Y78.727 E0.54081
G1 X61.704 Y78.651 E0.54334
G1 X61.817 Y78.058 E0.56342
G1 X62.197 Y77.486 E0.58626
G1 X62.769 Y77.106 E0.6091
G1 X63.399 Y76.986 E0.63043
G1 X64.03 Y77.105 E0.65179
G1 X64.606 Y77.483 E0.6747
G1 X64.984 Y78.059 E0.69762
G1 X65.103 Y78.689 E0.71894
G1 X64.98 Y79.324 E0.74045
G1 X64.606 Y79.894 E0.76313
G1 X64.035 Y80.268 E0.78583
G1 F1500 E-5.71417
G1 F300 Z0.4
G0 F6000 X64.067 Y143.509 Z0.4
;TYPE:WALL-INNER
G1 F300 Z0.2
G1 F1500 E0.78583
G1 F1233.9 X63.398 Y143.61 E0.80772
G1 X62.733 Y143.509 E0.82947
G1 F1200 X62.517 Y143.421 E0.83723
G1 X61.906 Y143.021 E0.86152
G1 X61.504 Y142.409 E0.88587
G1 X61.416 Y142.191 E0.89369
G1 F1269.8 X61.332 Y141.634 E0.9114
G1 F1344.5 X61.332 Y141.418 E0.91781
G1 F1269.8 X61.416 Y140.861 E0.93551
G1 F1200 X61.503 Y140.643 E0.94332
G1 X61.836 Y140.135 E0.96352
G1 X62.009 Y139.963 E0.97164
G1 X62.518 Y139.629 E0.99189
G1 X62.734 Y139.542 E0.99963
G1 X63.287 Y139.437 E1.01835
G1 X63.512 Y139.437 E1.02584
G1 X64.172 Y139.562 E1.04818
G1 X64.829 Y139.99 E1.07426
G1 X64.936 Y140.097 E1.07929
G1 X65.364 Y140.754 E1.10537
G1 X65.489 Y141.414 E1.12771
G1 X65.489 Y141.639 E1.1352
G1 X65.384 Y142.192 E1.15392
G1 X65.296 Y142.409 E1.16171
G1 X64.963 Y142.916 E1.18188
G1 X64.79 Y143.089 E1.19002
G1 X64.283 Y143.421 E1.21017
G1 X64.067 Y143.509 E1.21793
G0 F6000 X64.03 Y143.108
;TYPE:WALL-OUTER
G1 F1200 X63.401 Y143.23 E1.23924
G1 X62.769 Y143.108 E1.26065
G1 X62.197 Y142.728 E1.28349
G1 X61.817 Y142.157 E1.3063
G1 X61.704 Y141.564 E1.32638
G1 X61.704 Y141.488 E1.32891
G1 X61.816 Y140.896 E1.34895
G1 X62.194 Y140.32 E1.37186
G1 X62.77 Y139.942 E1.39478
G1 X63.4 Y139.823 E1.4161
G1 X64.035 Y139.946 E1.43762
G1 X64.606 Y140.32 E1.46032
G1 X64.98 Y140.891 E1.48302
G1 X65.103 Y141.526 E1.50453
G1 X64.984 Y142.156 E1.52586
G1 X64.606 Y142.731 E1.54875
G1 X64.03 Y143.108 E1.57164
G0 F6000 X64.106 Y143.925
;TYPE:WALL-INNER
G1 F1200 X155.894 Y143.925 E4.62452
G1 F1280 X156.6 Y143.951 E4.64655
G1 X157.306 Y143.925 E4.66858
G1 F1200 X159 Y143.926 E4.72492
G1 X159 Y142.23 E4.78133
G1 F1280 X159.025 Y141.526 E4.8033
G1 X159 Y140.822 E4.82526
G1 F1200 X159 Y79.393 E6.8684
G1 F1280 X159.025 Y78.689 E6.89037
G1 X159 Y77.985 E6.91233
G1 F1200 X159 Y76.289 E6.96874
G1 X157.304 Y76.289 E7.02515
G1 F1280 X156.6 Y76.264 E7.04712
G1 X155.896 Y76.289 E7.06908
G1 F1200 X64.104 Y76.289 E10.1221
G1 F1280 X63.4 Y76.264 E10.14406
G1 X62.696 Y76.289 E10.16603
G1 F1200 X61.001 Y76.29 E10.2224
G1 X61 Y77.985 E10.27878
G1 F1280 X60.975 Y78.689 E10.30074
G1 X61 Y79.393 E10.32271
G1 F1200 X61 Y140.822 E12.36585
G1 F1280 X60.975 Y141.526 E12.38781
G1 X61 Y142.23 E12.40978
G1 F1200 X61 Y143.926 E12.46619
G1 X62.694 Y143.925 E12.52253
G1 F1280 X63.4 Y143.951 E12.54456
G1 X64.106 Y143.925 E12.56659
G1 F1500 E6.06659
G1 F300 Z0.4
G0 F6000 X60.6 Y144.326 Z0.4
;TYPE:WALL-OUTER
G1 F300 Z0.2
G1 F1500 E12.56659
G1 F1200 X159.4 Y144.326 E15.85269
G1 X159.4 Y75.889 E18.12891
G1 X60.601 Y75.89 E21.41498
G1 X60.6 Y144.326 E23.69117
G1 F1500 E17.19117
G1 F300 Z0.4
G0 F6000 X155.21 Y143.089 Z0.4
;TYPE:WALL-INNER
G1 F300 Z0.2
G1 F1500 E23.69117
G1 F1200 X155.037 Y142.916 E23.69931
G1 X154.704 Y142.409 E23.71948
G1 X154.616 Y142.192 E23.72727
G1 X154.511 Y141.639 E23.74599
G1 X154.511 Y141.414 E23.75348
G1 X154.636 Y140.754 E23.77582
G1 X155.064 Y140.097 E23.8019
G1 X155.171 Y139.99 E23.80693
G1 X155.828 Y139.562 E23.83301
G1 X156.488 Y139.437 E23.85535
G1 X156.713 Y139.437 E23.86284
G1 X157.266 Y139.542 E23.88156
G1 X157.482 Y139.63 E23.88932
G1 X157.991 Y139.963 E23.90955
G1 X158.163 Y140.136 E23.91766
G1 X158.496 Y140.644 E23.93786
G1 X158.584 Y140.861 E23.94565
G1 F1237.1 X158.685 Y141.529 E23.96745
G1 X158.584 Y142.191 E23.98905
G1 F1200 X158.496 Y142.409 E23.99687
G1 X158.094 Y143.021 E24.02123
G1 X157.483 Y143.421 E24.04551
G1 X157.267 Y143.509 E24.05327
G1 F1233.9 X156.598 Y143.61 E24.07516
G1 X155.933 Y143.509 E24.09691
G1 F1200 X155.717 Y143.421 E24.10467
G1 X155.21 Y143.089 E24.12483
G0 F6000 X155.97 Y143.108
;TYPE:WALL-OUTER
G1 F1200 X155.394 Y142.731 E24.14772
G1 X155.016 Y142.156 E24.17061
G1 X154.904 Y141.564 E24.19065
G1 X154.904 Y141.488 E24.19318
G1 X155.02 Y140.891 E24.21341
G1 X155.394 Y140.32 E24.23611
G1 X155.965 Y139.946 E24.25881
G1 X156.6 Y139.823 E24.28032
G1 X157.23 Y139.942 E24.30165
G1 X157.806 Y140.32 E24.32456
G1 X158.184 Y140.896 E24.34748
G1 X158.3 Y141.526 E24.36878
G1 X158.184 Y142.156 E24.39009
G1 X157.803 Y142.728 E24.41295
G1 X157.231 Y143.108 E24.43579
G1 X156.601 Y143.23 E24.45713
G1 X155.97 Y143.108 E24.47851
G1 F1500 E17.97851
G1 F300 Z0.4
G0 F6000 X155.828 Y80.652 Z0.4
;TYPE:WALL-INNER
G1 F300 Z0.2
G1 F1500 E24.47851
G1 F1200 X155.171 Y80.224 E24.50459
G1 X155.064 Y80.117 E24.50962
G1 X154.637 Y79.463 E24.5356
G1 X154.511 Y78.801 E24.55801
G1 X154.511 Y78.576 E24.5655
G1 X154.616 Y78.023 E24.58422
G1 X154.703 Y77.807 E24.59196
G1 X155.037 Y77.298 E24.61221
G1 X155.209 Y77.125 E24.62032
G1 X155.717 Y76.792 E24.64053
G1 X155.935 Y76.705 E24.64833
G1 F1233.9 X156.601 Y76.605 E24.67012
G1 X157.265 Y76.705 E24.69184
G1 F1200 X157.483 Y76.792 E24.69964
G1 X158.092 Y77.191 E24.72386
G1 X158.496 Y77.807 E24.74836
G1 X158.584 Y78.024 E24.75615
G1 F1237.1 X158.685 Y78.692 E24.77795
G1 X158.584 Y79.354 E24.79955
G1 F1200 X158.496 Y79.572 E24.80737
G1 X158.163 Y80.079 E24.82754
G1 X157.991 Y80.251 E24.83564
G1 X157.482 Y80.584 E24.85587
G1 X157.267 Y80.672 E24.86359
G1 X156.713 Y80.778 E24.88235
G1 X156.487 Y80.778 E24.88987
G1 X155.828 Y80.652 E24.91219
G0 F6000 X155.965 Y80.268
;TYPE:WALL-OUTER
G1 F1200 X155.394 Y79.894 E24.93489
G1 X155.02 Y79.324 E24.95756
G1 X154.904 Y78.727 E24.97779
G1 X154.904 Y78.651 E24.98032
G1 X155.016 Y78.059 E25.00036
G1 X155.394 Y77.483 E25.02327
G1 X155.97 Y77.105 E25.04619
G1 X156.599 Y76.986 E25.06748
G1 X157.231 Y77.106 E25.08887
G1 X157.803 Y77.486 E25.11172
G1 X158.184 Y78.059 E25.1346
G1 X158.3 Y78.689 E25.15591
G1 X158.184 Y79.319 E25.17721
G1 X157.806 Y79.894 E25.2001
G1 X157.23 Y80.272 E25.22302
G1 X156.6 Y80.392 E25.24435
G1 X155.965 Y80.268 E25.26587
G1 F1500 E18.76587
G1 F300 Z0.4
G0 F6000 X158.656 Y77.422 Z0.4
;TYPE:SKIN
G1 F300 Z0.2
G1 F1500 E25.26587
G1 F1304.3 X158.656 Y76.633 E25.29001
G1 X157.873 Y76.634 E25.31397
G1 X158.341 Y76.94 E25.33108
G1 X158.656 Y77.422 E25.3487
G1 F1500 E18.8487
G1 F300 Z0.4
G0 F6000 X65.015 Y143.37 Z0.4
G1 F300 Z0.2
G1 F1500 E25.3487
G1 F1200 X64.724 Y143.564 E25.36033
G1 X155.276 Y143.564 E28.3721
G1 X154.985 Y143.37 E28.38373
G1 X154.73 Y143.109 E28.39587
G1 X154.403 Y142.61 E28.41571
G1 X154.27 Y142.292 E28.42718
G1 X154.157 Y141.711 E28.44686
G1 X154.157 Y141.339 E28.45924
G1 X154.303 Y140.597 E28.48439
G1 X154.782 Y139.865 E28.51348
G1 X154.948 Y139.706 E28.52113
G1 X155.681 Y139.225 E28.55029
G1 X156.416 Y139.084 E28.57518
G1 X156.784 Y139.083 E28.58742
G1 X157.368 Y139.197 E28.60721
G1 X157.685 Y139.33 E28.61865
G1 X158.183 Y139.656 E28.63844
G1 X158.444 Y139.911 E28.65058
G1 X158.64 Y140.204 E28.6623
G1 X158.64 Y80.01 E30.66436
G1 X158.443 Y80.304 E30.67613
G1 X158.184 Y80.557 E30.68818
G1 X157.65 Y80.902 E30.70932
G1 X157.369 Y81.017 E30.71942
G1 X156.785 Y81.131 E30.73921
G1 X156.416 Y81.131 E30.75148
G1 X155.683 Y80.987 E30.77633
G1 X154.951 Y80.51 E30.80539
G1 X154.788 Y80.349 E30.81301
G1 X154.362 Y79.708 E30.83861
G1 X154.261 Y79.423 E30.84866
G1 X154.157 Y78.875 E30.86722
G1 X154.157 Y78.503 E30.87959
G1 X154.259 Y77.961 E30.89793
G1 X154.402 Y77.606 E30.91066
G1 X154.755 Y77.074 E30.9319
G1 X155.016 Y76.819 E30.94403
G1 X155.275 Y76.65 E30.95432
G1 X64.725 Y76.65 E33.96602
G1 X65.016 Y76.845 E33.97768
G1 X65.245 Y77.074 E33.98845
G1 X65.598 Y77.606 E34.00968
G1 X65.741 Y77.961 E34.02241
G1 X65.843 Y78.503 E34.04076
G1 X65.843 Y78.875 E34.05313
G1 X65.701 Y79.598 E34.07763
G1 X65.155 Y80.444 E34.11112
G1 X64.329 Y80.984 E34.14395
G1 X63.584 Y81.131 E34.1692
G1 X63.215 Y81.131 E34.18148
G1 X62.631 Y81.017 E34.20127
G1 X62.315 Y80.885 E34.21266
G1 X61.815 Y80.557 E34.23255
G1 X61.531 Y80.273 E34.2459
G1 X61.361 Y80.014 E34.25621
G1 X61.361 Y140.202 E36.25807
G1 X61.557 Y139.909 E36.26979
G1 X61.785 Y139.681 E36.28052
G1 X62.315 Y139.329 E36.30168
G1 X62.67 Y139.186 E36.31441
G1 X63.216 Y139.083 E36.33289
G1 X63.585 Y139.083 E36.34516
G1 X64.308 Y139.225 E36.36967
G1 X65.061 Y139.707 E36.39941
G1 X65.22 Y139.874 E36.40708
G1 X65.701 Y140.605 E36.43618
G1 X65.843 Y141.34 E36.46108
G1 X65.843 Y141.711 E36.47342
G1 X65.73 Y142.292 E36.4931
G1 X65.597 Y142.61 E36.50457
G1 X65.27 Y143.109 E36.52441
G1 X65.015 Y143.37 E36.53655
G0 F6000 X65.548 Y143.047
G1 F1200 X65.864 Y143.363 E36.55141
G0 F6000 X66.429 Y143.363
G1 F1200 X65.772 Y142.705 E36.58234
G0 F6000 X65.934 Y142.302
G1 F1200 X66.995 Y143.363 E36.63224
G0 F6000 X67.561 Y143.363
G1 F1200 X66.025 Y141.827 E36.70449
G0 F6000 X66.033 Y141.27
G1 F1200 X68.126 Y143.363 E36.80294
G0 F6000 X68.692 Y143.363
G1 F1200 X65.893 Y140.564 E36.9346
G1 F1500 E30.4346
G1 F300 Z0.4
G0 F6000 X64.353 Y139.023 Z0.4
G1 F300 Z0.2
G1 F1500 E36.9346
G1 F1200 X61.56 Y136.231 E37.06595
G0 F6000 X61.56 Y136.796
G1 F1200 X63.654 Y138.89 E37.16444
G0 F6000 X63.097 Y138.899
G1 F1200 X61.56 Y137.362 E37.23674
G0 F6000 X61.56 Y137.928
G1 F1200 X62.622 Y138.989 E37.28667
G0 F6000 X62.218 Y139.151
G1 F1200 X61.56 Y138.493 E37.31762
G0 F6000 X61.56 Y139.059
G1 F1200 X61.877 Y139.376 E37.33253
G1 F1500 E30.83253
G1 F300 Z0.4
G0 F6000 X61.56 Y135.665 Z0.4
G1 F300 Z0.2
G1 F1500 E37.33253
G1 F1200 X69.258 Y143.363 E37.69462
G0 F6000 X69.823 Y143.363
G1 F1200 X61.56 Y135.099 E38.08331
G0 F6000 X61.56 Y134.534
G1 F1200 X70.389 Y143.363 E38.4986
G0 F6000 X70.955 Y143.363
G1 F1200 X61.56 Y133.968 E38.94051
G0 F6000 X61.56 Y133.402
G1 F1200 X71.521 Y143.363 E39.40905
G0 F6000 X72.086 Y143.363
G1 F1200 X61.56 Y132.837 E39.90416
G0 F6000 X61.56 Y132.271
G1 F1200 X72.652 Y143.363 E40.42589
G0 F6000 X73.218 Y143.363
G1 F1200 X61.56 Y131.705 E40.97425
G0 F6000 X61.56 Y131.14
G1 F1200 X73.783 Y143.363 E41.54918
G0 F6000 X74.349 Y143.363
G1 F1200 X61.56 Y130.574 E42.15073
G0 F6000 X61.56 Y130.008
G1 F1200 X74.915 Y143.363 E42.77891
G0 F6000 X75.48 Y143.363
G1 F1200 X61.56 Y129.442 E43.43369
G0 F6000 X61.56 Y128.877
G1 F1200 X76.046 Y143.363 E44.11507
G0 F6000 X76.612 Y143.363
G1 F1200 X61.56 Y128.311 E44.82307
G0 F6000 X61.56 Y127.745
G1 F1200 X77.177 Y143.363 E45.55767
G0 F6000 X77.743 Y143.363
G1 F1200 X61.56 Y127.18 E46.31887
G0 F6000 X61.56 Y126.614
G1 F1200 X78.309 Y143.363 E47.10669
G0 F6000 X78.874 Y143.363
G1 F1200 X61.56 Y126.048 E47.92111
G0 F6000 X61.56 Y125.483
G1 F1200 X79.44 Y143.363 E48.76213
G0 F6000 X80.006 Y143.363
G1 F1200 X61.56 Y124.917 E49.62977
G0 F6000 X61.56 Y124.351
G1 F1200 X80.571 Y143.363 E50.52401
G0 F6000 X81.137 Y143.363
G1 F1200 X61.56 Y123.786 E51.44486
G0 F6000 X61.56 Y123.22
G1 F1200 X81.703 Y143.363 E52.39232
G0 F6000 X82.269 Y143.363
G1 F1200 X61.56 Y122.654 E53.36641
G0 F6000 X61.56 Y122.089
G1 F1200 X82.834 Y143.363 E54.36707
G0 F6000 X83.4 Y143.363
G1 F1200 X61.56 Y121.523 E55.39436
G0 F6000 X61.56 Y120.957
G1 F1200 X83.966 Y143.363 E56.44827
G0 F6000 X84.531 Y143.363
G1 F1200 X61.56 Y120.392 E57.52875
G0 F6000 X61.56 Y119.826
G1 F1200 X85.097 Y143.363 E58.63586
G0 F6000 X85.663 Y143.363
G1 F1200 X61.56 Y119.26 E59.76959
G0 F6000 X61.56 Y118.694
G1 F1200 X86.228 Y143.363 E60.92992
G0 F6000 X86.794 Y143.363
G1 F1200 X61.56 Y118.129 E62.11685
G0 F6000 X61.56 Y117.563
G1 F1200 X87.36 Y143.363 E63.33041
G0 F6000 X87.925 Y143.363
G1 F1200 X61.56 Y116.997 E64.57056
G0 F6000 X61.56 Y116.432
G1 F1200 X88.491 Y143.363 E65.83731
G0 F6000 X89.057 Y143.363
G1 F1200 X61.56 Y115.866 E67.13069
G0 F6000 X61.56 Y115.3
G1 F1200 X89.622 Y143.363 E68.45066
G0 F6000 X90.188 Y143.363
G1 F1200 X61.56 Y114.735 E69.79723
G0 F6000 X61.56 Y114.169
G1 F1200 X90.754 Y143.363 E71.17043
G0 F6000 X91.32 Y143.363
G1 F1200 X61.56 Y113.603 E72.57025
G0 F6000 X61.56 Y113.038
G1 F1200 X91.885 Y143.363 E73.99664
G0 F6000 X92.451 Y143.363
G1 F1200 X61.56 Y112.472 E75.44966
G0 F6000 X61.56 Y111.906
G1 F1200 X93.017 Y143.363 E76.9293
G0 F6000 X93.582 Y143.363
G1 F1200 X61.56 Y111.341 E78.43552
G0 F6000 X61.56 Y110.775
G1 F1200 X94.148 Y143.363 E79.96836
G0 F6000 X94.714 Y143.363
G1 F1200 X61.56 Y110.209 E81.52782
G0 F6000 X61.56 Y109.643
G1 F1200 X95.279 Y143.363 E83.11388
G0 F6000 X95.845 Y143.363
G1 F1200 X61.56 Y109.078 E84.72654
G0 F6000 X61.56 Y108.512
G1 F1200 X96.411 Y143.363 E86.36583
G0 F6000 X96.976 Y143.363
G1 F1200 X61.56 Y107.946 E88.03171
G0 F6000 X61.56 Y107.381
G1 F1200 X97.542 Y143.363 E89.7242
G0 F6000 X98.108 Y143.363
G1 F1200 X61.56 Y106.815 E91.4433
G0 F6000 X61.56 Y106.249
G1 F1200 X98.673 Y143.363 E93.18901
G0 F6000 X99.239 Y143.363
G1 F1200 X61.56 Y105.684 E94.96131
G0 F6000 X61.56 Y105.118
G1 F1200 X99.805 Y143.363 E96.76024
G0 F6000 X100.37 Y143.363
G1 F1200 X61.56 Y104.552 E98.58577
G0 F6000 X61.56 Y103.987
G1 F1200 X100.936 Y143.363 E100.43789
G0 F6000 X101.502 Y143.363
G1 F1200 X61.56 Y103.421 E102.31664
G0 F6000 X61.56 Y102.855
G1 F1200 X102.068 Y143.363 E104.22201
G0 F6000 X102.633 Y143.363
G1 F1200 X61.56 Y102.29 E106.15396
G0 F6000 X61.56 Y101.724
G1 F1200 X103.199 Y143.363 E108.11253
G0 F6000 X103.765 Y143.363
G1 F1200 X61.56 Y101.158 E110.09773
G0 F6000 X61.56 Y100.593
G1 F1200 X104.33 Y143.363 E112.1095
G0 F6000 X104.896 Y143.363
G1 F1200 X61.56 Y100.027 E114.14789
G0 F6000 X61.56 Y99.461
G1 F1200 X105.462 Y143.363 E116.2129
G0 F6000 X106.027 Y143.363
G1 F1200 X61.56 Y98.895 E118.30452
G0 F6000 X61.56 Y98.33
G1 F1200 X106.593 Y143.363 E120.42273
G0 F6000 X107.159 Y143.363
G1 F1200 X61.56 Y97.764 E122.56757
G0 F6000 X61.56 Y97.198
G1 F1200 X107.724 Y143.363 E124.73901
G0 F6000 X108.29 Y143.363
G1 F1200 X61.56 Y96.633 E126.93704
G0 F6000 X61.56 Y96.067
G1 F1200 X108.856 Y143.363 E129.1617
G0 F6000 X109.421 Y143.363
G1 F1200 X61.56 Y95.501 E131.41296
G0 F6000 X61.56 Y94.936
G1 F1200 X109.987 Y143.363 E133.69082
G0 F6000 X110.553 Y143.363
G1 F1200 X61.56 Y94.37 E135.9953
G0 F6000 X61.56 Y93.804
G1 F1200 X111.119 Y143.363 E138.3264
