;FLAVOR:Marlin
;TIME:6443
;Filament used: 4.78546m
;Layer height: 0.2
;MINX:59.8
;MINY:75.008
;MINZ:0.2
;MAXX:160.2
;MAXY:145.018
;MAXZ:2.6
;Generated with Cura_SteamEngine 5.2.2
M82 ;absolute extrusion mode
; Ender 3 Custom Start G-code
G92 E0 ; Reset Extruder
G28 ; Home all axes
M104 S175 ; Start heating up the nozzle most of the way
M190 S65 ; Start heating the bed, wait until target temperature reached
M109 S195 ; Finish heating the nozzle
G1 Z2.0 F3000 ; Move Z Axis up little to prevent scratching of Heat Bed
G1 X0.1 Y20 Z0.3 F5000.0 ; Move to start position
G1 X0.1 Y200.0 Z0.3 F1500.0 E15 ; Draw the first line
G1 X0.4 Y200.0 Z0.3 F5000.0 ; Move to side a little
G1 X0.4 Y20 Z0.3 F1500.0 E30 ; Draw the second line
G92 E0 ; Reset Extruder
G1 Z2.0 F3000 ; Move Z Axis up little to prevent scratching of Heat Bed
G1 X5 Y20 Z0.3 F5000.0 ; Move over to prevent blob squish
G92 E0
G92 E0
G1 F1500 E-6.5
;LAYER_COUNT:12
;LAYER:0
M107
G1 F300 Z0.4
;MESH:inky-statuspanel-back.stl
G0 F6000 X64.187 Y80.937 Z0.4
;TYPE:WALL-INNER
G1 F300 Z0.2
G1 F1500 E0
G1 F1200 X63.403 Y81.092 E0.02658
G1 X62.735 Y80.965 E0.0492
G1 X62.517 Y80.877 E0.05702
G1 X62.01 Y80.544 E0.07719
G1 X61.837 Y80.372 E0.0853
G1 X61.504 Y79.865 E0.10548
G1 X61.416 Y79.647 E0.1133
G1 X61.311 Y79.093 E0.13205
G1 X61.297 Y78.94 E0.13716
G1 X61.416 Y78.316 E0.15829
G1 X61.504 Y78.098 E0.16611
G1 X61.914 Y77.48 E0.19078
G1 X62.517 Y77.086 E0.21473
G1 X62.733 Y76.998 E0.22249
G1 X63.296 Y76.89 E0.24156
G1 X63.514 Y76.892 E0.24881
G1 X64.067 Y76.998 E0.26754
G1 X64.283 Y77.086 E0.2753
G1 X64.791 Y77.418 E0.29548
G1 X64.963 Y77.591 E0.30359
G1 X65.296 Y78.098 E0.32377
G1 X65.384 Y78.316 E0.33159
G1 X65.51 Y78.982 E0.35413
G1 X65.363 Y79.756 E0.38034
G1 X64.934 Y80.412 E0.40641
G1 X64.827 Y80.519 E0.41144
G1 X64.187 Y80.937 E0.43686
G0 F6000 X64.034 Y80.559
;TYPE:WALL-OUTER
G1 F1200 X63.401 Y80.684 E0.45832
G1 X62.77 Y80.565 E0.47968
G1 X62.194 Y80.187 E0.5026
G1 X61.816 Y79.612 E0.52548
G1 X61.704 Y79.019 E0.54555
G1 X61.704 Y78.943 E0.54808
G1 X61.816 Y78.351 E0.56812
G1 X62.197 Y77.774 E0.59112
G1 X62.77 Y77.399 E0.61389
G1 X63.399 Y77.277 E0.63521
G1 X64.03 Y77.399 E0.65658
G1 X64.606 Y77.776 E0.67948
G1 X64.984 Y78.351 E0.70236
G1 X65.103 Y78.981 E0.72369
G1 X64.98 Y79.617 E0.74523
G1 X64.607 Y80.184 E0.76781
G1 X64.034 Y80.559 E0.79058
G1 F1500 E-5.70942
G1 F300 Z0.4
G0 F6000 X64.282 Y143.314 Z0.4
;TYPE:WALL-INNER
G1 F300 Z0.2
G1 F1500 E0.79058
G1 F1200 X64.065 Y143.402 E0.79837
G1 X63.504 Y143.509 E0.81737
G1 X63.287 Y143.507 E0.82459
G1 X62.735 Y143.402 E0.84327
G1 X62.518 Y143.314 E0.85106
G1 X61.908 Y142.911 E0.87538
G1 X61.504 Y142.302 E0.89969
G1 X61.416 Y142.084 E0.90751
G1 X61.311 Y141.53 E0.92626
G1 X61.297 Y141.377 E0.93137
G1 X61.416 Y140.753 E0.9525
G1 X61.504 Y140.535 E0.96032
G1 X61.837 Y140.028 E0.98049
G1 X62.01 Y139.856 E0.98861
G1 X62.517 Y139.523 E1.00878
G1 X62.734 Y139.435 E1.01657
G1 X63.4 Y139.307 E1.03913
G1 X64.173 Y139.455 E1.0653
G1 X64.829 Y139.883 E1.09136
G1 X64.936 Y139.99 E1.09639
G1 X65.356 Y140.629 E1.12182
G1 X65.511 Y141.415 E1.14847
G1 X65.384 Y142.084 E1.17112
G1 X65.296 Y142.302 E1.17893
G1 X64.963 Y142.809 E1.19911
G1 X64.791 Y142.981 E1.2072
G1 X64.282 Y143.314 E1.22743
G0 F6000 X64.03 Y143.002
;TYPE:WALL-OUTER
G1 F1200 X63.401 Y143.121 E1.24872
G1 X62.77 Y143.002 E1.27008
G1 X62.195 Y142.623 E1.29298
G1 X61.816 Y142.049 E1.31586
G1 X61.704 Y141.456 E1.33593
G1 X61.704 Y141.38 E1.33846
G1 X61.816 Y140.788 E1.3585
G1 X62.194 Y140.213 E1.38139
G1 X62.77 Y139.835 E1.4043
G1 X63.4 Y139.715 E1.42563
G1 X64.035 Y139.839 E1.44715
G1 X64.606 Y140.213 E1.46986
G1 X64.978 Y140.784 E1.49252
G1 X65.103 Y141.417 E1.51398
G1 X64.984 Y142.049 E1.53537
G1 X64.606 Y142.624 E1.55826
G1 X64.03 Y143.002 E1.58117
G1 F1500 E-4.91883
G1 F300 Z0.4
G0 F6000 X60.839 Y144.537 Z0.4
;TYPE:WALL-INNER
G1 F300 Z0.2
G1 F1500 E1.58117
G1 F1200 X61.259 Y144.617 E1.59539
G1 X158.741 Y144.618 E4.83766
G1 X159.161 Y144.537 E4.85188
G1 X159.497 Y144.317 E4.86524
G1 X159.718 Y143.98 E4.87865
G1 X159.8 Y143.559 E4.89291
G1 X159.8 Y75.997 E7.14003
G1 X60.2 Y75.998 E10.45274
G1 X60.201 Y143.563 E12.69996
G1 X60.282 Y143.98 E12.71409
G1 X60.503 Y144.317 E12.7275
G1 X60.839 Y144.537 E12.74085
G0 F6000 X60.686 Y144.915
;TYPE:WALL-OUTER
G1 F1200 X61.221 Y145.017 E12.75897
G1 X158.779 Y145.018 E16.00376
G1 X159.314 Y144.915 E16.02188
G1 X159.786 Y144.605 E16.04066
G1 X160.097 Y144.132 E16.05949
G1 X160.2 Y143.597 E16.07761
G1 X160.2 Y75.597 E18.3393
G1 X59.8 Y75.598 E21.67862
G1 X59.801 Y143.601 E23.94041
G1 X59.903 Y144.132 E23.95839
G1 X60.214 Y144.605 E23.97722
G1 X60.686 Y144.915 E23.996
G1 F1500 E17.496
G1 F300 Z0.4
G0 F6000 X155.209 Y142.981 Z0.4
;TYPE:WALL-INNER
G1 F300 Z0.2
G1 F1500 E23.996
G1 F1200 X155.037 Y142.809 E24.00409
G1 X154.704 Y142.302 E24.02427
G1 X154.616 Y142.084 E24.03209
G1 X154.511 Y141.53 E24.05084
G1 X154.498 Y141.371 E24.05615
G1 X154.644 Y140.629 E24.0813
G1 X155.064 Y139.99 E24.10673
G1 X155.171 Y139.883 E24.11177
G1 X155.826 Y139.456 E24.13777
G1 X156.6 Y139.307 E24.16399
G1 X157.266 Y139.435 E24.18654
G1 X157.483 Y139.523 E24.19433
G1 X157.99 Y139.856 E24.21451
G1 X158.163 Y140.028 E24.22262
G1 X158.496 Y140.535 E24.2428
G1 X158.584 Y140.753 E24.25062
G1 X158.711 Y141.422 E24.27326
G1 X158.584 Y142.084 E24.29568
G1 X158.496 Y142.302 E24.3035
G1 X158.094 Y142.914 E24.32786
G1 X157.482 Y143.314 E24.35217
G1 X157.265 Y143.402 E24.35996
G1 X156.704 Y143.509 E24.37896
G1 X156.487 Y143.507 E24.38618
G1 X155.935 Y143.402 E24.40486
G1 X155.718 Y143.314 E24.41265
G1 X155.209 Y142.981 E24.43288
G0 F6000 X155.97 Y143.002
;TYPE:WALL-OUTER
G1 F1200 X155.394 Y142.624 E24.4558
G1 X155.016 Y142.049 E24.47868
G1 X154.904 Y141.456 E24.49876
G1 X154.904 Y141.38 E24.50128
G1 X155.022 Y140.784 E24.52149
G1 X155.394 Y140.213 E24.54416
G1 X155.965 Y139.839 E24.56686
G1 X156.6 Y139.715 E24.58838
G1 X157.23 Y139.835 E24.60971
G1 X157.806 Y140.213 E24.63263
G1 X158.184 Y140.788 E24.65551
G1 X158.3 Y141.418 E24.67682
G1 X158.184 Y142.049 E24.69816
G1 X157.803 Y142.621 E24.72102
G1 X157.231 Y143.001 E24.74386
G1 X156.601 Y143.121 E24.76519
G1 X155.97 Y143.002 E24.78654
G1 F1500 E18.28654
G1 F300 Z0.4
G0 F6000 X155.819 Y80.943 Z0.4
;TYPE:WALL-INNER
G1 F300 Z0.2
G1 F1500 E24.78654
G1 F1200 X155.101 Y80.472 E24.8151
G1 X154.637 Y79.755 E24.84351
G1 X154.511 Y79.093 E24.86592
G1 X154.511 Y78.869 E24.87337
G1 X154.616 Y78.315 E24.89213
G1 X154.704 Y78.098 E24.89992
G1 X155.037 Y77.591 E24.92009
G1 X155.209 Y77.419 E24.92818
G1 X155.718 Y77.086 E24.94841
G1 X155.934 Y76.998 E24.95617
G1 X156.496 Y76.89 E24.9752
G1 X156.714 Y76.892 E24.98246
G1 X157.266 Y76.998 E25.00115
G1 X157.482 Y77.086 E25.00891
G1 X158.086 Y77.481 E25.03291
G1 X158.496 Y78.098 E25.05755
G1 X158.584 Y78.316 E25.06537
G1 X158.711 Y78.985 E25.08802
G1 X158.584 Y79.647 E25.11044
G1 X158.496 Y79.865 E25.11826
G1 X158.163 Y80.372 E25.13843
G1 X157.99 Y80.544 E25.14655
G1 X157.483 Y80.877 E25.16672
G1 X157.265 Y80.965 E25.17454
G1 X156.599 Y81.091 E25.19708
G1 X155.819 Y80.943 E25.22349
G0 F6000 X155.966 Y80.559
;TYPE:WALL-OUTER
G1 F1200 X155.397 Y80.188 E25.24608
G1 X155.02 Y79.617 E25.26884
G1 X154.904 Y79.019 E25.2891
G1 X154.904 Y78.943 E25.29163
G1 X155.016 Y78.351 E25.31167
G1 X155.394 Y77.776 E25.33455
G1 X155.97 Y77.399 E25.35745
G1 X156.599 Y77.277 E25.37876
G1 X157.23 Y77.399 E25.40014
G1 X157.803 Y77.774 E25.42291
G1 X158.184 Y78.351 E25.44591
G1 X158.3 Y78.981 E25.46722
G1 X158.184 Y79.612 E25.48856
G1 X157.806 Y80.187 E25.51144
G1 X157.23 Y80.565 E25.53436
G1 X156.599 Y80.684 E25.55571
G1 X155.966 Y80.559 E25.57718
G1 F1500 E19.07718
G1 F300 Z0.4
G0 F6000 X154.731 Y143.003 Z0.4
;TYPE:SKIN
G1 F300 Z0.2
G1 F1500 E25.57718
G1 F1200 X154.402 Y142.504 E25.59705
G1 X154.27 Y142.184 E25.60857
G1 X154.129 Y141.453 E25.63333
G1 X154.129 Y141.378 E25.63582
G1 X154.26 Y140.686 E25.65925
G1 X154.374 Y140.385 E25.66995
G1 X154.846 Y139.661 E25.6987
G1 X155.576 Y139.183 E25.72772
G1 X155.878 Y139.078 E25.73836
G1 X156.603 Y138.941 E25.7629
G1 X157.332 Y139.08 E25.78758
G1 X157.685 Y139.222 E25.80023
G1 X158.183 Y139.549 E25.82005
G1 X158.443 Y139.803 E25.83214
G1 X158.795 Y140.332 E25.85327
G1 X158.94 Y140.691 E25.86615
G1 F1212.1 X159.07 Y141.423 E25.89063
G1 X158.939 Y142.148 E25.91489
G1 F1200 X158.797 Y142.502 E25.92758
G1 X158.355 Y143.169 E25.95419
G1 X157.686 Y143.615 E25.98093
G1 X157.33 Y143.758 E25.99369
G1 F1212.1 X156.599 Y143.889 E26.01815
G1 X155.87 Y143.758 E26.04253
G1 F1200 X155.514 Y143.615 E26.05529
G1 X154.984 Y143.261 E26.07649
G1 X154.731 Y143.003 E26.08851
G1 F1500 E19.58851
G1 F300 Z0.4
G0 F6000 X155.824 Y144.257 Z0.4
G1 F300 Z0.2
G1 F1500 E26.08851
G1 F1227.6 X156.598 Y144.266 E26.11368
G1 X157.376 Y144.257 E26.13897
G1 F1200 X158.704 Y144.258 E26.18314
G1 X159.024 Y144.196 E26.19398
G1 X159.236 Y144.056 E26.20243
G1 X159.376 Y143.846 E26.21083
G1 X159.44 Y143.522 E26.22181
G1 X159.44 Y142.195 E26.26595
G1 F1227.6 X159.449 Y141.421 E26.29111
G1 X159.44 Y140.645 E26.31634
G1 F1200 X159.44 Y79.758 E28.34145
G1 F1227.6 X159.449 Y78.984 E28.36662
G1 X159.44 Y78.208 E28.39185
G1 F1200 X159.44 Y76.357 E28.45342
G1 X157.358 Y76.357 E28.52266
G1 F1006.3 X156.652 Y76.434 E28.55083
G1 X157.37 Y76.653 E28.5806
G1 F1200 X157.684 Y76.785 E28.59193
G1 X158.208 Y77.131 E28.61282
G1 X158.437 Y77.35 E28.62336
G1 X158.815 Y77.933 E28.64647
G1 X158.94 Y78.254 E28.65792
G1 F1212.1 X159.07 Y78.986 E28.6824
G1 X158.939 Y79.711 E28.70666
G1 F1200 X158.798 Y80.063 E28.71928
G1 X158.469 Y80.565 E28.73924
G1 X158.215 Y80.825 E28.75133
G1 X157.685 Y81.178 E28.77251
G1 X157.33 Y81.32 E28.78522
G1 X156.602 Y81.457 E28.80986
G1 X155.681 Y81.282 E28.84104
G1 X155.002 Y80.84 E28.86799
G1 X154.781 Y80.632 E28.87808
G1 X154.296 Y79.895 E28.90743
G1 X154.123 Y78.979 E28.93843
G1 X154.27 Y78.215 E28.96431
G1 X154.404 Y77.896 E28.97582
G1 X154.732 Y77.397 E28.99568
G1 X155.016 Y77.113 E29.00904
G1 X155.55 Y76.767 E29.0302
G1 X155.83 Y76.653 E29.04026
G1 F1006.3 X156.548 Y76.434 E29.07003
G1 X155.842 Y76.357 E29.0982
G1 F1200 X64.158 Y76.359 E32.14762
G1 F1008.4 X63.452 Y76.435 E32.17572
G1 X64.17 Y76.653 E32.20542
G1 F1200 X64.484 Y76.785 E32.21675
G1 X64.983 Y77.112 E32.2366
G1 X65.242 Y77.365 E32.24864
G1 X65.614 Y77.93 E32.27114
G1 X65.73 Y78.215 E32.28137
G1 X65.878 Y78.981 E32.30732
G1 X65.708 Y79.883 E32.33785
G1 X65.251 Y80.589 E32.36582
G1 X65.058 Y80.794 E32.37519
G1 X64.409 Y81.223 E32.40106
G1 X64.121 Y81.323 E32.4112
G1 X63.394 Y81.457 E32.43579
G1 X62.633 Y81.31 E32.46157
G1 X62.315 Y81.178 E32.47302
G1 X61.817 Y80.851 E32.49283
G1 X61.556 Y80.597 E32.50495
G1 X61.202 Y80.066 E32.52617
G1 X61.059 Y79.71 E32.53893
G1 F1212.1 X60.93 Y78.982 E32.56328
G1 X61.059 Y78.254 E32.58762
G1 F1200 X61.203 Y77.896 E32.60046
G1 X61.58 Y77.322 E32.6233
G1 X61.793 Y77.13 E32.63284
G1 X62.316 Y76.785 E32.65367
G1 X62.63 Y76.653 E32.665
G1 X63.362 Y76.509 E32.68982
G1 X63.348 Y76.359 E32.69483
G1 X60.561 Y76.359 E32.78752
G1 X60.561 Y76.941 E32.80688
G1 X60.561 Y78.208 E32.84902
G1 F1224.5 X60.552 Y78.982 E32.87425
G1 X60.561 Y79.756 E32.89948
G1 F1200 X60.561 Y140.645 E34.92466
G1 F1224.5 X60.552 Y141.419 E34.94989
G1 X60.561 Y142.192 E34.97509
G1 F1200 X60.561 Y143.53 E35.01959
G1 X60.622 Y143.841 E35.03013
G1 X60.764 Y144.056 E35.0387
G1 X60.975 Y144.195 E35.0471
G1 X61.295 Y144.256 E35.05794
G1 X62.624 Y144.256 E35.10214
G1 F1221.4 X63.464 Y144.265 E35.12959
G1 X63.47 Y144.256 E35.12994
G1 F1200 X155.824 Y144.257 E38.20165
G1 F1500 E31.70165
G1 F300 Z0.4
G0 F6000 X63.419 Y143.892 Z0.4
G1 F300 Z0.2
G1 F1500 E38.20165
G1 F1200 X62.67 Y143.758 E38.22696
G1 X62.315 Y143.615 E38.23969
G1 X61.655 Y143.175 E38.26607
G1 X61.203 Y142.505 E38.29295
G1 X61.059 Y142.146 E38.30582
G1 F1221.4 X60.936 Y141.451 E38.32888
G1 F1243.5 X60.937 Y141.382 E38.3311
G1 F1221.4 X61.059 Y140.691 E38.35403
G1 F1200 X61.203 Y140.333 E38.36686
G1 X61.556 Y139.803 E38.38804
G1 X61.817 Y139.549 E38.40015
G1 X62.315 Y139.222 E38.41997
G1 X62.668 Y139.08 E38.43262
G1 X63.399 Y138.941 E38.45737
G1 X64.319 Y139.119 E38.48854
G1 X65.049 Y139.597 E38.51756
G1 X65.219 Y139.766 E38.52553
G1 X65.704 Y140.508 E38.55502
G1 X65.877 Y141.418 E38.58583
G1 X65.741 Y142.146 E38.61046
G1 X65.616 Y142.468 E38.62195
G1 X65.269 Y143.003 E38.64316
G1 X65.016 Y143.261 E38.65517
G1 X64.485 Y143.615 E38.6764
G1 X64.13 Y143.758 E38.68913
G1 X63.419 Y143.892 E38.71319
G1 F1500 E32.21319
G1 F300 Z0.4
G0 F6000 X61.465 Y144.055 Z0.4
G1 F300 Z0.2
G1 F1500 E38.71319
G1 F1200 X60.76 Y143.351 E38.74633
G0 F6000 X60.76 Y142.785
G1 F1200 X62.03 Y144.055 E38.80607
G0 F6000 X62.415 Y143.874
G1 F1200 X62.596 Y144.055 E38.81458
G1 F1500 E32.31458
G1 F300 Z0.4
G0 F6000 X64.189 Y143.951 Z0.4
G1 F300 Z0.2
G1 F1500 E38.81458
G1 F1200 X64.293 Y144.055 E38.81947
G0 F6000 X64.589 Y143.785
G1 F1200 X64.859 Y144.055 E38.83217
G0 F6000 X64.93 Y143.561
G1 F1200 X65.425 Y144.055 E38.85543
G0 F6000 X65.99 Y144.055
G1 F1200 X65.246 Y143.311 E38.89043
G0 F6000 X65.505 Y143.004
G1 F1200 X66.556 Y144.055 E38.93986
G0 F6000 X67.122 Y144.055
G1 F1200 X65.729 Y142.663 E39.00536
G0 F6000 X65.908 Y142.276
G1 F1200 X67.687 Y144.055 E39.08904
G0 F6000 X68.253 Y144.055
G1 F1200 X66.007 Y141.809 E39.19469
G0 F6000 X66.057 Y141.293
G1 F1200 X68.819 Y144.055 E39.3246
G0 F6000 X69.384 Y144.055
G1 F1200 X65.926 Y140.596 E39.48728
G1 F1500 E32.98728
G1 F300 Z0.4
G0 F6000 X64.228 Y138.899 Z0.4
G1 F300 Z0.2
G1 F1500 E39.48728
G1 F1200 X60.76 Y135.431 E39.6504
G0 F6000 X60.76 Y135.997
G1 F1200 X63.524 Y138.76 E39.78039
G0 F6000 X63.008 Y138.81
G1 F1200 X60.76 Y136.562 E39.88613
G0 F6000 X60.76 Y137.128
G1 F1200 X62.541 Y138.909 E39.9699
G0 F6000 X62.153 Y139.087
G1 F1200 X60.76 Y137.694 E40.03543
G0 F6000 X60.76 Y138.259
G1 F1200 X61.812 Y139.311 E40.08491
G0 F6000 X61.505 Y139.57
G1 F1200 X60.76 Y138.825 E40.11995
G0 F6000 X60.76 Y139.391
G1 F1200 X61.256 Y139.886 E40.14326
G0 F6000 X61.032 Y140.228
G1 F1200 X60.76 Y139.956 E40.15605
G0 F6000 X60.76 Y140.522
G1 F1200 X60.866 Y140.627 E40.16101
G1 F1500 E33.66101
G1 F300 Z0.4
G0 F6000 X60.76 Y142.219 Z0.4
G1 F300 Z0.2
G1 F1500 E40.16101
G1 F1200 X60.941 Y142.399 E40.1695
G1 F1500 E33.6695
G1 F300 Z0.4
G0 F6000 X60.76 Y134.865 Z0.4
G1 F300 Z0.2
G1 F1500 E40.1695
G1 F1200 X69.95 Y144.055 E40.60177
G0 F6000 X70.516 Y144.055
G1 F1200 X60.76 Y134.3 E41.06064
G0 F6000 X60.76 Y133.734
G1 F1200 X71.081 Y144.055 E41.54611
G0 F6000 X71.647 Y144.055
G1 F1200 X60.76 Y133.168 E42.0582
G0 F6000 X60.76 Y132.603
G1 F1200 X72.213 Y144.055 E42.59689
G0 F6000 X72.778 Y144.055
G1 F1200 X60.76 Y132.037 E43.16218
G0 F6000 X60.76 Y131.471
G1 F1200 X73.344 Y144.055 E43.7541
G0 F6000 X73.91 Y144.055
G1 F1200 X60.76 Y130.905 E44.37263
G0 F6000 X60.76 Y130.34
G1 F1200 X74.476 Y144.055 E45.01777
G0 F6000 X75.041 Y144.055
G1 F1200 X60.76 Y129.774 E45.6895
G0 F6000 X60.76 Y129.208
G1 F1200 X75.607 Y144.055 E46.38786
G0 F6000 X76.173 Y144.055
G1 F1200 X60.76 Y128.643 E47.11281
G0 F6000 X60.76 Y128.077
G1 F1200 X76.738 Y144.055 E47.86437
G0 F6000 X77.304 Y144.055
G1 F1200 X60.76 Y127.511 E48.64255
G0 F6000 X60.76 Y126.946
G1 F1200 X77.87 Y144.055 E49.44733
G0 F6000 X78.435 Y144.055
G1 F1200 X60.76 Y126.38 E50.27871
G0 F6000 X60.76 Y125.814
G1 F1200 X79.001 Y144.055 E51.13671
G0 F6000 X79.567 Y144.055
G1 F1200 X60.76 Y125.249 E52.02131
G0 F6000 X60.76 Y124.683
G1 F1200 X80.132 Y144.055 E52.93251
G0 F6000 X80.698 Y144.055
G1 F1200 X60.76 Y124.117 E53.87033
G0 F6000 X60.76 Y123.552
G1 F1200 X81.264 Y144.055 E54.83475
G0 F6000 X81.829 Y144.055
G1 F1200 X60.76 Y122.986 E55.82577
G0 F6000 X60.76 Y122.42
G1 F1200 X82.395 Y144.055 E56.84342
G0 F6000 X82.961 Y144.055
G1 F1200 X60.76 Y121.855 E57.88766
G0 F6000 X60.76 Y121.289
G1 F1200 X83.526 Y144.055 E58.9585
G0 F6000 X84.092 Y144.055
G1 F1200 X60.76 Y120.723 E60.05597
G0 F6000 X60.76 Y120.157
G1 F1200 X84.658 Y144.055 E61.18006
G0 F6000 X85.224 Y144.055
G1 F1200 X60.76 Y119.592 E62.33074
G0 F6000 X60.76 Y119.026
G1 F1200 X85.789 Y144.055 E63.50803
G0 F6000 X86.355 Y144.055
G1 F1200 X60.76 Y118.46 E64.71194
G0 F6000 X60.76 Y117.895
