;FLAVOR:Marlin
;TIME:11616
;Filament used: 7.85797m
;Layer height: 0.2
;MINX:59.3
;MINY:71.9
;MINZ:0.2
;MAXX:160.7
;MAXY:148.1
;MAXZ:25.6
;Generated with Cura_SteamEngine 5.2.2
M82 ;absolute extrusion mode
; Ender 3 Custom Start G-code
G92 E0 ; Reset Extruder
G28 ; Home all axes
M104 S175 ; Start heating up the nozzle most of the way
M190 S65 ; Start heating the bed, wait until target temperature reached
M109 S195 ; Finish heating the nozzle
G1 Z2.0 F3000 ; Move Z Axis up little to prevent scratching of Heat Bed
G1 X0.1 Y20 Z0.3 F5000.0 ; Move to start position
G1 X0.1 Y200.0 Z0.3 F1500.0 E15 ; Draw the first line
G1 X0.4 Y200.0 Z0.3 F5000.0 ; Move to side a little
G1 X0.4 Y20 Z0.3 F1500.0 E30 ; Draw the second line
G92 E0 ; Reset Extruder
G1 Z2.0 F3000 ; Move Z Axis up little to prevent scratching of Heat Bed
G1 X5 Y20 Z0.3 F5000.0 ; Move over to prevent blob squish
G92 E0
G92 E0
G1 F1500 E-6.5
;LAYER_COUNT:127
;LAYER:0
M107
G1 F300 Z0.4
;MESH:inky-statuspanel.stl
G0 F6000 X153.077 Y139.3 Z0.4
;TYPE:WALL-INNER
G1 F300 Z0.2
G1 F1500 E0
G1 F1200 X65.917 Y139.3 E2.89895
G1 X65.598 Y139.147 E2.91072
G1 X65.456 Y138.955 E2.91866
G1 X65.4 Y138.779 E2.92481
G1 X65.4 Y83.7 E4.75674
G1 X65.468 Y83.42 E4.76632
G1 X65.635 Y83.223 E4.77491
G1 X65.941 Y83.1 E4.78588
G1 X153.087 Y83.106 E7.68437
G1 X153.269 Y83.163 E7.69071
G1 X153.456 Y83.308 E7.69858
G1 X153.6 Y83.586 E7.709
G1 X153.6 Y138.779 E9.54472
G1 X153.544 Y138.955 E9.55087
G1 X153.402 Y139.147 E9.55881
G1 X153.077 Y139.3 E9.57076
G0 F6000 X153.134 Y138.849
;TYPE:WALL-OUTER
G1 F1200 X153.035 Y138.898 E9.57443
G1 X65.96 Y138.897 E12.47056
G1 X65.866 Y138.849 E12.47407
G1 X65.802 Y138.735 E12.47842
G1 X65.8 Y83.7 E14.30889
G1 X65.822 Y83.606 E14.3121
G1 X65.956 Y83.5 E14.31778
G1 X153.059 Y83.508 E17.21484
G1 X153.195 Y83.651 E17.2214
G1 X153.198 Y138.735 E19.0535
G1 X153.134 Y138.849 E19.05785
G1 F1500 E12.55785
G1 F300 Z0.4
G0 F6000 X158.66 Y147.619 Z0.4
;TYPE:WALL-INNER
G1 F300 Z0.2
G1 F1500 E19.05785
G1 F1200 X158.997 Y147.397 E19.07128
G1 X159.219 Y147.06 E19.0847
G1 X159.3 Y146.641 E19.09889
G1 X159.3 Y72.3 E21.57148
G1 X59.7 Y72.3 E24.88419
G1 X59.7 Y146.644 E27.35688
G1 X59.781 Y147.06 E27.37098
G1 X60.003 Y147.397 E27.3844
G1 X60.34 Y147.619 E27.39782
G1 X60.758 Y147.699 E27.41198
G1 X158.241 Y147.7 E30.65428
G1 X158.66 Y147.619 E30.66847
G0 F6000 X158.814 Y147.997
;TYPE:WALL-OUTER
G1 F1200 X159.286 Y147.686 E30.68727
G1 X159.597 Y147.214 E30.70607
G1 X159.7 Y146.679 E30.72419
G1 X159.7 Y71.9 E33.21135
G1 X59.3 Y71.9 E36.55067
G1 X59.3 Y146.682 E39.03793
G1 X59.403 Y147.214 E39.05595
G1 X59.714 Y147.686 E39.07475
G1 X60.186 Y147.997 E39.09355
G1 X60.721 Y148.099 E39.11167
G1 X158.279 Y148.1 E42.35646
G1 X158.814 Y147.997 E42.37458
G0 F6000 X158.524 Y147.277
;TYPE:SKIN
G1 F1200 X158.737 Y147.137 E42.38306
G1 X158.878 Y146.925 E42.39153
G1 X158.94 Y146.604 E42.4024
G1 X158.94 Y72.66 E44.86179
G1 X60.06 Y72.66 E48.15055
G1 X60.061 Y146.611 E50.61017
G1 X60.121 Y146.921 E50.62067
G1 X60.263 Y147.137 E50.62927
G1 X60.475 Y147.277 E50.63772
G1 X60.794 Y147.339 E50.64853
G1 X158.204 Y147.34 E53.8884
G1 X158.524 Y147.277 E53.89925
G1 F1500 E47.39925
G1 F300 Z0.4
G0 F6000 X153.137 Y139.658 Z0.4
G1 F300 Z0.2
G1 F1500 E53.89925
G1 F1200 X65.861 Y139.658 E56.80206
G1 X65.633 Y139.588 E56.80999
G1 X65.352 Y139.414 E56.82098
G1 X65.132 Y139.119 E56.83322
G1 X65.042 Y138.85 E56.84266
G1 X65.04 Y83.569 E58.68131
G1 X65.053 Y83.497 E58.68374
G1 X65.173 Y83.217 E58.69388
G1 X65.411 Y82.94 E58.70602
G1 X65.685 Y82.794 E58.71635
G1 X65.895 Y82.742 E58.72354
G1 X153.108 Y82.742 E61.62426
G1 X153.433 Y82.838 E61.63553
G1 X153.724 Y83.069 E61.64789
G1 X153.96 Y83.502 E61.66429
G1 X153.958 Y138.85 E63.50517
G1 X153.868 Y139.119 E63.51461
G1 X153.648 Y139.413 E63.52682
G1 X153.372 Y139.588 E63.53769
G1 X153.137 Y139.658 E63.54585
G1 F1500 E57.04585
G1 F300 Z0.4
G0 F6000 X158.739 Y73.32 Z0.4
G1 F300 Z0.2
G1 F1500 E63.54585
G1 F1200 X158.278 Y72.859 E63.56753
G0 F6000 X157.712 Y72.859
G1 F1200 X158.739 Y73.886 E63.61584
G0 F6000 X158.739 Y74.451
G1 F1200 X157.146 Y72.859 E63.69074
G0 F6000 X156.581 Y72.859
G1 F1200 X158.739 Y75.017 E63.79225
G0 F6000 X158.739 Y75.583
G1 F1200 X156.015 Y72.859 E63.92038
G0 F6000 X155.449 Y72.859
G1 F1200 X158.739 Y76.149 E64.07513
G0 F6000 X158.739 Y76.714
G1 F1200 X154.883 Y72.859 E64.25648
G0 F6000 X154.318 Y72.859
G1 F1200 X158.739 Y77.28 E64.46443
G0 F6000 X158.739 Y77.846
G1 F1200 X153.752 Y72.859 E64.699
G0 F6000 X153.186 Y72.859
G1 F1200 X158.739 Y78.411 E64.96018
G0 F6000 X158.739 Y78.977
G1 F1200 X152.621 Y72.859 E65.24795
G0 F6000 X152.055 Y72.859
G1 F1200 X158.739 Y79.543 E65.56234
G0 F6000 X158.739 Y80.108
G1 F1200 X151.489 Y72.859 E65.90334
G0 F6000 X150.924 Y72.859
G1 F1200 X158.739 Y80.674 E66.27093
G0 F6000 X158.739 Y81.24
G1 F1200 X150.358 Y72.859 E66.66515
G0 F6000 X149.792 Y72.859
G1 F1200 X158.739 Y81.805 E67.08596
G0 F6000 X158.739 Y82.371
G1 F1200 X149.227 Y72.859 E67.53338
G0 F6000 X148.661 Y72.859
G1 F1200 X158.739 Y82.937 E68.00742
G0 F6000 X158.739 Y83.502
G1 F1200 X148.095 Y72.859 E68.50805
G0 F6000 X147.53 Y72.859
G1 F1200 X158.739 Y84.068 E69.03529
G0 F6000 X158.739 Y84.634
G1 F1200 X146.964 Y72.859 E69.58915
G0 F6000 X146.398 Y72.859
G1 F1200 X158.739 Y85.2 E70.16963
G0 F6000 X158.739 Y85.765
G1 F1200 X145.832 Y72.859 E70.77672
G0 F6000 X145.267 Y72.859
G1 F1200 X158.739 Y86.331 E71.4104
G0 F6000 X158.739 Y86.897
G1 F1200 X144.701 Y72.859 E72.0707
G0 F6000 X144.135 Y72.859
G1 F1200 X158.739 Y87.462 E72.75761
G0 F6000 X158.739 Y88.028
G1 F1200 X154.152 Y83.441 E72.97336
G0 F6000 X154.158 Y84.013
G1 F1200 X158.739 Y88.594 E73.18884
G0 F6000 X158.739 Y89.159
G1 F1200 X154.158 Y84.579 E73.40429
G0 F6000 X154.158 Y85.144
G1 F1200 X158.739 Y89.725 E73.61977
G0 F6000 X158.739 Y90.291
G1 F1200 X154.158 Y85.71 E73.83525
G0 F6000 X154.158 Y86.276
G1 F1200 X158.739 Y90.856 E74.0507
G0 F6000 X158.739 Y91.422
G1 F1200 X154.158 Y86.841 E74.26617
G0 F6000 X154.158 Y87.407
G1 F1200 X158.739 Y91.988 E74.48165
G0 F6000 X158.739 Y92.553
G1 F1200 X154.158 Y87.973 E74.6971
G0 F6000 X154.158 Y88.538
G1 F1200 X158.739 Y93.119 E74.91258
G0 F6000 X158.739 Y93.685
G1 F1200 X154.158 Y89.104 E75.12806
G0 F6000 X154.158 Y89.67
G1 F1200 X158.739 Y94.25 E75.34351
G0 F6000 X158.739 Y94.816
G1 F1200 X154.158 Y90.236 E75.55896
G0 F6000 X154.158 Y90.801
G1 F1200 X158.739 Y95.382 E75.77444
G0 F6000 X158.739 Y95.948
G1 F1200 X154.158 Y91.367 E75.98991
G0 F6000 X154.157 Y91.932
G1 F1200 X158.739 Y96.513 E76.20541
G0 F6000 X158.739 Y97.079
G1 F1200 X154.157 Y92.498 E76.42091
G0 F6000 X154.157 Y93.063
G1 F1200 X158.739 Y97.645 E76.63644
G0 F6000 X158.739 Y98.21
G1 F1200 X154.157 Y93.629 E76.85194
G0 F6000 X154.157 Y94.195
G1 F1200 X158.739 Y98.776 E77.06744
G0 F6000 X158.739 Y99.342
G1 F1200 X154.157 Y94.76 E77.28296
G0 F6000 X154.157 Y95.326
G1 F1200 X158.739 Y99.907 E77.49846
G0 F6000 X158.739 Y100.473
G1 F1200 X154.157 Y95.892 E77.71396
G0 F6000 X154.157 Y96.457
G1 F1200 X158.739 Y101.039 E77.92948
G0 F6000 X158.739 Y101.604
G1 F1200 X154.157 Y97.023 E78.14498
G0 F6000 X154.157 Y97.589
G1 F1200 X158.739 Y102.17 E78.36048
G0 F6000 X158.739 Y102.736
G1 F1200 X154.157 Y98.154 E78.576
G0 F6000 X154.157 Y98.72
G1 F1200 X158.739 Y103.301 E78.7915
G0 F6000 X158.739 Y103.867
G1 F1200 X154.157 Y99.286 E79.007
G0 F6000 X154.157 Y99.851
G1 F1200 X158.739 Y104.433 E79.22253
G0 F6000 X158.739 Y104.998
G1 F1200 X154.157 Y100.416 E79.43805
G0 F6000 X154.157 Y100.982
G1 F1200 X158.739 Y105.564 E79.65357
G0 F6000 X158.739 Y106.13
G1 F1200 X154.157 Y101.548 E79.8691
G0 F6000 X154.157 Y102.113
G1 F1200 X158.739 Y106.696 E80.08464
G0 F6000 X158.739 Y107.261
G1 F1200 X154.157 Y102.679 E80.30017
G0 F6000 X154.157 Y103.245
G1 F1200 X158.739 Y107.827 E80.51569
G0 F6000 X158.739 Y108.393
G1 F1200 X154.157 Y103.811 E80.73121
G0 F6000 X154.157 Y104.376
G1 F1200 X158.739 Y108.958 E80.94674
G0 F6000 X158.739 Y109.524
G1 F1200 X154.157 Y104.942 E81.16226
G0 F6000 X154.157 Y105.508
G1 F1200 X158.739 Y110.09 E81.37778
G0 F6000 X158.739 Y110.655
G1 F1200 X154.157 Y106.073 E81.59331
G0 F6000 X154.157 Y106.639
G1 F1200 X158.739 Y111.221 E81.80883
G0 F6000 X158.739 Y111.787
G1 F1200 X154.157 Y107.205 E82.02435
G0 F6000 X154.156 Y107.77
G1 F1200 X158.739 Y112.352 E82.2399
G0 F6000 X158.739 Y112.918
G1 F1200 X154.156 Y108.335 E82.45547
G0 F6000 X154.156 Y108.901
G1 F1200 X158.739 Y113.484 E82.67104
G0 F6000 X158.739 Y114.049
G1 F1200 X154.156 Y109.467 E82.88659
G0 F6000 X154.156 Y110.032
G1 F1200 X158.739 Y114.615 E83.10216
G0 F6000 X158.739 Y115.181
G1 F1200 X154.156 Y110.598 E83.31773
G0 F6000 X154.156 Y111.164
G1 F1200 X158.739 Y115.747 E83.5333
G0 F6000 X158.739 Y116.312
G1 F1200 X154.156 Y111.729 E83.74887
G0 F6000 X154.156 Y112.295
G1 F1200 X158.739 Y116.878 E83.96444
G0 F6000 X158.739 Y117.444
G1 F1200 X154.156 Y112.861 E84.18001
G0 F6000 X154.156 Y113.426
G1 F1200 X158.739 Y118.009 E84.39558
G0 F6000 X158.739 Y118.575
G1 F1200 X154.156 Y113.992 E84.61115
G0 F6000 X154.156 Y114.558
G1 F1200 X158.739 Y119.141 E84.82672
G0 F6000 X158.739 Y119.706
G1 F1200 X154.156 Y115.124 E85.04227
G0 F6000 X154.155 Y115.689
G1 F1200 X158.739 Y120.272 E85.25786
G0 F6000 X158.739 Y120.838
G1 F1200 X154.155 Y116.254 E85.47348
G0 F6000 X154.155 Y116.82
G1 F1200 X158.739 Y121.403 E85.68907
G0 F6000 X158.739 Y121.969
G1 F1200 X154.155 Y117.386 E85.90466
G0 F6000 X154.155 Y117.951
G1 F1200 X158.739 Y122.535 E86.12028
G0 F6000 X158.739 Y123.1
G1 F1200 X154.155 Y118.517 E86.33588
G0 F6000 X154.155 Y119.083
G1 F1200 X158.739 Y123.666 E86.55147
G0 F6000 X158.739 Y124.232
G1 F1200 X154.155 Y119.648 E86.76709
G0 F6000 X154.155 Y120.214
G1 F1200 X158.739 Y124.797 E86.98268
G0 F6000 X158.739 Y125.363
G1 F1200 X154.155 Y120.78 E87.19827
G0 F6000 X154.155 Y121.345
G1 F1200 X158.739 Y125.929 E87.41389
G0 F6000 X158.739 Y126.495
G1 F1200 X154.155 Y121.911 E87.62951
G0 F6000 X154.155 Y122.477
G1 F1200 X158.739 Y127.06 E87.8451
G0 F6000 X158.739 Y127.626
G1 F1200 X154.155 Y123.042 E88.06072
G0 F6000 X154.154 Y123.607
G1 F1200 X158.739 Y128.192 E88.27638
G0 F6000 X158.739 Y128.757
G1 F1200 X154.154 Y124.173 E88.49202
G0 F6000 X154.154 Y124.739
G1 F1200 X158.739 Y129.323 E88.70767
G0 F6000 X158.739 Y129.889
G1 F1200 X154.154 Y125.304 E88.92333
G0 F6000 X154.154 Y125.87
G1 F1200 X158.739 Y130.454 E89.13897
G0 F6000 X158.739 Y131.02
G1 F1200 X154.154 Y126.436 E89.35461
G0 F6000 X154.154 Y127.002
G1 F1200 X158.739 Y131.586 E89.57025
G0 F6000 X158.739 Y132.151
G1 F1200 X154.154 Y127.567 E89.78589
G0 F6000 X154.154 Y128.133
G1 F1200 X158.739 Y132.717 E90.00153
G0 F6000 X158.739 Y133.283
G1 F1200 X154.154 Y128.699 E90.21717
G0 F6000 X154.154 Y129.264
G1 F1200 X158.739 Y133.848 E90.43282
G0 F6000 X158.739 Y134.414
G1 F1200 X154.154 Y129.83 E90.64846
G0 F6000 X154.154 Y130.396
G1 F1200 X158.739 Y134.98 E90.8641
G0 F6000 X158.739 Y135.546
G1 F1200 X154.154 Y130.961 E91.07976
G0 F6000 X154.154 Y131.526
G1 F1200 X158.739 Y136.111 E91.29543
G0 F6000 X158.739 Y136.677
G1 F1200 X154.154 Y132.092 E91.51109
G0 F6000 X154.154 Y132.658
G1 F1200 X158.739 Y137.243 E91.72675
G0 F6000 X158.739 Y137.808
G1 F1200 X154.154 Y133.223 E91.94242
G0 F6000 X154.154 Y133.789
G1 F1200 X158.739 Y138.374 E92.15808
G0 F6000 X158.739 Y138.94
G1 F1200 X154.154 Y134.355 E92.37375
G0 F6000 X154.154 Y134.92
G1 F1200 X158.739 Y139.505 E92.58941
G0 F6000 X158.739 Y140.071
G1 F1200 X154.154 Y135.486 E92.80508
G0 F6000 X154.154 Y136.052
G1 F1200 X158.739 Y140.637 E93.02074
G0 F6000 X158.739 Y141.202
G1 F1200 X154.154 Y136.617 E93.2364
G0 F6000 X154.154 Y137.183
G1 F1200 X158.739 Y141.768 E93.45207
G0 F6000 X158.739 Y142.334
G1 F1200 X154.154 Y137.749 E93.66773
G0 F6000 X154.154 Y138.315
G1 F1200 X158.739 Y142.899 E93.88337
G0 F6000 X158.739 Y143.465
G1 F1200 X154.154 Y138.88 E94.09904
G0 F6000 X153.992 Y139.284
G1 F1200 X158.739 Y144.031 E94.32232
G0 F6000 X158.739 Y144.596
G1 F1200 X153.736 Y139.594 E94.55763
G0 F6000 X153.371 Y139.795
G1 F1200 X158.739 Y145.162 E94.8101
G0 F6000 X158.739 Y145.728
G1 F1200 X152.865 Y139.855 E95.08637
G0 F6000 X152.3 Y139.855
G1 F1200 X158.739 Y146.294 E95.38924
G0 F6000 X158.695 Y146.815
G1 F1200 X151.734 Y139.855 E95.71664
G0 F6000 X151.168 Y139.855
G1 F1200 X158.408 Y147.094 E96.05716
G0 F6000 X157.887 Y147.139
G1 F1200 X150.603 Y139.855 E96.39978
G0 F6000 X150.037 Y139.855
G1 F1200 X157.322 Y147.139 E96.74242
G0 F6000 X156.756 Y147.139
G1 F1200 X149.471 Y139.855 E97.08506
G0 F6000 X148.906 Y139.855
G1 F1200 X156.19 Y147.139 E97.42768
G0 F6000 X155.625 Y147.139
G1 F1200 X148.34 Y139.855 E97.77032
G0 F6000 X147.774 Y139.855
G1 F1200 X155.059 Y147.139 E98.11296
G0 F6000 X154.493 Y147.139
G1 F1200 X147.209 Y139.855 E98.45558
G0 F6000 X146.643 Y139.855
G1 F1200 X153.927 Y147.139 E98.79819
G0 F6000 X153.362 Y147.139
G1 F1200 X146.077 Y139.855 E99.14083
G0 F6000 X145.511 Y139.855
G1 F1200 X152.796 Y147.139 E99.48347
G0 F6000 X152.23 Y147.139
G1 F1200 X144.946 Y139.855 E99.82609
G0 F6000 X144.38 Y139.855
G1 F1200 X151.665 Y147.139 E100.16873
G0 F6000 X151.099 Y147.139
G1 F1200 X143.814 Y139.855 E100.51137
G0 F6000 X143.249 Y139.855
G1 F1200 X150.533 Y147.139 E100.85399
G0 F6000 X149.968 Y147.139
G1 F1200 X142.683 Y139.855 E101.19663
G0 F6000 X142.117 Y139.855
G1 F1200 X149.402 Y147.139 E101.53927
G0 F6000 X148.836 Y147.139
G1 F1200 X141.552 Y139.855 E101.88189
G0 F6000 X140.986 Y139.855
G1 F1200 X148.271 Y147.139 E102.22453
G0 F6000 X147.705 Y147.139
G1 F1200 X140.42 Y139.855 E102.56717
G0 F6000 X139.855 Y139.855
G1 F1200 X147.139 Y147.139 E102.90979
G0 F6000 X146.574 Y147.139
G1 F1200 X139.289 Y139.855 E103.25243
G0 F6000 X138.723 Y139.855
G1 F1200 X146.008 Y147.139 E103.59507
G0 F6000 X145.442 Y147.139
G1 F1200 X138.158 Y139.855 E103.93768
G0 F6000 X137.592 Y139.855
G1 F1200 X144.876 Y147.139 E104.2803
G0 F6000 X144.311 Y147.139
G1 F1200 X137.026 Y139.855 E104.62294
G0 F6000 X136.461 Y139.855
G1 F1200 X143.745 Y147.139 E104.96556
G0 F6000 X143.179 Y147.139
G1 F1200 X135.895 Y139.855 E105.30818
G0 F6000 X135.329 Y139.855
G1 F1200 X142.614 Y147.139 E105.65082
G0 F6000 X142.048 Y147.139
G1 F1200 X134.763 Y139.855 E105.99346
G0 F6000 X134.198 Y139.855
G1 F1200 X141.482 Y147.139 E106.33607
G0 F6000 X140.917 Y147.139
G1 F1200 X133.632 Y139.855 E106.67871
G0 F6000 X133.066 Y139.855
G1 F1200 X140.351 Y147.139 E107.02135
G0 F6000 X139.785 Y147.139
G1 F1200 X132.501 Y139.855 E107.36397
G0 F6000 X131.935 Y139.855
G1 F1200 X139.22 Y147.139 E107.70661
G0 F6000 X138.654 Y147.139
G1 F1200 X131.369 Y139.855 E108.04925
G0 F6000 X130.804 Y139.855
G1 F1200 X138.088 Y147.139 E108.39187
G0 F6000 X137.523 Y147.139
G1 F1200 X130.238 Y139.855 E108.73451
G0 F6000 X129.672 Y139.855
G1 F1200 X136.957 Y147.139 E109.07715
G0 F6000 X136.391 Y147.139
G1 F1200 X129.107 Y139.855 E109.41977
G0 F6000 X128.541 Y139.855
G1 F1200 X135.826 Y147.139 E109.76241
G0 F6000 X135.26 Y147.139
G1 F1200 X127.975 Y139.855 E110.10505
G0 F6000 X127.41 Y139.855
G1 F1200 X134.694 Y147.139 E110.44767
G0 F6000 X134.128 Y147.139
G1 F1200 X126.844 Y139.855 E110.79028
G0 F6000 X126.278 Y139.855
G1 F1200 X133.563 Y147.139 E111.13292
G0 F6000 X132.997 Y147.139
G1 F1200 X125.712 Y139.855 E111.47556
G0 F6000 X125.147 Y139.855
G1 F1200 X132.431 Y147.139 E111.81818
G0 F6000 X131.866 Y147.139
G1 F1200 X124.581 Y139.855 E112.16082
G0 F6000 X124.015 Y139.855
G1 F1200 X131.3 Y147.139 E112.50346
G0 F6000 X130.734 Y147.139
G1 F1200 X123.45 Y139.855 E112.84608
G0 F6000 X122.884 Y139.855
G1 F1200 X130.169 Y147.139 E113.18872
G0 F6000 X129.603 Y147.139
G1 F1200 X122.318 Y139.855 E113.53136
G0 F6000 X121.753 Y139.855
G1 F1200 X129.037 Y147.139 E113.87398
G0 F6000 X128.472 Y147.139
G1 F1200 X121.187 Y139.855 E114.21662
G0 F6000 X120.621 Y139.855
G1 F1200 X127.906 Y147.139 E114.55926
G0 F6000 X127.34 Y147.139
G1 F1200 X120.056 Y139.855 E114.90188
G0 F6000 X119.49 Y139.855
G1 F1200 X126.775 Y147.139 E115.24452
G0 F6000 X126.209 Y147.139
G1 F1200 X118.924 Y139.855 E115.58716
G0 F6000 X118.359 Y139.855
G1 F1200 X125.642 Y147.139 E115.92975
G0 F6000 X125.077 Y147.139
