;FLAVOR:Marlin
;TIME:11628
;Filament used: 7.87941m
;Layer height: 0.2
;MINX:59.3
;MINY:71.9
;MINZ:0.2
;MAXX:160.7
;MAXY:148.1
;MAXZ:25.6
;Generated with Cura_SteamEngine 5.2.2
M82 ;absolute extrusion mode
; Ender 3 Custom Start G-code
G92 E0 ; Reset Extruder
G28 ; Home all axes
M104 S175 ; Start heating up the nozzle most of the way
M190 S65 ; Start heating the bed, wait until target temperature reached
M109 S195 ; Finish heating the nozzle
G1 Z2.0 F3000 ; Move Z Axis up little to prevent scratching of Heat Bed
G1 X0.1 Y20 Z0.3 F5000.0 ; Move to start position
G1 X0.1 Y200.0 Z0.3 F1500.0 E15 ; Draw the first line
G1 X0.4 Y200.0 Z0.3 F5000.0 ; Move to side a little
G1 X0.4 Y20 Z0.3 F1500.0 E30 ; Draw the second line
G92 E0 ; Reset Extruder
G1 Z2.0 F3000 ; Move Z Axis up little to prevent scratching of Heat Bed
G1 X5 Y20 Z0.3 F5000.0 ; Move over to prevent blob squish
G92 E0
G92 E0
G1 F1500 E-6.5
;LAYER_COUNT:127
;LAYER:0
M107
G1 F300 Z0.4
;MESH:inky-statuspanel.stl
G0 F6000 X66.913 Y136.894 Z0.4
;TYPE:WALL-INNER
G1 F300 Z0.2
G1 F1500 E0
G1 F1200 X66.731 Y136.837 E0.00634
G1 X66.544 Y136.692 E0.01421
G1 X66.4 Y136.413 E0.02466
G1 X66.4 Y81.3 E1.85772
G1 X66.456 Y81.045 E1.86641
G1 X66.598 Y80.853 E1.87435
G1 X66.923 Y80.7 E1.8863
G1 X154.091 Y80.7 E4.78552
G1 X154.317 Y80.789 E4.79359
G1 X154.48 Y80.939 E4.80096
G1 X154.6 Y81.197 E4.81043
G1 X154.6 Y136.401 E6.64652
G1 X154.532 Y136.58 E6.65289
G1 X154.365 Y136.777 E6.66148
G1 X154.059 Y136.9 E6.67245
G1 X66.913 Y136.894 E9.57093
G0 F6000 X66.878 Y136.459
;TYPE:WALL-OUTER
G1 F1200 X66.802 Y136.335 E9.57577
G1 X66.8 Y81.3 E11.40624
G1 X66.84 Y81.179 E11.41048
G1 X66.965 Y81.102 E11.41536
G1 X154.04 Y81.103 E14.31149
G1 X154.16 Y81.179 E14.31621
G1 X154.196 Y81.255 E14.31901
G1 X154.195 Y136.349 E16.15145
G1 X154.122 Y136.459 E16.15584
G1 X154.044 Y136.5 E16.15877
G1 X66.941 Y136.492 E19.05582
G1 X66.878 Y136.459 E19.05819
G1 F1500 E12.55819
G1 F300 Z0.4
G0 F6000 X60.7 Y147.7 Z0.4
;TYPE:WALL-INNER
G1 F300 Z0.2
G1 F1500 E19.05819
G1 F1200 X160.3 Y147.7 E22.3709
G1 X160.3 Y73.356 E24.84359
G1 X160.22 Y72.94 E24.85768
G1 X159.997 Y72.603 E24.87112
G1 X159.66 Y72.381 E24.88454
G1 X159.241 Y72.3 E24.89874
G1 X61.759 Y72.3 E28.141
G1 X61.34 Y72.38 E28.15519
G1 X61.003 Y72.603 E28.16863
G1 X60.78 Y72.94 E28.18207
G1 X60.7 Y73.359 E28.19626
G1 X60.7 Y147.7 E30.66885
G0 F6000 X60.3 Y148.1
;TYPE:WALL-OUTER
G1 F1200 X160.7 Y148.1 E34.00817
G1 X160.7 Y73.318 E36.49543
G1 X160.598 Y72.786 E36.51344
G1 X160.286 Y72.314 E36.53226
G1 X159.814 Y72.003 E36.55106
G1 X159.279 Y71.9 E36.56918
G1 X61.721 Y71.9 E39.81398
G1 X61.186 Y72.002 E39.83209
G1 X60.714 Y72.314 E39.85091
G1 X60.402 Y72.786 E39.86973
G1 X60.3 Y73.321 E39.88784
G1 X60.3 Y148.1 E42.375
G0 F6000 X61.06 Y147.34
;TYPE:SKIN
G1 F1200 X159.94 Y147.34 E45.66376
G1 X159.94 Y73.39 E48.12335
G1 X159.879 Y73.078 E48.13392
G1 X159.737 Y72.864 E48.14247
G1 X159.524 Y72.722 E48.15098
G1 X159.204 Y72.66 E48.16182
G1 X61.795 Y72.66 E51.40166
G1 X61.476 Y72.721 E51.41246
G1 X61.263 Y72.863 E51.42098
G1 X61.121 Y73.075 E51.42946
G1 X61.06 Y73.395 E51.4403
G1 X61.06 Y147.34 E53.89972
G1 F1500 E47.39972
G1 F300 Z0.4
G0 F6000 X66.881 Y137.256 Z0.4
G1 F300 Z0.2
G1 F1500 E53.89972
G1 F1200 X66.685 Y137.206 E53.90645
G1 X66.413 Y137.062 E53.91668
G1 X66.149 Y136.755 E53.93015
G1 X66.042 Y136.463 E53.94049
G1 X66.04 Y136.428 E53.94166
G1 X66.04 Y81.128 E55.78094
G1 X66.228 Y80.726 E55.7957
G1 X66.497 Y80.479 E55.80785
G1 X66.859 Y80.342 E55.82072
G1 X154.034 Y80.343 E58.72018
G1 X154.365 Y80.406 E58.73138
G1 X154.64 Y80.584 E58.74228
G1 X154.847 Y80.852 E58.75354
G1 X154.96 Y81.149 E58.76411
G1 X154.958 Y136.463 E60.60386
G1 X154.851 Y136.755 E60.61421
G1 X154.587 Y137.062 E60.62767
G1 X154.315 Y137.206 E60.63791
G1 X154.107 Y137.258 E60.64504
G1 X66.881 Y137.256 E63.54619
G1 F1500 E57.04619
G1 F300 Z0.4
G0 F6000 X61.721 Y147.139 Z0.4
G1 F300 Z0.2
G1 F1500 E63.54619
G1 F1200 X61.259 Y146.677 E63.56792
G0 F6000 X61.259 Y146.112
G1 F1200 X62.286 Y147.139 E63.61623
G0 F6000 X62.852 Y147.139
G1 F1200 X61.259 Y145.546 E63.69116
G0 F6000 X61.259 Y144.98
G1 F1200 X63.418 Y147.139 E63.79271
G0 F6000 X63.983 Y147.139
G1 F1200 X61.259 Y144.415 E63.92084
G0 F6000 X61.259 Y143.849
G1 F1200 X64.549 Y147.139 E64.07559
G0 F6000 X65.115 Y147.139
G1 F1200 X61.259 Y143.283 E64.25696
G0 F6000 X61.259 Y142.718
G1 F1200 X65.681 Y147.139 E64.46494
G0 F6000 X66.246 Y147.139
G1 F1200 X61.259 Y142.152 E64.69951
G0 F6000 X61.259 Y141.586
G1 F1200 X66.812 Y147.139 E64.96071
G0 F6000 X67.378 Y147.139
G1 F1200 X61.259 Y141.021 E65.2485
G0 F6000 X61.259 Y140.455
G1 F1200 X67.943 Y147.139 E65.5629
G0 F6000 X68.509 Y147.139
G1 F1200 X61.259 Y139.889 E65.90391
G0 F6000 X61.259 Y139.324
G1 F1200 X69.075 Y147.139 E66.27153
G0 F6000 X69.64 Y147.139
G1 F1200 X61.259 Y138.758 E66.66575
G0 F6000 X61.259 Y138.192
G1 F1200 X70.206 Y147.139 E67.08659
G0 F6000 X70.772 Y147.139
G1 F1200 X61.259 Y137.627 E67.53403
G0 F6000 X61.259 Y137.061
G1 F1200 X71.337 Y147.139 E68.00806
G0 F6000 X71.903 Y147.139
G1 F1200 X61.259 Y136.495 E68.50873
G0 F6000 X61.259 Y135.929
G1 F1200 X72.469 Y147.139 E69.03601
G0 F6000 X73.034 Y147.139
G1 F1200 X61.259 Y135.364 E69.58987
G0 F6000 X61.259 Y134.798
G1 F1200 X73.6 Y147.139 E70.17035
G0 F6000 X74.166 Y147.139
G1 F1200 X61.259 Y134.232 E70.77746
G0 F6000 X61.259 Y133.667
G1 F1200 X74.731 Y147.139 E71.41114
G0 F6000 X75.297 Y147.139
G1 F1200 X61.259 Y133.101 E72.07144
G0 F6000 X61.259 Y132.535
G1 F1200 X75.863 Y147.139 E72.75837
G0 F6000 X76.429 Y147.139
G1 F1200 X66.701 Y137.412 E73.21592
G0 F6000 X67.31 Y137.455
G1 F1200 X76.994 Y147.139 E73.67143
G0 F6000 X77.56 Y147.139
G1 F1200 X67.876 Y137.455 E74.12693
G0 F6000 X68.442 Y137.455
G1 F1200 X78.126 Y147.139 E74.58244
G0 F6000 X78.691 Y147.139
G1 F1200 X69.007 Y137.455 E75.03795
G0 F6000 X69.573 Y137.455
G1 F1200 X79.257 Y147.139 E75.49345
G0 F6000 X79.823 Y147.139
G1 F1200 X70.139 Y137.455 E75.94896
G0 F6000 X70.705 Y137.455
G1 F1200 X80.388 Y147.139 E76.40444
G0 F6000 X80.954 Y147.139
G1 F1200 X71.27 Y137.455 E76.85995
G0 F6000 X71.836 Y137.455
G1 F1200 X81.52 Y147.139 E77.31545
G0 F6000 X82.085 Y147.139
G1 F1200 X72.402 Y137.455 E77.77093
G0 F6000 X72.967 Y137.455
G1 F1200 X82.651 Y147.139 E78.22644
G0 F6000 X83.217 Y147.139
G1 F1200 X73.533 Y137.455 E78.68194
G0 F6000 X74.099 Y137.455
G1 F1200 X83.782 Y147.139 E79.13743
G0 F6000 X84.348 Y147.139
G1 F1200 X74.664 Y137.455 E79.59293
G0 F6000 X75.23 Y137.455
G1 F1200 X84.914 Y147.139 E80.04844
G0 F6000 X85.48 Y147.139
G1 F1200 X75.796 Y137.455 E80.50394
G0 F6000 X76.361 Y137.455
G1 F1200 X86.045 Y147.139 E80.95945
G0 F6000 X86.611 Y147.139
G1 F1200 X76.927 Y137.455 E81.41495
G0 F6000 X77.493 Y137.455
G1 F1200 X87.177 Y147.139 E81.87046
G0 F6000 X87.742 Y147.139
G1 F1200 X78.058 Y137.455 E82.32597
G0 F6000 X78.624 Y137.455
G1 F1200 X88.308 Y147.139 E82.78147
G0 F6000 X88.874 Y147.139
G1 F1200 X79.19 Y137.455 E83.23698
G0 F6000 X79.755 Y137.455
G1 F1200 X89.439 Y147.139 E83.69248
G0 F6000 X90.005 Y147.139
G1 F1200 X80.321 Y137.455 E84.14799
G0 F6000 X80.887 Y137.455
G1 F1200 X90.571 Y147.139 E84.60349
G0 F6000 X91.136 Y147.139
G1 F1200 X81.453 Y137.455 E85.05898
G0 F6000 X82.018 Y137.455
G1 F1200 X91.702 Y147.139 E85.51448
G0 F6000 X92.268 Y147.139
G1 F1200 X82.584 Y137.455 E85.96999
G0 F6000 X83.15 Y137.455
G1 F1200 X92.833 Y147.139 E86.42547
G0 F6000 X93.399 Y147.139
G1 F1200 X83.715 Y137.455 E86.88098
G0 F6000 X84.281 Y137.455
G1 F1200 X93.965 Y147.139 E87.33648
G0 F6000 X94.53 Y147.139
G1 F1200 X84.847 Y137.455 E87.79196
G0 F6000 X85.412 Y137.455
G1 F1200 X95.096 Y147.139 E88.24747
G0 F6000 X95.662 Y147.139
G1 F1200 X85.978 Y137.455 E88.70298
G0 F6000 X86.544 Y137.455
G1 F1200 X96.228 Y147.139 E89.15848
G0 F6000 X96.793 Y147.139
G1 F1200 X87.109 Y137.455 E89.61399
G0 F6000 X87.675 Y137.455
G1 F1200 X97.359 Y147.139 E90.06949
G0 F6000 X97.925 Y147.139
G1 F1200 X88.241 Y137.455 E90.525
G0 F6000 X88.806 Y137.455
G1 F1200 X98.49 Y147.139 E90.9805
G0 F6000 X99.056 Y147.139
G1 F1200 X89.372 Y137.455 E91.43601
G0 F6000 X89.938 Y137.455
G1 F1200 X99.622 Y147.139 E91.89151
G0 F6000 X100.187 Y147.139
G1 F1200 X90.504 Y137.455 E92.347
G0 F6000 X91.069 Y137.455
G1 F1200 X100.753 Y147.139 E92.8025
G0 F6000 X101.319 Y147.139
G1 F1200 X91.635 Y137.455 E93.25801
G0 F6000 X92.201 Y137.455
G1 F1200 X101.884 Y147.139 E93.71349
G0 F6000 X102.45 Y147.139
G1 F1200 X92.766 Y137.455 E94.169
G0 F6000 X93.332 Y137.455
G1 F1200 X103.016 Y147.139 E94.6245
G0 F6000 X103.581 Y147.139
G1 F1200 X93.898 Y137.455 E95.07998
G0 F6000 X94.463 Y137.455
G1 F1200 X104.147 Y147.139 E95.53549
G0 F6000 X104.713 Y147.139
G1 F1200 X95.029 Y137.455 E95.991
G0 F6000 X95.595 Y137.455
G1 F1200 X105.279 Y147.139 E96.4465
G0 F6000 X105.844 Y147.139
G1 F1200 X96.16 Y137.455 E96.90201
G0 F6000 X96.726 Y137.455
G1 F1200 X106.41 Y147.139 E97.35751
G0 F6000 X106.976 Y147.139
G1 F1200 X97.292 Y137.455 E97.81302
G0 F6000 X97.857 Y137.455
G1 F1200 X107.541 Y147.139 E98.26852
G0 F6000 X108.107 Y147.139
G1 F1200 X98.423 Y137.455 E98.72403
G0 F6000 X98.989 Y137.455
G1 F1200 X108.673 Y147.139 E99.17953
G0 F6000 X109.238 Y147.139
G1 F1200 X99.554 Y137.455 E99.63504
G0 F6000 X100.12 Y137.455
G1 F1200 X109.804 Y147.139 E100.09055
G0 F6000 X110.37 Y147.139
G1 F1200 X100.686 Y137.455 E100.54605
G0 F6000 X101.252 Y137.455
G1 F1200 X110.935 Y147.139 E101.00153
G0 F6000 X111.501 Y147.139
G1 F1200 X101.817 Y137.455 E101.45704
G0 F6000 X102.383 Y137.455
G1 F1200 X112.067 Y147.139 E101.91255
G0 F6000 X112.632 Y147.139
G1 F1200 X102.949 Y137.455 E102.36803
G0 F6000 X103.514 Y137.455
G1 F1200 X113.198 Y147.139 E102.82353
G0 F6000 X113.764 Y147.139
G1 F1200 X104.08 Y137.455 E103.27904
G0 F6000 X104.646 Y137.455
G1 F1200 X114.329 Y147.139 E103.73452
G0 F6000 X114.895 Y147.139
G1 F1200 X105.211 Y137.455 E104.19003
G0 F6000 X105.777 Y137.455
G1 F1200 X115.461 Y147.139 E104.64553
G0 F6000 X116.027 Y147.139
G1 F1200 X106.343 Y137.455 E105.10104
G0 F6000 X106.908 Y137.455
G1 F1200 X116.592 Y147.139 E105.55654
G0 F6000 X117.158 Y147.139
G1 F1200 X107.474 Y137.455 E106.01205
G0 F6000 X108.04 Y137.455
G1 F1200 X117.724 Y147.139 E106.46756
G0 F6000 X118.289 Y147.139
G1 F1200 X108.605 Y137.455 E106.92306
G0 F6000 X109.171 Y137.455
G1 F1200 X118.855 Y147.139 E107.37857
G0 F6000 X119.421 Y147.139
G1 F1200 X109.737 Y137.455 E107.83407
G0 F6000 X110.303 Y137.455
G1 F1200 X119.986 Y147.139 E108.28955
G0 F6000 X120.552 Y147.139
G1 F1200 X110.868 Y137.455 E108.74506
G0 F6000 X111.434 Y137.455
G1 F1200 X121.118 Y147.139 E109.20057
G0 F6000 X121.683 Y147.139
G1 F1200 X112 Y137.455 E109.65605
G0 F6000 X112.565 Y137.455
G1 F1200 X122.249 Y147.139 E110.11155
G0 F6000 X122.815 Y147.139
G1 F1200 X113.131 Y137.455 E110.56706
G0 F6000 X113.697 Y137.455
G1 F1200 X123.38 Y147.139 E111.02254
G0 F6000 X123.946 Y147.139
G1 F1200 X114.262 Y137.455 E111.47805
G0 F6000 X114.828 Y137.455
G1 F1200 X124.512 Y147.139 E111.93355
G0 F6000 X125.077 Y147.139
G1 F1200 X115.394 Y137.455 E112.38903
G0 F6000 X115.959 Y137.455
G1 F1200 X125.643 Y147.139 E112.84454
G0 F6000 X126.209 Y147.139
G1 F1200 X116.525 Y137.455 E113.30005
G0 F6000 X117.091 Y137.455
G1 F1200 X126.775 Y147.139 E113.75555
G0 F6000 X127.34 Y147.139
G1 F1200 X117.656 Y137.455 E114.21106
G0 F6000 X118.222 Y137.455
G1 F1200 X127.906 Y147.139 E114.66656
G0 F6000 X128.472 Y147.139
G1 F1200 X118.788 Y137.455 E115.12207
G0 F6000 X119.353 Y137.455
G1 F1200 X129.037 Y147.139 E115.57757
G0 F6000 X129.603 Y147.139
G1 F1200 X119.919 Y137.455 E116.03308
G0 F6000 X120.485 Y137.455
G1 F1200 X130.169 Y147.139 E116.48859
G0 F6000 X130.734 Y147.139
G1 F1200 X121.051 Y137.455 E116.94407
G0 F6000 X121.616 Y137.455
G1 F1200 X131.3 Y147.139 E117.39957
G0 F6000 X131.866 Y147.139
G1 F1200 X122.182 Y137.455 E117.85508
G0 F6000 X122.748 Y137.455
G1 F1200 X132.431 Y147.139 E118.31056
G0 F6000 X132.997 Y147.139
G1 F1200 X123.313 Y137.455 E118.76607
G0 F6000 X123.879 Y137.455
G1 F1200 X133.563 Y147.139 E119.22157
G0 F6000 X134.128 Y147.139
G1 F1200 X124.445 Y137.455 E119.67705
G0 F6000 X125.01 Y137.455
G1 F1200 X134.694 Y147.139 E120.13256
G0 F6000 X135.26 Y147.139
G1 F1200 X125.576 Y137.455 E120.58807
G0 F6000 X126.142 Y137.455
G1 F1200 X135.826 Y147.139 E121.04357
G0 F6000 X136.391 Y147.139
G1 F1200 X126.707 Y137.455 E121.49908
G0 F6000 X127.273 Y137.455
G1 F1200 X136.957 Y147.139 E121.95458
G0 F6000 X137.523 Y147.139
G1 F1200 X127.839 Y137.455 E122.41009
G0 F6000 X128.404 Y137.455
G1 F1200 X138.088 Y147.139 E122.86559
G0 F6000 X138.654 Y147.139
G1 F1200 X128.97 Y137.455 E123.3211
G0 F6000 X129.536 Y137.455
G1 F1200 X139.22 Y147.139 E123.77661
G0 F6000 X139.785 Y147.139
G1 F1200 X130.101 Y137.455 E124.23211
G0 F6000 X130.667 Y137.455
G1 F1200 X140.351 Y147.139 E124.68762
G0 F6000 X140.917 Y147.139
G1 F1200 X131.233 Y137.455 E125.14312
G0 F6000 X131.799 Y137.455
G1 F1200 X141.482 Y147.139 E125.59861
G0 F6000 X142.048 Y147.139
G1 F1200 X132.364 Y137.455 E126.05411
G0 F6000 X132.93 Y137.455
G1 F1200 X142.614 Y147.139 E126.50962
G0 F6000 X143.179 Y147.139
G1 F1200 X133.496 Y137.455 E126.9651
G0 F6000 X134.061 Y137.455
G1 F1200 X143.745 Y147.139 E127.4206
G0 F6000 X144.311 Y147.139
G1 F1200 X134.627 Y137.455 E127.87611
G0 F6000 X135.193 Y137.455
G1 F1200 X144.876 Y147.139 E128.33159
G0 F6000 X145.442 Y147.139
G1 F1200 X135.758 Y137.455 E128.7871
G0 F6000 X136.324 Y137.455
G1 F1200 X146.008 Y147.139 E129.2426
G0 F6000 X146.574 Y147.139
G1 F1200 X136.89 Y137.455 E129.69811
G0 F6000 X137.455 Y137.455
G1 F1200 X147.139 Y147.139 E130.15361
G0 F6000 X147.705 Y147.139
G1 F1200 X138.021 Y137.455 E130.60912
G0 F6000 X138.587 Y137.455
G1 F1200 X148.271 Y147.139 E131.06463
G0 F6000 X148.836 Y147.139
G1 F1200 X139.152 Y137.455 E131.52013
G0 F6000 X139.718 Y137.455
G1 F1200 X149.402 Y147.139 E131.97564
G0 F6000 X149.968 Y147.139
G1 F1200 X140.284 Y137.455 E132.43114
G0 F6000 X140.85 Y137.455
G1 F1200 X150.533 Y147.139 E132.88663
G0 F6000 X151.099 Y147.139
G1 F1200 X141.415 Y137.455 E133.34213
G0 F6000 X141.981 Y137.455
G1 F1200 X151.665 Y147.139 E133.79764
G0 F6000 X152.23 Y147.139
G1 F1200 X142.547 Y137.455 E134.25312
G0 F6000 X143.112 Y137.455
G1 F1200 X152.796 Y147.139 E134.70862
G0 F6000 X153.362 Y147.139
G1 F1200 X143.678 Y137.455 E135.16413
G0 F6000 X144.244 Y137.455
G1 F1200 X153.927 Y147.139 E135.61961
G0 F6000 X154.493 Y147.139
G1 F1200 X144.809 Y137.455 E136.07512
G0 F6000 X145.375 Y137.455
G1 F1200 X155.059 Y147.139 E136.53062
G0 F6000 X155.625 Y147.139
G1 F1200 X145.941 Y137.455 E136.98613
G0 F6000 X146.506 Y137.455
G1 F1200 X156.19 Y147.139 E137.44163
G0 F6000 X156.756 Y147.139
G1 F1200 X147.072 Y137.455 E137.89714
G0 F6000 X147.638 Y137.455
G1 F1200 X157.322 Y147.139 E138.35265
G0 F6000 X157.887 Y147.139
G1 F1200 X148.203 Y137.455 E138.80815
G0 F6000 X148.769 Y137.455
G1 F1200 X158.453 Y147.139 E139.26366
G0 F6000 X159.019 Y147.139
G1 F1200 X149.335 Y137.455 E139.71916
G0 F6000 X149.9 Y137.455
G1 F1200 X159.584 Y147.139 E140.17467
G0 F6000 X159.739 Y146.728
G1 F1200 X150.466 Y137.455 E140.61084
G0 F6000 X151.032 Y137.455
G1 F1200 X159.739 Y146.163 E141.02042
G0 F6000 X159.739 Y145.597
G1 F1200 X151.598 Y137.455 E141.40337
G0 F6000 X152.163 Y137.455
G1 F1200 X159.739 Y145.031 E141.75972
G0 F6000 X159.739 Y144.466
G1 F1200 X152.729 Y137.455 E142.08947
G0 F6000 X153.295 Y137.455
G1 F1200 X159.739 Y143.9 E142.3926
G0 F6000 X159.739 Y143.334
G1 F1200 X153.86 Y137.455 E142.66913
G0 F6000 X154.365 Y137.395
G1 F1200 X159.739 Y142.769 E142.92191
G0 F6000 X159.739 Y142.203
G1 F1200 X154.736 Y137.2 E143.15723
G0 F6000 X154.994 Y136.893
G1 F1200 X159.739 Y141.637 E143.3804
G0 F6000 X159.739 Y141.072
G1 F1200 X155.154 Y136.486 E143.59609
G0 F6000 X155.154 Y135.92
G1 F1200 X159.739 Y140.506 E143.81178
G0 F6000 X159.739 Y139.94
G1 F1200 X155.154 Y135.355 E144.02744
G0 F6000 X155.154 Y134.789
G1 F1200 X159.739 Y139.374 E144.24311
G0 F6000 X159.739 Y138.809
G1 F1200 X155.154 Y134.223 E144.45879
G0 F6000 X155.154 Y133.658
G1 F1200 X159.739 Y138.243 E144.67446
G0 F6000 X159.739 Y137.677
G1 F1200 X155.154 Y133.092 E144.89012
