;FLAVOR:Marlin
;TIME:11708
;Filament used: 7.92108m
;Layer height: 0.2
;MINX:59.35
;MINY:75.806
;MINZ:0.2
;MAXX:160.77
;MAXY:152.006
;MAXZ:25.6
;Generated with Cura_SteamEngine 5.2.2
M82 ;absolute extrusion mode
; Ender 3 Custom Start G-code
G92 E0 ; Reset Extruder
G28 ; Home all axes
M104 S175 ; Start heating up the nozzle most of the way
M190 S65.0 ; Start heating the bed, wait until target temperature reached
M109 S195 ; Finish heating the nozzle
G1 Z2.0 F3000 ; Move Z Axis up little to prevent scratching of Heat Bed
G1 X0.1 Y20 Z0.3 F5000.0 ; Move to start position
G1 X0.1 Y200.0 Z0.3 F1500.0 E15 ; Draw the first line
G1 X0.4 Y200.0 Z0.3 F5000.0 ; Move to side a little
G1 X0.4 Y20 Z0.3 F1500.0 E30 ; Draw the second line
G92 E0 ; Reset Extruder
G1 Z2.0 F3000 ; Move Z Axis up little to prevent scratching of Heat Bed
G1 X5 Y20 Z0.3 F5000.0 ; Move over to prevent blob squish
G92 E0
G92 E0
G1 F1500 E-6.5
;LAYER_COUNT:127
;LAYER:0
M107
G1 F300 Z0.4
;MESH:inky-statuspanel.stl
G0 F6000 X153.328 Y143.206 Z0.4
;TYPE:WALL-INNER
G1 F300 Z0.2
G1 F1500 E0
G1 F1200 X66.172 Y143.206 E2.89882
G1 X66.002 Y143.153 E2.90474
G1 X65.836 Y143.042 E2.91138
G1 X65.702 Y142.853 E2.91909
G1 X65.65 Y142.684 E2.92497
G1 X65.65 Y87.606 E4.75687
G1 X65.666 Y87.464 E4.76163
G1 X65.787 Y87.224 E4.77057
G1 X65.966 Y87.077 E4.77827
G1 X66.169 Y87.006 E4.78542
G1 X153.329 Y87.006 E7.68438
G1 X153.534 Y87.076 E7.69158
G1 X153.713 Y87.223 E7.69928
G1 X153.85 Y87.496 E7.70944
G1 X153.85 Y142.684 E9.545
G1 X153.798 Y142.853 E9.55089
G1 X153.664 Y143.042 E9.55859
G1 X153.498 Y143.153 E9.56523
G1 X153.328 Y143.206 E9.57116
G0 F6000 X153.388 Y142.752
;TYPE:WALL-OUTER
G1 F1200 X153.285 Y142.804 E9.57499
G1 X66.215 Y142.804 E12.47095
G1 X66.112 Y142.752 E12.47479
G1 X66.052 Y142.641 E12.47899
G1 X66.05 Y87.606 E14.30946
G1 X66.095 Y87.478 E14.31397
G1 X66.215 Y87.408 E14.31859
G1 X153.285 Y87.409 E17.21455
G1 X153.405 Y87.478 E17.21916
G1 X153.445 Y87.558 E17.22213
G1 X153.448 Y142.641 E19.0542
G1 X153.388 Y142.752 E19.0584
G1 F1500 E12.5584
G1 F300 Z0.4
G0 F6000 X158.691 Y151.606 Z0.4
;TYPE:WALL-INNER
G1 F300 Z0.2
G1 F1500 E19.0584
G1 F1200 X159.111 Y151.524 E19.07263
G1 X159.447 Y151.303 E19.086
G1 X159.669 Y150.966 E19.09943
G1 X159.75 Y150.547 E19.11362
G1 X159.75 Y76.206 E21.58621
G1 X59.75 Y76.206 E24.91223
G1 X59.751 Y150.55 E27.38492
G1 X59.83 Y150.966 E27.399
G1 X60.052 Y151.303 E27.41242
G1 X60.389 Y151.524 E27.42583
G1 X60.81 Y151.606 E27.44009
G1 X158.691 Y151.606 E30.69563
G0 F6000 X159.264 Y151.902
;TYPE:WALL-OUTER
G1 F1200 X159.736 Y151.592 E30.71441
G1 X160.047 Y151.12 E30.73321
G1 X160.15 Y150.585 E30.75133
G1 X160.15 Y75.806 E33.23849
G1 X59.35 Y75.806 E36.59111
G1 X59.351 Y150.588 E39.07837
G1 X59.452 Y151.12 E39.09638
G1 X59.764 Y151.592 E39.1152
G1 X60.236 Y151.902 E39.13398
G1 X60.772 Y152.006 E39.15214
G1 X158.729 Y152.006 E42.41021
G1 X159.264 Y151.902 E42.42833
G0 F6000 X158.973 Y151.183
;TYPE:SKIN
G1 F1200 X159.187 Y151.042 E42.43686
G1 X159.328 Y150.83 E42.44533
G1 X159.39 Y150.51 E42.45617
G1 X159.39 Y76.566 E44.91555
G1 X60.111 Y76.567 E48.21759
G1 X60.111 Y150.518 E50.67721
G1 X60.171 Y150.827 E50.68768
G1 X60.313 Y151.042 E50.69625
G1 X60.526 Y151.183 E50.70474
G1 X60.847 Y151.246 E50.71562
G1 X158.655 Y151.245 E53.96873
G1 X158.973 Y151.183 E53.97951
G1 F1500 E47.47951
G1 F300 Z0.4
G0 F6000 X153.378 Y143.564 Z0.4
G1 F300 Z0.2
G1 F1500 E53.97951
G1 F1200 X66.225 Y143.565 E56.87823
G1 X65.94 Y143.516 E56.88784
G1 X65.589 Y143.306 E56.90145
G1 X65.392 Y143.032 E56.91267
G1 X65.292 Y142.753 E56.92253
G1 X65.29 Y87.469 E58.76128
G1 X65.295 Y87.423 E58.76282
G1 X65.5 Y87.001 E58.77843
G1 X65.79 Y86.761 E58.79095
G1 X66.117 Y86.648 E58.80245
G1 X153.386 Y86.649 E61.70503
G1 X153.71 Y86.761 E61.71643
G1 X154 Y87.001 E61.72895
G1 X154.205 Y87.423 E61.74456
G1 X154.208 Y142.756 E63.58494
G1 X154.125 Y143.008 E63.59377
G1 X153.916 Y143.301 E63.60574
G1 X153.648 Y143.482 E63.61649
G1 X153.378 Y143.564 E63.62588
G1 F1500 E57.12588
G1 F300 Z0.4
G0 F6000 X159.189 Y77.165 Z0.4
G1 F300 Z0.2
G1 F1500 E63.62588
G1 F1200 X158.79 Y76.766 E63.64465
G0 F6000 X158.225 Y76.766
G1 F1200 X159.189 Y77.73 E63.68999
G0 F6000 X159.189 Y78.296
G1 F1200 X157.659 Y76.766 E63.76196
G0 F6000 X157.093 Y76.766
G1 F1200 X159.189 Y78.862 E63.86055
G0 F6000 X159.189 Y79.427
G1 F1200 X156.527 Y76.766 E63.98573
G0 F6000 X155.962 Y76.766
G1 F1200 X159.189 Y79.993 E64.13752
G0 F6000 X159.189 Y80.559
G1 F1200 X155.396 Y76.766 E64.31593
G0 F6000 X154.83 Y76.766
G1 F1200 X159.189 Y81.124 E64.52094
G0 F6000 X159.189 Y81.69
G1 F1200 X154.265 Y76.766 E64.75255
G0 F6000 X153.699 Y76.766
G1 F1200 X159.189 Y82.256 E65.01079
G0 F6000 X159.189 Y82.822
G1 F1200 X153.133 Y76.766 E65.29564
G0 F6000 X152.568 Y76.766
G1 F1200 X159.189 Y83.387 E65.60707
G0 F6000 X159.189 Y83.953
G1 F1200 X152.002 Y76.766 E65.94513
G0 F6000 X151.436 Y76.766
G1 F1200 X159.189 Y84.519 E66.30981
G0 F6000 X159.189 Y85.084
G1 F1200 X150.871 Y76.766 E66.70106
G0 F6000 X150.305 Y76.766
G1 F1200 X159.189 Y85.65 E67.11894
G0 F6000 X159.189 Y86.216
G1 F1200 X149.739 Y76.766 E67.56343
G0 F6000 X149.174 Y76.766
G1 F1200 X159.189 Y86.781 E68.03451
G0 F6000 X159.189 Y87.347
G1 F1200 X148.608 Y76.766 E68.53221
G0 F6000 X148.042 Y76.766
G1 F1200 X159.189 Y87.913 E69.05653
G0 F6000 X159.189 Y88.478
G1 F1200 X147.477 Y76.766 E69.60742
G0 F6000 X146.911 Y76.766
G1 F1200 X159.189 Y89.044 E70.18494
G0 F6000 X159.189 Y89.61
G1 F1200 X146.345 Y76.766 E70.78909
G0 F6000 X145.779 Y76.766
G1 F1200 X159.189 Y90.175 E71.41983
G0 F6000 X159.189 Y90.741
G1 F1200 X145.214 Y76.766 E72.07717
G0 F6000 X144.648 Y76.766
G1 F1200 X159.189 Y91.307 E72.76113
G0 F6000 X159.189 Y91.872
G1 F1200 X144.082 Y76.766 E73.4717
G0 F6000 X143.517 Y76.766
G1 F1200 X153.196 Y86.445 E73.92697
G0 F6000 X152.631 Y86.445
G1 F1200 X142.951 Y76.766 E74.38226
G0 F6000 X142.385 Y76.766
G1 F1200 X152.065 Y86.445 E74.83756
G0 F6000 X151.499 Y86.445
G1 F1200 X141.82 Y76.766 E75.29283
G0 F6000 X141.254 Y76.766
G1 F1200 X150.934 Y86.445 E75.74812
G0 F6000 X150.368 Y86.445
G1 F1200 X140.688 Y76.766 E76.20341
G0 F6000 X140.123 Y76.766
G1 F1200 X149.802 Y86.445 E76.65868
G0 F6000 X149.237 Y86.445
G1 F1200 X139.557 Y76.766 E77.11398
G0 F6000 X138.991 Y76.766
G1 F1200 X148.671 Y86.445 E77.56927
G0 F6000 X148.105 Y86.445
G1 F1200 X138.426 Y76.766 E78.02454
G0 F6000 X137.86 Y76.766
G1 F1200 X147.539 Y86.445 E78.47981
G0 F6000 X146.974 Y86.445
G1 F1200 X137.294 Y76.766 E78.93511
G0 F6000 X136.728 Y76.766
G1 F1200 X146.408 Y86.445 E79.3904
G0 F6000 X145.842 Y86.445
G1 F1200 X136.163 Y76.766 E79.84567
G0 F6000 X135.597 Y76.766
G1 F1200 X145.277 Y86.445 E80.30097
G0 F6000 X144.711 Y86.445
G1 F1200 X135.031 Y76.766 E80.75626
G0 F6000 X134.466 Y76.766
G1 F1200 X144.145 Y86.445 E81.21153
G0 F6000 X143.58 Y86.445
G1 F1200 X133.9 Y76.766 E81.66682
G0 F6000 X133.334 Y76.766
G1 F1200 X143.014 Y86.445 E82.12212
G0 F6000 X142.448 Y86.445
G1 F1200 X132.769 Y76.766 E82.57739
G0 F6000 X132.203 Y76.766
G1 F1200 X141.883 Y86.445 E83.03268
G0 F6000 X141.317 Y86.445
G1 F1200 X131.637 Y76.766 E83.48798
G0 F6000 X131.072 Y76.766
G1 F1200 X140.752 Y86.446 E83.94329
G0 F6000 X140.186 Y86.446
G1 F1200 X130.506 Y76.766 E84.39861
G0 F6000 X129.94 Y76.766
G1 F1200 X139.621 Y86.446 E84.85395
G0 F6000 X139.055 Y86.446
G1 F1200 X129.375 Y76.766 E85.30927
G0 F6000 X128.809 Y76.766
G1 F1200 X138.489 Y86.446 E85.76459
G0 F6000 X137.924 Y86.446
G1 F1200 X128.243 Y76.766 E86.21993
G0 F6000 X127.678 Y76.766
G1 F1200 X137.358 Y86.446 E86.67525
G0 F6000 X136.792 Y86.446
G1 F1200 X127.112 Y76.766 E87.13056
G0 F6000 X126.546 Y76.766
G1 F1200 X136.226 Y86.446 E87.58588
G0 F6000 X135.661 Y86.446
G1 F1200 X125.98 Y76.766 E88.04122
G0 F6000 X125.415 Y76.766
G1 F1200 X135.095 Y86.446 E88.49654
G0 F6000 X134.529 Y86.446
G1 F1200 X124.849 Y76.766 E88.95186
G0 F6000 X124.283 Y76.766
G1 F1200 X133.964 Y86.446 E89.4072
G0 F6000 X133.398 Y86.446
G1 F1200 X123.718 Y76.766 E89.86252
G0 F6000 X123.152 Y76.766
G1 F1200 X132.832 Y86.446 E90.31783
G0 F6000 X132.267 Y86.446
G1 F1200 X122.586 Y76.766 E90.77317
G0 F6000 X122.021 Y76.766
G1 F1200 X131.701 Y86.446 E91.22849
G0 F6000 X131.135 Y86.446
G1 F1200 X121.455 Y76.766 E91.68381
G0 F6000 X120.889 Y76.766
G1 F1200 X130.57 Y86.446 E92.13915
G0 F6000 X130.004 Y86.446
G1 F1200 X120.324 Y76.766 E92.59447
G0 F6000 X119.758 Y76.766
G1 F1200 X129.438 Y86.446 E93.04979
G0 F6000 X128.873 Y86.446
G1 F1200 X119.192 Y76.766 E93.50513
G0 F6000 X118.627 Y76.766
G1 F1200 X128.308 Y86.447 E93.96049
G0 F6000 X127.742 Y86.447
G1 F1200 X118.061 Y76.766 E94.41586
G0 F6000 X117.495 Y76.766
G1 F1200 X127.176 Y86.447 E94.87122
G0 F6000 X126.611 Y86.447
G1 F1200 X116.93 Y76.766 E95.32658
G0 F6000 X116.364 Y76.766
G1 F1200 X126.045 Y86.447 E95.78195
G0 F6000 X125.479 Y86.447
G1 F1200 X115.798 Y76.766 E96.23731
G0 F6000 X115.232 Y76.766
G1 F1200 X124.913 Y86.447 E96.69268
G0 F6000 X124.348 Y86.447
G1 F1200 X114.667 Y76.766 E97.14804
G0 F6000 X114.101 Y76.766
G1 F1200 X123.782 Y86.447 E97.60341
G0 F6000 X123.216 Y86.447
G1 F1200 X113.535 Y76.766 E98.05877
G0 F6000 X112.97 Y76.766
G1 F1200 X122.651 Y86.447 E98.51414
G0 F6000 X122.085 Y86.447
G1 F1200 X112.404 Y76.766 E98.9695
G0 F6000 X111.838 Y76.766
G1 F1200 X121.519 Y86.447 E99.42487
G0 F6000 X120.954 Y86.447
G1 F1200 X111.273 Y76.766 E99.88023
G0 F6000 X110.707 Y76.766
G1 F1200 X120.388 Y86.447 E100.33559
G0 F6000 X119.822 Y86.447
G1 F1200 X110.141 Y76.766 E100.79096
G0 F6000 X109.576 Y76.766
G1 F1200 X119.257 Y86.447 E101.24632
G0 F6000 X118.691 Y86.447
G1 F1200 X109.01 Y76.766 E101.70169
G0 F6000 X108.444 Y76.766
G1 F1200 X118.125 Y86.447 E102.15705
G0 F6000 X117.56 Y86.447
G1 F1200 X107.879 Y76.766 E102.61242
G0 F6000 X107.313 Y76.766
G1 F1200 X116.994 Y86.447 E103.06778
G0 F6000 X116.428 Y86.447
G1 F1200 X106.747 Y76.766 E103.52315
G0 F6000 X106.181 Y76.766
G1 F1200 X115.863 Y86.448 E103.97856
G0 F6000 X115.298 Y86.448
G1 F1200 X105.616 Y76.766 E104.43397
G0 F6000 X105.05 Y76.766
G1 F1200 X114.732 Y86.448 E104.88938
G0 F6000 X114.166 Y86.448
G1 F1200 X104.484 Y76.766 E105.34479
G0 F6000 X103.919 Y76.766
G1 F1200 X113.6 Y86.448 E105.80018
G0 F6000 X113.035 Y86.448
G1 F1200 X103.353 Y76.766 E106.25559
G0 F6000 X102.787 Y76.766
G1 F1200 X112.469 Y86.448 E106.711
G0 F6000 X111.903 Y86.448
G1 F1200 X102.222 Y76.766 E107.16639
G0 F6000 X101.656 Y76.766
G1 F1200 X111.338 Y86.448 E107.6218
G0 F6000 X110.772 Y86.448
G1 F1200 X101.09 Y76.766 E108.07722
G0 F6000 X100.525 Y76.766
G1 F1200 X110.206 Y86.448 E108.5326
G0 F6000 X109.641 Y86.448
G1 F1200 X99.959 Y76.766 E108.98802
G0 F6000 X99.393 Y76.766
G1 F1200 X109.075 Y86.448 E109.44343
G0 F6000 X108.509 Y86.448
G1 F1200 X98.828 Y76.766 E109.89882
G0 F6000 X98.262 Y76.766
G1 F1200 X107.944 Y86.448 E110.35423
G0 F6000 X107.378 Y86.448
G1 F1200 X97.696 Y76.766 E110.80964
G0 F6000 X97.131 Y76.766
G1 F1200 X106.812 Y86.448 E111.26503
G0 F6000 X106.247 Y86.448
G1 F1200 X96.565 Y76.766 E111.72044
G0 F6000 X95.999 Y76.766
G1 F1200 X105.681 Y86.448 E112.17585
G0 F6000 X105.115 Y86.448
G1 F1200 X95.433 Y76.766 E112.63126
G0 F6000 X94.868 Y76.766
G1 F1200 X104.549 Y86.448 E113.08665
G0 F6000 X103.984 Y86.448
G1 F1200 X94.302 Y76.766 E113.54206
G0 F6000 X93.736 Y76.766
G1 F1200 X103.419 Y86.448 E113.9975
G0 F6000 X102.853 Y86.448
G1 F1200 X93.171 Y76.766 E114.45291
G0 F6000 X92.605 Y76.766
G1 F1200 X102.287 Y86.448 E114.90832
G0 F6000 X101.722 Y86.448
G1 F1200 X92.039 Y76.766 E115.36375
G0 F6000 X91.474 Y76.766
G1 F1200 X101.156 Y86.448 E115.81917
G0 F6000 X100.59 Y86.448
G1 F1200 X90.908 Y76.766 E116.27458
G0 F6000 X90.342 Y76.766
G1 F1200 X100.025 Y86.448 E116.73001
G0 F6000 X99.459 Y86.448
G1 F1200 X89.777 Y76.766 E117.18542
G0 F6000 X89.211 Y76.766
G1 F1200 X98.893 Y86.448 E117.64084
G0 F6000 X98.328 Y86.448
G1 F1200 X88.645 Y76.766 E118.09627
G0 F6000 X88.08 Y76.766
G1 F1200 X97.762 Y86.448 E118.55168
G0 F6000 X97.196 Y86.448
G1 F1200 X87.514 Y76.766 E119.00709
G0 F6000 X86.948 Y76.766
G1 F1200 X96.631 Y86.448 E119.46253
G0 F6000 X96.065 Y86.448
G1 F1200 X86.382 Y76.766 E119.91796
G0 F6000 X85.817 Y76.766
G1 F1200 X95.499 Y86.448 E120.37338
G0 F6000 X94.934 Y86.448
G1 F1200 X85.251 Y76.766 E120.82881
G0 F6000 X84.685 Y76.766
G1 F1200 X94.368 Y86.448 E121.28425
G0 F6000 X93.802 Y86.448
G1 F1200 X84.12 Y76.766 E121.73966
G0 F6000 X83.554 Y76.766
G1 F1200 X93.236 Y86.448 E122.19507
G0 F6000 X92.671 Y86.448
G1 F1200 X82.988 Y76.766 E122.6505
G0 F6000 X82.423 Y76.766
G1 F1200 X92.105 Y86.448 E123.10592
G0 F6000 X91.539 Y86.448
G1 F1200 X81.857 Y76.766 E123.56133
G0 F6000 X81.291 Y76.766
G1 F1200 X90.974 Y86.449 E124.01679
G0 F6000 X90.409 Y86.449
G1 F1200 X80.726 Y76.766 E124.47224
G0 F6000 X80.16 Y76.766
G1 F1200 X89.843 Y86.449 E124.9277
G0 F6000 X89.277 Y86.449
G1 F1200 X79.594 Y76.766 E125.38316
G0 F6000 X79.029 Y76.766
G1 F1200 X88.712 Y86.449 E125.83862
G0 F6000 X88.146 Y86.449
G1 F1200 X78.463 Y76.766 E126.29408
G0 F6000 X77.897 Y76.766
G1 F1200 X87.58 Y86.449 E126.74954
G0 F6000 X87.015 Y86.449
G1 F1200 X77.332 Y76.766 E127.205
G0 F6000 X76.766 Y76.766
G1 F1200 X86.449 Y86.449 E127.66046
G0 F6000 X85.883 Y86.449
G1 F1200 X76.2 Y76.766 E128.11591
G0 F6000 X75.634 Y76.766
G1 F1200 X85.318 Y86.449 E128.5714
G0 F6000 X84.752 Y86.449
G1 F1200 X75.069 Y76.766 E129.02685
G0 F6000 X74.503 Y76.766
G1 F1200 X84.186 Y86.449 E129.48231
G0 F6000 X83.621 Y86.449
G1 F1200 X73.937 Y76.766 E129.9378
G0 F6000 X73.372 Y76.766
G1 F1200 X83.055 Y86.449 E130.39325
G0 F6000 X82.489 Y86.449
G1 F1200 X72.806 Y76.766 E130.84871
G0 F6000 X72.24 Y76.766
G1 F1200 X81.923 Y86.449 E131.30417
G0 F6000 X81.358 Y86.449
G1 F1200 X71.675 Y76.766 E131.75963
G0 F6000 X71.109 Y76.766
G1 F1200 X80.792 Y86.449 E132.21509
G0 F6000 X80.226 Y86.449
G1 F1200 X70.543 Y76.766 E132.67055
G0 F6000 X69.978 Y76.766
G1 F1200 X79.661 Y86.449 E133.12601
G0 F6000 X79.095 Y86.449
G1 F1200 X69.412 Y76.766 E133.58146
G0 F6000 X68.846 Y76.766
G1 F1200 X78.53 Y86.45 E134.03697
G0 F6000 X77.964 Y86.45
G1 F1200 X68.281 Y76.766 E134.49245
G0 F6000 X67.715 Y76.766
G1 F1200 X77.399 Y86.45 E134.94796
G0 F6000 X76.833 Y86.45
G1 F1200 X67.149 Y76.766 E135.40346
G0 F6000 X66.584 Y76.766
G1 F1200 X76.267 Y86.45 E135.85895
G0 F6000 X75.702 Y86.45
G1 F1200 X66.018 Y76.766 E136.31445
G0 F6000 X65.452 Y76.766
G1 F1200 X75.136 Y86.45 E136.76996
G0 F6000 X74.57 Y86.45
G1 F1200 X64.886 Y76.766 E137.22546
G0 F6000 X64.321 Y76.766
G1 F1200 X74.005 Y86.45 E137.68097
G0 F6000 X73.439 Y86.45
G1 F1200 X63.755 Y76.766 E138.13647
G0 F6000 X63.189 Y76.766
G1 F1200 X72.873 Y86.45 E138.59198
G0 F6000 X72.308 Y86.45
G1 F1200 X62.624 Y76.766 E139.04749
G0 F6000 X62.058 Y76.766
G1 F1200 X71.742 Y86.45 E139.50299
G0 F6000 X71.176 Y86.45
G1 F1200 X61.492 Y76.766 E139.9585
G0 F6000 X60.927 Y76.766
G1 F1200 X70.61 Y86.45 E140.41398
G0 F6000 X70.045 Y86.45
G1 F1200 X60.361 Y76.766 E140.86948
G0 F6000 X60.31 Y77.281
G1 F1200 X69.479 Y86.45 E141.30077
G0 F6000 X68.913 Y86.45
G1 F1200 X60.31 Y77.846 E141.70545
G0 F6000 X60.31 Y78.412
G1 F1200 X68.348 Y86.45 E142.08353
G0 F6000 X67.782 Y86.45
G1 F1200 X60.31 Y78.978 E142.43499
G0 F6000 X60.31 Y79.543
G1 F1200 X67.216 Y86.45 E142.75985
G0 F6000 X66.651 Y86.45
G1 F1200 X60.31 Y80.109 E143.05811
G0 F6000 X60.31 Y80.675
G1 F1200 X66.085 Y86.45 E143.32975
G0 F6000 X65.667 Y86.597
G1 F1200 X60.31 Y81.24 E143.58173
G0 F6000 X60.31 Y81.806
G1 F1200 X65.357 Y86.853 E143.81912
G0 F6000 X65.163 Y87.225
G1 F1200 X60.31 Y82.372 E144.04739
G0 F6000 X60.31 Y82.937
G1 F1200 X65.091 Y87.718 E144.27228
G0 F6000 X65.091 Y88.284
G1 F1200 X60.31 Y83.503 E144.49716
G0 F6000 X60.31 Y84.069
G1 F1200 X65.091 Y88.85 E144.72204
G0 F6000 X65.091 Y89.415
G1 F1200 X60.31 Y84.635 E144.9469
G0 F6000 X60.31 Y85.2
G1 F1200 X65.091 Y89.981 E145.17179
G0 F6000 X65.091 Y90.547
G1 F1200 X60.31 Y85.766 E145.39667
G0 F6000 X60.31 Y86.332
G1 F1200 X65.091 Y91.112 E145.62153
G0 F6000 X65.091 Y91.678
G1 F1200 X60.31 Y86.897 E145.84642
G0 F6000 X60.31 Y87.463
G1 F1200 X65.091 Y92.244 E146.0713
G0 F6000 X65.091 Y92.809
G1 F1200 X60.31 Y88.029 E146.29616
G0 F6000 X60.31 Y88.594
