;FLAVOR:Marlin
;TIME:267
;Filament used: 0.102685m
;Layer height: 0.2
;MINX:106.2
;MINY:102.733
;MINZ:0.2
;MAXX:113.8
;MAXY:120.133
;MAXZ:11
;Generated with Cura_SteamEngine 5.2.2
M82 ;absolute extrusion mode
; Ender 3 Custom Start G-code
G92 E0 ; Reset Extruder
G28 ; Home all axes
M104 S175 ; Start heating up the nozzle most of the way
M190 S65 ; Start heating the bed, wait until target temperature reached
M109 S195 ; Finish heating the nozzle
G1 Z2.0 F3000 ; Move Z Axis up little to prevent scratching of Heat Bed
G1 X0.1 Y20 Z0.3 F5000.0 ; Move to start position
G1 X0.1 Y200.0 Z0.3 F1500.0 E15 ; Draw the first line
G1 X0.4 Y200.0 Z0.3 F5000.0 ; Move to side a little
G1 X0.4 Y20 Z0.3 F1500.0 E30 ; Draw the second line
G92 E0 ; Reset Extruder
G1 Z2.0 F3000 ; Move Z Axis up little to prevent scratching of Heat Bed
G1 X5 Y20 Z0.3 F5000.0 ; Move over to prevent blob squish
G92 E0
G92 E0
G1 F1500 E-6.5
;LAYER_COUNT:54
;LAYER:0
M107
G1 F300 Z0.4
;MESH:light-pipe-bracket.stl
G0 F6000 X106.6 Y119.733 Z0.4
;TYPE:WALL-INNER
G1 F300 Z0.2
G1 F1500 E0
G1 F1200 X113.4 Y119.733 E0.22617
G1 X113.4 Y103.133 E0.77829
G1 X106.6 Y103.133 E1.00446
G1 X106.6 Y119.733 E1.55657
G0 F6000 X106.2 Y120.133
;TYPE:WALL-OUTER
G1 F1200 X113.8 Y120.133 E1.80935
G1 X113.8 Y102.733 E2.38808
G1 X106.2 Y102.733 E2.64085
G1 X106.2 Y120.133 E3.21958
G0 F6000 X106.96 Y119.373
;TYPE:SKIN
G1 F1200 X113.04 Y119.373 E3.4218
G1 X113.04 Y103.493 E3.94997
G1 X106.96 Y103.493 E4.1522
G1 X106.96 Y119.373 E4.68037
G0 F6000 X107.292 Y119.172
G1 F1200 X107.159 Y119.038 E4.68665
G0 F6000 X107.159 Y118.472
G1 F1200 X107.858 Y119.172 E4.71955
G0 F6000 X108.424 Y119.172
G1 F1200 X107.159 Y117.907 E4.77905
G0 F6000 X107.159 Y117.341
G1 F1200 X108.989 Y119.172 E4.86515
G0 F6000 X109.555 Y119.172
G1 F1200 X107.159 Y116.775 E4.97787
G0 F6000 X107.159 Y116.21
G1 F1200 X110.121 Y119.172 E5.1172
G0 F6000 X110.686 Y119.172
G1 F1200 X107.159 Y115.644 E5.28312
G0 F6000 X107.159 Y115.078
G1 F1200 X111.252 Y119.172 E5.47567
G0 F6000 X111.818 Y119.172
G1 F1200 X107.159 Y114.513 E5.69481
G0 F6000 X107.159 Y113.947
G1 F1200 X112.384 Y119.172 E5.94058
G0 F6000 X112.839 Y119.061
G1 F1200 X107.159 Y113.381 E6.20775
G0 F6000 X107.159 Y112.816
G1 F1200 X112.839 Y118.496 E6.47492
G0 F6000 X112.839 Y117.93
G1 F1200 X107.159 Y112.25 E6.74209
G0 F6000 X107.159 Y111.684
G1 F1200 X112.839 Y117.364 E7.00926
G0 F6000 X112.839 Y116.799
G1 F1200 X107.159 Y111.119 E7.27643
G0 F6000 X107.159 Y110.553
G1 F1200 X112.839 Y116.233 E7.5436
G0 F6000 X112.839 Y115.667
G1 F1200 X107.159 Y109.987 E7.81077
G0 F6000 X107.159 Y109.421
G1 F1200 X112.839 Y115.102 E8.07796
G0 F6000 X112.839 Y114.536
G1 F1200 X107.159 Y108.856 E8.34513
G0 F6000 X107.159 Y108.29
G1 F1200 X112.839 Y113.97 E8.6123
G0 F6000 X112.839 Y113.405
G1 F1200 X107.159 Y107.724 E8.87949
G0 F6000 X107.159 Y107.159
G1 F1200 X112.839 Y112.839 E9.14666
G0 F6000 X112.839 Y112.273
G1 F1200 X107.159 Y106.593 E9.41383
G0 F6000 X107.159 Y106.027
G1 F1200 X112.839 Y111.708 E9.68103
G0 F6000 X112.839 Y111.142
G1 F1200 X107.159 Y105.462 E9.9482
G0 F6000 X107.159 Y104.896
G1 F1200 X112.839 Y110.576 E10.21537
G0 F6000 X112.839 Y110.01
G1 F1200 X107.159 Y104.33 E10.48254
G0 F6000 X107.159 Y103.765
G1 F1200 X112.839 Y109.445 E10.74971
G0 F6000 X112.839 Y108.879
G1 F1200 X107.652 Y103.692 E10.99369
G0 F6000 X108.218 Y103.692
G1 F1200 X112.839 Y108.313 E11.21104
G0 F6000 X112.839 Y107.748
G1 F1200 X108.784 Y103.692 E11.4018
G0 F6000 X109.349 Y103.692
G1 F1200 X112.839 Y107.182 E11.56596
G0 F6000 X112.839 Y106.616
G1 F1200 X109.915 Y103.692 E11.7035
G0 F6000 X110.481 Y103.692
G1 F1200 X112.839 Y106.051 E11.81443
G0 F6000 X112.839 Y105.485
G1 F1200 X111.046 Y103.692 E11.89877
G0 F6000 X111.612 Y103.692
G1 F1200 X112.839 Y104.919 E11.95649
G0 F6000 X112.839 Y104.354
G1 F1200 X112.178 Y103.692 E11.9876
G0 F6000 X112.743 Y103.692
M104 S195
G1 F1200 X112.839 Y103.788 E11.99212
G1 F1500 E5.49212
G1 F300 Z0.4
;MESH:NONMESH
G0 F6000 X106.6 Y119.733 Z0.4
;TIME_ELAPSED:25.990989
;LAYER:1
M106 S85
;TYPE:WALL-INNER
;MESH:light-pipe-bracket.stl
G1 F300 Z0.4
G1 F1500 E11.99212
G1 F1350 X113.4 Y119.733 E12.21829
G1 X113.4 Y103.133 E12.7704
G1 X106.6 Y103.133 E12.99657
G1 X106.6 Y119.733 E13.54869
G0 F7500 X106.2 Y120.133
;TYPE:WALL-OUTER
G1 F1350 X113.8 Y120.133 E13.80147
G1 X113.8 Y102.733 E14.38019
G1 X106.2 Y102.733 E14.63297
G1 X106.2 Y120.133 E15.2117
G0 F7500 X106.96 Y119.373
;TYPE:SKIN
G1 F1350 X113.04 Y119.373 E15.41392
G1 X113.04 Y103.493 E15.94209
G1 X106.96 Y103.493 E16.14431
G1 X106.96 Y119.373 E16.67248
G1 F1500 E10.17248
G1 F300 Z0.6
G0 F7500 X112.838 Y119.092 Z0.6
G1 F300 Z0.4
G1 F1500 E16.67248
G1 F1350 X112.758 Y119.172 E16.67625
G0 F7500 X112.193 Y119.172
G1 F1350 X112.838 Y118.526 E16.70661
G0 F7500 X112.838 Y117.96
G1 F1350 X111.627 Y119.172 E16.76359
G0 F7500 X111.061 Y119.172
G1 F1350 X112.838 Y117.395 E16.84718
G0 F7500 X112.838 Y116.829
G1 F1350 X110.496 Y119.172 E16.95736
G0 F7500 X109.93 Y119.172
G1 F1350 X112.838 Y116.263 E17.09417
G0 F7500 X112.838 Y115.698
G1 F1350 X109.364 Y119.172 E17.25758
G0 F7500 X108.798 Y119.172
G1 F1350 X112.838 Y115.132 E17.4476
G0 F7500 X112.838 Y114.566
G1 F1350 X108.233 Y119.172 E17.66423
G0 F7500 X107.667 Y119.172
G1 F1350 X112.838 Y114.001 E17.90746
G0 F7500 X112.838 Y113.435
G1 F1350 X107.159 Y119.114 E18.17458
G0 F7500 X107.159 Y118.548
G1 F1350 X112.838 Y112.869 E18.44171
G0 F7500 X112.838 Y112.304
G1 F1350 X107.159 Y117.982 E18.70881
G0 F7500 X107.159 Y117.417
G1 F1350 X112.838 Y111.738 E18.97593
G0 F7500 X112.838 Y111.172
G1 F1350 X107.159 Y116.851 E19.24305
G0 F7500 X107.159 Y116.285
G1 F1350 X112.838 Y110.607 E19.51015
G0 F7500 X112.838 Y110.041
G1 F1350 X107.159 Y115.72 E19.77727
G0 F7500 X107.159 Y115.154
G1 F1350 X112.838 Y109.475 E20.0444
G0 F7500 X112.838 Y108.91
G1 F1350 X107.159 Y114.588 E20.3115
G0 F7500 X107.159 Y114.023
G1 F1350 X112.838 Y108.344 E20.57862
G0 F7500 X112.838 Y107.778
G1 F1350 X107.159 Y113.457 E20.84574
G0 F7500 X107.159 Y112.891
G1 F1350 X112.838 Y107.212 E21.11286
G0 F7500 X112.838 Y106.647
G1 F1350 X107.159 Y112.326 E21.37999
G0 F7500 X107.159 Y111.76
G1 F1350 X112.838 Y106.081 E21.64711
G0 F7500 X112.838 Y105.515
G1 F1350 X107.159 Y111.194 E21.91423
G0 F7500 X107.159 Y110.628
G1 F1350 X112.838 Y104.95 E22.18133
G0 F7500 X112.838 Y104.384
G1 F1350 X107.159 Y110.063 E22.44845
G0 F7500 X107.159 Y109.497
G1 F1350 X112.838 Y103.818 E22.71558
G0 F7500 X112.398 Y103.692
G1 F1350 X107.159 Y108.931 E22.962
G0 F7500 X107.159 Y108.366
G1 F1350 X111.833 Y103.692 E23.18185
G0 F7500 X111.267 Y103.692
G1 F1350 X107.159 Y107.8 E23.37508
G0 F7500 X107.159 Y107.234
G1 F1350 X110.701 Y103.692 E23.54169
G0 F7500 X110.136 Y103.692
G1 F1350 X107.159 Y106.669 E23.68172
G0 F7500 X107.159 Y106.103
G1 F1350 X109.57 Y103.692 E23.79512
G0 F7500 X109.004 Y103.692
G1 F1350 X107.159 Y105.537 E23.8819
G0 F7500 X107.159 Y104.972
G1 F1350 X108.439 Y103.692 E23.94211
G0 F7500 X107.873 Y103.692
G1 F1350 X107.159 Y104.406 E23.9757
G0 F7500 X107.159 Y103.84
G1 F1350 X107.307 Y103.692 E23.98266
G1 F1500 E17.48266
G1 F300 Z0.6
;MESH:NONMESH
G0 F7500 X106.6 Y119.733 Z0.6
;TIME_ELAPSED:46.747719
;LAYER:2
M106 S170
;TYPE:WALL-INNER
;MESH:light-pipe-bracket.stl
G1 F300 Z0.6
G1 F1500 E23.98266
G1 X113.4 Y119.733 E24.20883
G1 X113.4 Y103.133 E24.76094
G1 X106.6 Y103.133 E24.98711
G1 X106.6 Y119.733 E25.53923
G0 F9000 X106.2 Y120.133
;TYPE:WALL-OUTER
G1 F1500 X113.8 Y120.133 E25.79201
G1 X113.8 Y102.733 E26.37074
G1 X106.2 Y102.733 E26.62351
G1 X106.2 Y120.133 E27.20224
G0 F9000 X106.96 Y119.373
;TYPE:SKIN
G1 F1500 X113.04 Y119.373 E27.40446
G1 X113.04 Y103.493 E27.93263
G1 X106.96 Y103.493 E28.13485
G1 X106.96 Y119.373 E28.66302
G0 F9000 X107.292 Y119.172
G1 F1500 X107.159 Y119.038 E28.6693
G0 F9000 X107.159 Y118.472
G1 F1500 X107.858 Y119.172 E28.70221
G0 F9000 X108.424 Y119.172
G1 F1500 X107.159 Y117.907 E28.76171
G0 F9000 X107.159 Y117.341
G1 F1500 X108.989 Y119.172 E28.84781
G0 F9000 X109.555 Y119.172
G1 F1500 X107.159 Y116.775 E28.96053
G0 F9000 X107.159 Y116.21
G1 F1500 X110.121 Y119.172 E29.09986
G0 F9000 X110.686 Y119.172
G1 F1500 X107.159 Y115.644 E29.26578
G0 F9000 X107.159 Y115.078
G1 F1500 X111.252 Y119.172 E29.45832
G0 F9000 X111.818 Y119.172
G1 F1500 X107.159 Y114.513 E29.67747
G0 F9000 X107.159 Y113.947
G1 F1500 X112.384 Y119.172 E29.92324
G0 F9000 X112.839 Y119.061
G1 F1500 X107.159 Y113.381 E30.19041
G0 F9000 X107.159 Y112.816
G1 F1500 X112.839 Y118.496 E30.45758
G0 F9000 X112.839 Y117.93
G1 F1500 X107.159 Y112.25 E30.72475
G0 F9000 X107.159 Y111.684
G1 F1500 X112.839 Y117.364 E30.99192
G0 F9000 X112.839 Y116.799
G1 F1500 X107.159 Y111.119 E31.25909
G0 F9000 X107.159 Y110.553
G1 F1500 X112.839 Y116.233 E31.52626
G0 F9000 X112.839 Y115.667
G1 F1500 X107.159 Y109.987 E31.79343
G0 F9000 X107.159 Y109.421
G1 F1500 X112.839 Y115.102 E32.06062
G0 F9000 X112.839 Y114.536
G1 F1500 X107.159 Y108.856 E32.32779
G0 F9000 X107.159 Y108.29
G1 F1500 X112.839 Y113.97 E32.59496
G0 F9000 X112.839 Y113.405
G1 F1500 X107.159 Y107.724 E32.86215
G0 F9000 X107.159 Y107.159
G1 F1500 X112.839 Y112.839 E33.12932
G0 F9000 X112.839 Y112.273
G1 F1500 X107.159 Y106.593 E33.39649
G0 F9000 X107.159 Y106.027
G1 F1500 X112.839 Y111.708 E33.66368
G0 F9000 X112.839 Y111.142
G1 F1500 X107.159 Y105.462 E33.93085
G0 F9000 X107.159 Y104.896
G1 F1500 X112.839 Y110.576 E34.19802
G0 F9000 X112.839 Y110.01
G1 F1500 X107.159 Y104.33 E34.46519
G0 F9000 X107.159 Y103.765
G1 F1500 X112.839 Y109.445 E34.73236
G0 F9000 X112.839 Y108.879
G1 F1500 X107.652 Y103.692 E34.97634
G0 F9000 X108.218 Y103.692
G1 F1500 X112.839 Y108.313 E35.1937
G0 F9000 X112.839 Y107.748
G1 F1500 X108.784 Y103.692 E35.38446
G0 F9000 X109.349 Y103.692
G1 F1500 X112.839 Y107.182 E35.54862
G0 F9000 X112.839 Y106.616
G1 F1500 X109.915 Y103.692 E35.68616
G0 F9000 X110.481 Y103.692
G1 F1500 X112.839 Y106.051 E35.79709
G0 F9000 X112.839 Y105.485
G1 F1500 X111.046 Y103.692 E35.88143
G0 F9000 X111.612 Y103.692
G1 F1500 X112.839 Y104.919 E35.93914
G0 F9000 X112.839 Y104.354
G1 F1500 X112.178 Y103.692 E35.97026
G0 F9000 X112.743 Y103.692
G1 F1500 X112.839 Y103.788 E35.97477
G1 F1500 E29.47477
G1 F300 Z0.8
;MESH:NONMESH
G0 F9000 X106.6 Y119.733 Z0.8
;TIME_ELAPSED:65.562266
;LAYER:3
M106 S255
;TYPE:WALL-INNER
;MESH:light-pipe-bracket.stl
G1 F300 Z0.8
G1 F1500 E35.97477
G1 X113.4 Y119.733 E36.20094
G1 X113.4 Y103.133 E36.75306
G1 X106.6 Y103.133 E36.97923
G1 X106.6 Y119.733 E37.53135
G0 F9000 X106.2 Y120.133
;TYPE:WALL-OUTER
G1 F1500 X113.8 Y120.133 E37.78413
G1 X113.8 Y102.733 E38.36285
G1 X106.2 Y102.733 E38.61563
G1 X106.2 Y120.133 E39.19435
G0 F9000 X106.96 Y119.373
;TYPE:SKIN
G1 F1500 X113.04 Y119.373 E39.39658
G1 X113.04 Y103.493 E39.92475
G1 X106.96 Y103.493 E40.12697
G1 X106.96 Y119.373 E40.65514
G1 F1500 E34.15514
G1 F300 Z1
G0 F9000 X112.838 Y119.092 Z1
G1 F300 Z0.8
G1 F1500 E40.65514
G1 X112.758 Y119.172 E40.6589
G0 F9000 X112.193 Y119.172
G1 F1500 X112.838 Y118.526 E40.68927
G0 F9000 X112.838 Y117.96
G1 F1500 X111.627 Y119.172 E40.74625
G0 F9000 X111.061 Y119.172
G1 F1500 X112.838 Y117.395 E40.82984
G0 F9000 X112.838 Y116.829
G1 F1500 X110.496 Y119.172 E40.94002
G0 F9000 X109.93 Y119.172
G1 F1500 X112.838 Y116.263 E41.07683
G0 F9000 X112.838 Y115.698
G1 F1500 X109.364 Y119.172 E41.24023
G0 F9000 X108.798 Y119.172
G1 F1500 X112.838 Y115.132 E41.43026
G0 F9000 X112.838 Y114.566
G1 F1500 X108.233 Y119.172 E41.64689
G0 F9000 X107.667 Y119.172
G1 F1500 X112.838 Y114.001 E41.89012
G0 F9000 X112.838 Y113.435
G1 F1500 X107.159 Y119.114 E42.15724
G0 F9000 X107.159 Y118.548
G1 F1500 X112.838 Y112.869 E42.42436
G0 F9000 X112.838 Y112.304
G1 F1500 X107.159 Y117.982 E42.69146
G0 F9000 X107.159 Y117.417
G1 F1500 X112.838 Y111.738 E42.95859
G0 F9000 X112.838 Y111.172
G1 F1500 X107.159 Y116.851 E43.22571
G0 F9000 X107.159 Y116.285
G1 F1500 X112.838 Y110.607 E43.49281
G0 F9000 X112.838 Y110.041
G1 F1500 X107.159 Y115.72 E43.75993
G0 F9000 X107.159 Y115.154
G1 F1500 X112.838 Y109.475 E44.02705
G0 F9000 X112.838 Y108.91
G1 F1500 X107.159 Y114.588 E44.29415
G0 F9000 X107.159 Y114.023
G1 F1500 X112.838 Y108.344 E44.56128
G0 F9000 X112.838 Y107.778
G1 F1500 X107.159 Y113.457 E44.8284
G0 F9000 X107.159 Y112.891
G1 F1500 X112.838 Y107.212 E45.09552
G0 F9000 X112.838 Y106.647
G1 F1500 X107.159 Y112.326 E45.36264
G0 F9000 X107.159 Y111.76
G1 F1500 X112.838 Y106.081 E45.62977
G0 F9000 X112.838 Y105.515
G1 F1500 X107.159 Y111.194 E45.89689
G0 F9000 X107.159 Y110.628
G1 F1500 X112.838 Y104.95 E46.16399
G0 F9000 X112.838 Y104.384
G1 F1500 X107.159 Y110.063 E46.43111
G0 F9000 X107.159 Y109.497
G1 F1500 X112.838 Y103.818 E46.69823
G0 F9000 X112.398 Y103.692
G1 F1500 X107.159 Y108.931 E46.94466
G0 F9000 X107.159 Y108.366
G1 F1500 X111.833 Y103.692 E47.16451
G0 F9000 X111.267 Y103.692
G1 F1500 X107.159 Y107.8 E47.35774
G0 F9000 X107.159 Y107.234
G1 F1500 X110.701 Y103.692 E47.52434
G0 F9000 X110.136 Y103.692
G1 F1500 X107.159 Y106.669 E47.66437
G0 F9000 X107.159 Y106.103
G1 F1500 X109.57 Y103.692 E47.77778
G0 F9000 X109.004 Y103.692
G1 F1500 X107.159 Y105.537 E47.86456
G0 F9000 X107.159 Y104.972
G1 F1500 X108.439 Y103.692 E47.92477
G0 F9000 X107.873 Y103.692
G1 F1500 X107.159 Y104.406 E47.95835
G0 F9000 X107.159 Y103.84
G1 F1500 X107.307 Y103.692 E47.96531
G1 F1500 E41.46531
G1 F300 Z1
;MESH:NONMESH
G0 F9000 X106.84 Y117.403 Z1
;TIME_ELAPSED:84.926300
;LAYER:4
;TYPE:WALL-OUTER
;MESH:light-pipe-bracket.stl
G1 F300 Z1
G1 F1500 E47.96531
G1 F480 X111.564 Y117.403 E48.16172
G1 F482.9 X112.325 Y117.26 E48.19372
G1 F485.8 X113.002 Y116.815 E48.22699
G1 X113.447 Y116.139 E48.26024
G1 F484.8 X113.588 Y115.403 E48.29108
G1 X113.447 Y114.668 E48.32189
G1 F485.8 X113.002 Y113.991 E48.35516
G1 X112.325 Y113.546 E48.38844
G1 F482.9 X111.564 Y113.403 E48.42044
G1 F481 X106.84 Y113.403 E48.61645
G1 F480 X106.84 Y113.903 E48.63724
G1 F482.9 X111.588 Y113.905 E48.83345
G1 F484.8 X112.141 Y114.011 E48.85663
G1 F485.8 X112.649 Y114.344 E48.88158
G1 F487.8 X112.979 Y114.843 E48.90605
G1 F486.8 X113.087 Y115.403 E48.92943
G1 F484.8 X112.982 Y115.954 E48.95252
G1 F486.8 X112.655 Y116.457 E48.97711
G1 X112.141 Y116.796 E49.00235
G1 F483.9 X111.592 Y116.903 E49.02542
G1 F481.9 X106.84 Y116.903 E49.2222
G1 F480 X106.84 Y117.403 E49.24298
;TIME_ELAPSED:89.083507
;LAYER:5
;MESH:light-pipe-bracket.stl
G0 F9000 X106.84 Y117.403 Z1.2
;TYPE:WALL-OUTER
G1 F480 X111.564 Y117.403 E49.43938
G1 F482.9 X112.325 Y117.26 E49.47138
G1 F485.8 X113.002 Y116.815 E49.50466
G1 X113.447 Y116.139 E49.53791
G1 F484.8 X113.588 Y115.403 E49.56875
G1 X113.447 Y114.668 E49.59955
G1 F485.8 X113.002 Y113.991 E49.63283
G1 X112.325 Y113.546 E49.66611
G1 F482.9 X111.564 Y113.403 E49.69811
G1 F481 X106.84 Y113.403 E49.89412
G1 F480 X106.84 Y113.903 E49.9149
G1 F482.9 X111.588 Y113.905 E50.11112
G1 F484.8 X112.141 Y114.011 E50.13429
G1 F485.8 X112.649 Y114.344 E50.15925
G1 F487.8 X112.979 Y114.843 E50.18372
G1 F486.8 X113.087 Y115.403 E50.2071
G1 F484.8 X112.982 Y115.954 E50.23019
G1 F486.8 X112.655 Y116.457 E50.25478
G1 X112.141 Y116.796 E50.28002
G1 F484.8 X111.588 Y116.901 E50.30319
G1 F482.9 X106.84 Y116.903 E50.4994
G1 F480 X106.84 Y117.403 E50.52019
;TIME_ELAPSED:93.023913
;LAYER:6
;MESH:light-pipe-bracket.stl
G0 F9000 X106.84 Y117.403 Z1.4
;TYPE:WALL-OUTER
G1 F480 X111.564 Y117.403 E50.71659
G1 F482.9 X112.325 Y117.26 E50.74859
G1 F485.8 X113.002 Y116.815 E50.78187
G1 X113.447 Y116.139 E50.81511
G1 F484.8 X113.588 Y115.403 E50.84596
G1 X113.447 Y114.668 E50.87676
G1 F485.8 X113.002 Y113.991 E50.91004
G1 X112.325 Y113.546 E50.94332
G1 F482.9 X111.564 Y113.403 E50.97532
G1 F481 X106.84 Y113.403 E51.17132
G1 F480 X106.84 Y113.903 E51.19211
G1 F482.9 X111.588 Y113.905 E51.38833
G1 F484.8 X112.141 Y114.011 E51.4115
G1 F485.8 X112.649 Y114.344 E51.43645
G1 F487.8 X112.979 Y114.843 E51.46093
G1 F486.8 X113.087 Y115.403 E51.48431
G1 F484.8 X112.982 Y115.954 E51.50739
G1 F486.8 X112.655 Y116.457 E51.53199
G1 X112.141 Y116.796 E51.55723
G1 F484.8 X111.588 Y116.901 E51.58039
G1 F482.9 X106.84 Y116.903 E51.77661
G1 F480 X106.84 Y117.403 E51.7974
